(Exported by FreeCAD)
(Post Processor: grbl_post)
(Output Time:2023-07-13 13:33:37.676822)
(Begin preamble)
G17 G90
G21
(Begin operation: G54)
(Path: G54)
G54
G0 Z5.000
(Finish operation: G54)
(Begin operation: 60 Deg. V-Bit002)
(Path: 60 Deg. V-Bit002)
(60 Deg. V-Bit002)
(Begin toolchange)
( M6 T2 )
M3 S16000
(Finish operation: 60 Deg. V-Bit002)
(Begin operation: Vcarve)
(Path: Vcarve)
(starting)
G0 Z3.000
G0 X18.106 Y-4.762 Z3.000
G1 X18.106 Y-4.762 Z-0.529 F801.000
G1 X18.274 Y-4.493 Z-0.203 F1192.969
G1 X18.312 Y-4.418 Z-0.135 F1257.607
G1 X18.410 Y-4.136 Z0.010 F1370.120
G1 X18.419 Y-4.086 Z0.018 F1520.118
G1 X18.423 Y-4.067 Z0.019 F1573.932
G1 X18.467 Y-3.811 Z0.028 F1581.602
G1 X18.477 Y-3.762 Z0.027 F1595.911
G1 X18.486 Y-3.723 Z0.026 F1573.767
G1 X18.546 Y-3.496 Z0.027 F1596.307
G1 X18.561 Y-3.444 Z0.023 F1579.382
G1 X18.573 Y-3.406 Z0.022 F1554.471
G1 X18.653 Y-3.186 Z0.015 F1584.795
G1 X18.673 Y-3.136 Z0.008 F1559.917
G1 X18.687 Y-3.103 Z0.006 F1538.149
G1 X18.788 Y-2.885 Z-0.009 F1568.015
G1 X18.812 Y-2.838 Z-0.018 F1543.342
G1 X18.826 Y-2.812 Z-0.019 F1522.232
G1 X18.952 Y-2.594 Z-0.043 F1552.643
G1 X18.979 Y-2.549 Z-0.053 F1531.344
G1 X18.988 Y-2.536 Z-0.053 F1508.299
G1 X19.145 Y-2.311 Z-0.086 F1538.938
G1 X19.174 Y-2.271 Z-0.096 F1520.685
G1 X19.177 Y-2.267 Z-0.097 F1528.680
G1 X19.369 Y-2.036 Z-0.138 F1526.971
G1 X19.382 Y-2.020 Z-0.142 F1518.661
G1 X19.400 Y-2.001 Z-0.146 F1532.384
G1 X19.606 Y-1.787 Z-0.191 F1520.499
G1 X19.609 Y-1.783 Z-0.192 F1553.192
G1 X19.651 Y-1.746 Z-0.201 F1538.980
G1 X19.871 Y-1.554 Z-0.245 F1519.535
G1 X19.900 Y-1.529 Z-0.255 F1507.037
G1 X19.918 Y-1.516 Z-0.258 F1528.595
G1 X20.150 Y-1.350 Z-0.300 F1521.306
G1 X20.197 Y-1.318 Z-0.313 F1504.074
G1 X20.203 Y-1.314 Z-0.314 F1532.882
G1 X20.446 Y-1.175 Z-0.353 F1525.375
G1 X20.496 Y-1.147 Z-0.365 F1509.202
G1 X20.508 Y-1.142 Z-0.367 F1534.399
G1 X20.763 Y-1.029 Z-0.403 F1531.574
G1 X20.798 Y-1.014 Z-0.411 F1520.394
G1 X20.833 Y-1.002 Z-0.415 F1546.413
G1 X21.098 Y-0.918 Z-0.448 F1536.758
G1 X21.105 Y-0.916 Z-0.451 F1533.868
G1 X21.168 Y-0.901 Z-0.455 F1563.831
G1 X21.421 Y-0.848 Z-0.482 F1544.760
G1 X21.444 Y-0.845 Z-0.482 F1593.564
G1 X21.520 Y-0.835 Z-0.489 F1572.501
G1 X21.750 Y-0.812 Z-0.508 F1551.311
G1 X21.806 Y-0.810 Z-0.509 F1596.395
G1 X21.885 Y-0.808 Z-0.515 F1576.958
G1 X22.103 Y-0.808 Z-0.533 F1553.153
G1 X22.197 Y-0.813 Z-0.535 F1591.355
G1 X22.294 Y-0.820 Z-0.543 F1565.507
G1 X22.365 Y-0.827 Z-0.550 F1538.692
G1 X22.591 Y-0.859 Z-0.563 F1570.915
G1 X22.610 Y-0.862 Z-0.565 F1565.974
G1 X22.689 Y-0.879 Z-0.569 F1573.612
G1 X22.832 Y-0.914 Z-0.582 F1552.934
G1 X22.971 Y-0.955 Z-0.585 F1589.851
G1 X23.035 Y-0.975 Z-0.590 F1573.484
G1 X23.076 Y-0.992 Z-0.591 F1584.992
G1 X23.220 Y-1.052 Z-0.598 F1572.710
G1 X23.340 Y-1.109 Z-0.594 F1584.296
G1 X23.391 Y-1.135 Z-0.595 F1599.108
G1 X23.448 Y-1.170 Z-0.593 F1586.347
G1 X23.549 Y-1.234 Z-0.594 F1593.620
G1 X23.681 Y-1.328 Z-0.582 F1560.473
G1 X23.708 Y-1.348 Z-0.581 F1569.619
G1 X23.800 Y-1.428 Z-0.575 F1575.068
G1 X23.847 Y-1.472 Z-0.575 F1591.238
G1 X23.962 Y-1.593 Z-0.563 F1561.405
G1 X23.990 Y-1.624 Z-0.556 F1509.683
G1 X24.062 Y-1.716 Z-0.542 F1541.684
G1 X24.083 Y-1.748 Z-0.537 F1528.477
G1 X24.145 Y-1.849 Z-0.524 F1543.601
G1 X24.219 Y-1.986 Z-0.490 F1491.367
G1 X24.224 Y-1.995 Z-0.487 F1495.429
G1 X24.274 Y-2.117 Z-0.457 F1484.438
G1 X24.288 Y-2.157 Z-0.451 F1519.272
G1 X24.343 Y-2.341 Z-0.403 F1475.941
G1 X24.355 Y-2.391 Z-0.386 F1434.648
G1 X24.378 Y-2.496 Z-0.355 F1463.918
G1 X24.384 Y-2.535 Z-0.348 F1495.530
G1 X24.403 Y-2.725 Z-0.285 F1437.374
G0 Z3.000
G0 X24.401 Y-2.905 Z3.000
G1 X24.401 Y-2.905 Z-0.198 F801.000
G1 X24.402 Y-2.840 Z-0.228 F1382.462
G1 X24.403 Y-2.725 Z-0.285 F1366.773
G1 X25.058 Y-2.853 Z0.866 F1068.393
G0 Z3.000
G0 X24.972 Y-3.139 Z3.000
G1 X24.972 Y-3.139 Z0.865 F801.000
G1 X24.401 Y-2.905 Z-0.199 F1068.377
G1 X24.391 Y-2.959 Z-0.169 F1348.993
G1 X24.363 Y-3.106 Z-0.095 F1363.440
G0 Z3.000
G0 X24.830 Y-3.409 Z3.000
G1 X24.830 Y-3.409 Z0.866 F801.000
G1 X24.363 Y-3.106 Z-0.095 F1068.233
G1 X24.311 Y-3.285 Z0.026 F1307.964
G1 X24.291 Y-3.346 Z0.065 F1325.086
G1 X24.283 Y-3.363 Z0.078 F1298.472
G1 X24.180 Y-3.576 Z0.231 F1306.662
G1 X24.152 Y-3.629 Z0.269 F1328.401
G1 X24.132 Y-3.664 Z0.287 F1354.679
G1 X24.046 Y-3.796 Z0.382 F1324.080
G1 X24.022 Y-3.830 Z0.407 F1345.279
G1 X23.806 Y-4.116 Z0.579 F1370.041
G0 Z3.000
G0 X23.769 Y-4.151 Z3.000
G1 X23.769 Y-4.151 Z0.619 F801.000
G1 X23.806 Y-4.116 Z0.581 F1275.820
G1 X23.883 Y-4.264 Z0.865 F1070.039
G0 Z3.000
G0 X23.731 Y-4.200 Z3.000
G1 X23.731 Y-4.200 Z0.677 F801.000
G1 X23.769 Y-4.151 Z0.618 F1214.437
G1 X23.628 Y-4.118 Z0.865 F1071.409
G0 Z3.000
G0 X23.620 Y-4.206 Z3.000
G1 X23.620 Y-4.206 Z0.865 F801.000
G1 X23.731 Y-4.200 Z0.677 F1072.414
G1 X23.715 Y-4.226 Z0.711 F1164.900
G1 X23.719 Y-4.319 Z0.865 F1076.190
G0 Z3.000
G0 X23.666 Y-4.306 Z3.000
G1 X23.666 Y-4.306 Z0.866 F801.000
G1 X23.714 Y-4.228 Z0.714 F1077.524
G1 X23.633 Y-4.268 Z0.865 F1074.956
G0 Z3.000
G0 X23.714 Y-4.228 Z3.000
G1 X23.714 Y-4.228 Z0.715 F801.000
G1 X23.715 Y-4.226 Z0.712 F1111.310
G0 Z3.000
G0 X20.653 Y-7.016 Z3.000
G1 X20.653 Y-7.016 Z0.866 F801.000
G1 X20.547 Y-7.102 Z0.637 F1074.668
G1 X20.465 Y-7.102 Z0.552 F1190.314
G1 X20.413 Y-7.099 Z0.502 F1213.173
G1 X19.483 Y-7.091 Z-0.319 F1232.136
G1 X19.333 Y-7.083 Z-0.462 F1213.430
G1 X19.142 Y-7.065 Z-0.656 F1198.187
G1 X19.049 Y-7.242 Z-0.471 F1219.940
G1 X19.034 Y-7.272 Z-0.440 F1223.723
G1 X19.000 Y-7.339 Z-0.372 F1228.094
G1 X18.943 Y-7.445 Z-0.269 F1244.239
G1 X18.796 Y-7.691 Z-0.048 F1262.871
G1 X18.760 Y-7.747 Z0.003 F1276.970
G1 X18.661 Y-7.893 Z0.123 F1292.903
G1 X18.654 Y-7.903 Z0.131 F1296.554
G1 X18.581 Y-8.014 Z0.220 F1299.951
G1 X18.580 Y-8.015 Z0.224 F1293.382
G1 X18.385 Y-8.310 Z0.457 F1300.882
G1 X18.383 Y-8.314 Z0.460 F1298.086
G1 X18.300 Y-8.441 Z0.558 F1307.944
G1 X18.288 Y-8.463 Z0.577 F1270.776
G1 X18.275 Y-8.483 Z0.596 F1253.770
G0 Z3.000
G0 X18.275 Y-8.484 Z3.000
G1 X18.275 Y-8.484 Z0.600 F801.000
G1 X18.275 Y-8.483 Z0.599 F1159.091
G1 X18.320 Y-8.638 Z0.865 F1075.647
G0 Z3.000
G0 X18.252 Y-8.638 Z3.000
G1 X18.252 Y-8.638 Z0.866 F801.000
G1 X18.275 Y-8.484 Z0.599 F1069.568
G1 X18.264 Y-8.492 Z0.617 F1123.921
G0 Z3.000
G0 X18.245 Y-8.510 Z3.000
G1 X18.245 Y-8.510 Z0.657 F801.000
G1 X18.182 Y-8.617 Z0.865 F1074.017
G0 Z3.000
G0 X18.138 Y-8.574 Z3.000
G1 X18.138 Y-8.574 Z0.865 F801.000
G1 X18.245 Y-8.510 Z0.658 F1075.852
G1 X18.264 Y-8.492 Z0.618 F1096.167
G1 X18.119 Y-8.508 Z0.866 F1070.766
G0 Z3.000
G0 X19.142 Y-7.065 Z3.000
G1 X19.142 Y-7.065 Z-0.654 F801.000
G1 X19.082 Y-6.947 Z-0.568 F1306.632
G1 X19.065 Y-6.914 Z-0.544 F1312.709
G1 X19.026 Y-6.841 Z-0.500 F1349.761
G1 X18.998 Y-6.785 Z-0.474 F1396.970
G1 X18.854 Y-6.489 Z-0.346 F1411.928
G1 X18.834 Y-6.444 Z-0.329 F1423.779
G1 X18.810 Y-6.390 Z-0.313 F1471.082
G1 X18.809 Y-6.389 Z-0.313 F1521.884
G1 X18.659 Y-6.049 Z-0.245 F1508.247
G1 X18.630 Y-5.987 Z-0.236 F1531.809
G1 X18.626 Y-5.980 Z-0.235 F1553.819
G1 X18.589 Y-5.900 Z-0.233 F1584.506
G1 X18.484 Y-5.652 Z-0.240 F1585.826
G1 X18.456 Y-5.590 Z-0.245 F1560.546
G1 X18.416 Y-5.508 Z-0.256 F1539.975
G1 X18.375 Y-5.416 Z-0.276 F1504.247
G1 X18.310 Y-5.252 Z-0.319 F1474.957
G1 X18.282 Y-5.185 Z-0.341 F1452.456
G1 X18.210 Y-5.028 Z-0.400 F1432.818
G1 X18.165 Y-4.919 Z-0.448 F1403.357
G1 X18.135 Y-4.835 Z-0.490 F1376.566
G1 X18.106 Y-4.762 Z-0.530 F1359.968
G0 Z3.000
G0 X18.106 Y-4.762 Z3.000
G1 X18.106 Y-4.762 Z-0.530 F801.000
G1 X18.100 Y-4.760 Z-0.525 F1236.779
G1 X17.730 Y-4.582 Z-0.251 F1301.667
G1 X17.678 Y-4.547 Z-0.229 F1426.529
G1 X17.553 Y-4.452 Z-0.203 F1517.417
G1 X17.375 Y-4.298 Z-0.189 F1570.412
G1 X17.334 Y-4.264 Z-0.188 F1591.433
G1 X17.063 Y-4.049 Z-0.195 F1589.862
G1 X17.014 Y-4.014 Z-0.191 F1567.916
G1 X16.973 Y-3.985 Z-0.190 F1585.800
G1 X16.618 Y-3.752 Z-0.193 F1596.050
G1 X16.586 Y-3.731 Z-0.195 F1582.684
G1 X16.564 Y-3.718 Z-0.196 F1569.426
G1 X16.205 Y-3.521 Z-0.187 F1588.202
G1 X16.165 Y-3.500 Z-0.187 F1593.317
G1 X16.040 Y-3.438 Z-0.193 F1578.205
G1 X15.770 Y-3.319 Z-0.181 F1578.944
G1 X15.727 Y-3.301 Z-0.181 F1595.633
G1 X15.486 Y-3.205 Z-0.186 F1589.205
G1 X15.315 Y-3.147 Z-0.175 F1569.058
G1 X15.274 Y-3.134 Z-0.174 F1588.165
G1 X14.902 Y-3.021 Z-0.175 F1598.168
G1 X14.847 Y-3.007 Z-0.171 F1561.795
G1 X14.807 Y-2.998 Z-0.169 F1579.146
G1 X14.363 Y-2.901 Z-0.164 F1593.728
G1 X14.323 Y-2.893 Z-0.165 F1590.062
G1 X14.285 Y-2.886 Z-0.166 F1577.189
G1 X13.862 Y-2.828 Z-0.153 F1584.661
G1 X13.825 Y-2.824 Z-0.153 F1600.000
G1 X13.634 Y-2.804 Z-0.159 F1586.460
G1 X13.349 Y-2.786 Z-0.146 F1577.645
G1 X13.313 Y-2.784 Z-0.145 F1591.525
G1 X12.945 Y-2.772 Z-0.148 F1596.123
G1 X12.820 Y-2.771 Z-0.142 F1575.775
G1 X12.786 Y-2.772 Z-0.141 F1589.251
G1 X12.402 Y-2.782 Z-0.142 F1598.943
G1 X12.331 Y-2.786 Z-0.139 F1577.598
G1 X12.297 Y-2.789 Z-0.139 F1592.598
G1 X11.869 Y-2.824 Z-0.141 F1596.687
G1 X11.854 Y-2.826 Z-0.141 F1575.940
G1 X11.820 Y-2.831 Z-0.140 F1592.572
G1 X11.387 Y-2.892 Z-0.146 F1593.841
G1 X11.349 Y-2.898 Z-0.147 F1578.918
G1 X11.348 Y-2.898 Z-0.147 F1600.000
G1 X10.927 Y-2.985 Z-0.154 F1591.495
G1 X10.889 Y-2.993 Z-0.156 F1574.815
G1 X10.841 Y-3.005 Z-0.160 F1562.765
G1 X10.477 Y-3.103 Z-0.168 F1588.410
G1 X10.440 Y-3.113 Z-0.171 F1572.072
G1 X10.348 Y-3.142 Z-0.178 F1558.446
G1 X10.038 Y-3.246 Z-0.188 F1584.613
G1 X9.999 Y-3.260 Z-0.191 F1569.705
G1 X9.870 Y-3.309 Z-0.203 F1556.157
G1 X9.605 Y-3.417 Z-0.213 F1582.205
G1 X9.568 Y-3.433 Z-0.215 F1567.138
G1 X9.405 Y-3.506 Z-0.232 F1552.085
G1 X9.184 Y-3.614 Z-0.242 F1579.079
G1 X9.147 Y-3.633 Z-0.245 F1566.326
G1 X8.955 Y-3.734 Z-0.266 F1550.205
G1 X8.772 Y-3.837 Z-0.277 F1575.379
G1 X8.734 Y-3.859 Z-0.280 F1561.580
G1 X8.518 Y-3.991 Z-0.306 F1547.523
G1 X8.368 Y-4.088 Z-0.315 F1573.533
G1 X8.333 Y-4.112 Z-0.319 F1560.248
G1 X8.096 Y-4.277 Z-0.350 F1545.348
G1 X7.975 Y-4.366 Z-0.359 F1570.692
G1 X7.940 Y-4.393 Z-0.362 F1557.481
G1 X7.687 Y-4.592 Z-0.397 F1544.714
G1 X7.591 Y-4.672 Z-0.405 F1568.755
G1 X7.560 Y-4.700 Z-0.409 F1557.588
G1 X7.293 Y-4.936 Z-0.449 F1542.658
G1 X7.219 Y-5.005 Z-0.456 F1566.516
G1 X7.187 Y-5.035 Z-0.460 F1553.730
G1 X6.910 Y-5.309 Z-0.504 F1542.699
G1 X6.855 Y-5.366 Z-0.509 F1564.878
G1 X6.826 Y-5.397 Z-0.513 F1553.088
G1 X6.542 Y-5.709 Z-0.562 F1541.747
G1 X6.503 Y-5.754 Z-0.566 F1564.635
G1 X6.477 Y-5.786 Z-0.569 F1553.573
G1 X6.187 Y-6.139 Z-0.621 F1542.573
G1 X6.163 Y-6.169 Z-0.624 F1563.244
G1 X6.130 Y-6.212 Z-0.629 F1549.120
G1 X5.846 Y-6.600 Z-0.691 F1535.053
G1 X5.594 Y-6.959 Z-0.730 F1554.864
G1 X5.553 Y-7.022 Z-0.740 F1537.225
G1 X5.533 Y-7.052 Z-0.745 F1520.152
G1 X5.249 Y-7.517 Z-0.811 F1538.575
G1 X5.079 Y-7.809 Z-0.840 F1557.439
G1 X5.041 Y-7.878 Z-0.849 F1540.637
G1 X4.984 Y-7.985 Z-0.867 F1522.784
G1 X4.746 Y-8.461 Z-0.929 F1541.641
G1 X4.630 Y-8.705 Z-0.950 F1560.868
G1 X4.596 Y-8.781 Z-0.959 F1543.936
G1 X4.528 Y-8.941 Z-0.984 F1526.461
G1 X4.332 Y-9.429 Z-1.041 F1545.535
G1 X4.250 Y-9.647 Z-1.056 F1565.730
G1 X4.222 Y-9.727 Z-1.065 F1549.732
G1 X4.158 Y-9.921 Z-1.092 F1531.913
G1 X4.003 Y-10.423 Z-1.143 F1550.742
G1 X3.944 Y-10.634 Z-1.156 F1570.359
G1 X3.921 Y-10.719 Z-1.164 F1554.831
G1 X3.870 Y-10.930 Z-1.190 F1538.498
G1 X3.757 Y-11.445 Z-1.235 F1557.362
G1 X3.713 Y-11.666 Z-1.245 F1576.994
G1 X3.698 Y-11.751 Z-1.251 F1561.631
G1 X3.663 Y-11.968 Z-1.275 F1545.988
G1 X3.589 Y-12.501 Z-1.312 F1564.605
G1 X3.561 Y-12.738 Z-1.321 F1582.560
G1 X3.552 Y-12.820 Z-1.326 F1567.431
G1 X3.534 Y-13.041 Z-1.346 F1553.123
G1 X3.498 Y-13.592 Z-1.377 F1571.380
G1 X3.487 Y-13.844 Z-1.383 F1588.304
G1 X3.485 Y-13.907 Z-1.386 F1579.603
G1 X3.480 Y-14.153 Z-1.402 F1567.459
G1 X3.479 Y-14.540 Z-1.413 F1584.350
G1 X3.479 Y-14.584 Z-1.415 F1577.170
G1 X3.481 Y-14.726 Z-1.424 F1570.503
G1 X3.498 Y-15.209 Z-1.436 F1586.857
G1 X3.500 Y-15.253 Z-1.438 F1579.371
G1 X3.506 Y-15.380 Z-1.445 F1571.595
G1 X3.540 Y-15.867 Z-1.457 F1587.813
G1 X3.543 Y-15.913 Z-1.458 F1581.053
G1 X3.553 Y-16.021 Z-1.464 F1572.446
G1 X3.605 Y-16.518 Z-1.475 F1589.409
G1 X3.611 Y-16.567 Z-1.476 F1582.427
G1 X3.621 Y-16.648 Z-1.481 F1573.996
G1 X3.695 Y-17.163 Z-1.490 F1591.100
G1 X3.703 Y-17.211 Z-1.491 F1583.422
G1 X3.711 Y-17.261 Z-1.494 F1574.845
G1 X3.809 Y-17.796 Z-1.501 F1593.270
G1 X3.818 Y-17.845 Z-1.502 F1585.604
G1 X3.821 Y-17.860 Z-1.503 F1576.711
G1 X3.947 Y-18.421 Z-1.509 F1594.690
G1 X3.953 Y-18.446 Z-1.510 F1592.177
G1 X3.960 Y-18.472 Z-1.510 F1600.000
G1 X4.105 Y-19.019 Z-1.513 F1596.853
G1 X4.111 Y-19.038 Z-1.512 F1581.893
G1 X4.126 Y-19.087 Z-1.512 F1592.033
G1 X4.278 Y-19.580 Z-1.513 F1598.817
G1 X4.299 Y-19.643 Z-1.510 F1581.631
G1 X4.317 Y-19.692 Z-1.509 F1589.298
G1 X4.472 Y-20.130 Z-1.508 F1598.906
G1 X4.513 Y-20.237 Z-1.504 F1579.543
G1 X4.533 Y-20.288 Z-1.502 F1587.010
G1 X4.686 Y-20.668 Z-1.499 F1596.283
G1 X4.752 Y-20.822 Z-1.491 F1576.214
G1 X4.774 Y-20.870 Z-1.490 F1584.552
G1 X4.922 Y-21.197 Z-1.485 F1593.637
G1 X5.015 Y-21.392 Z-1.475 F1574.835
G1 X5.039 Y-21.440 Z-1.473 F1582.907
G1 X5.179 Y-21.719 Z-1.468 F1591.845
G1 X5.304 Y-21.952 Z-1.453 F1572.362
G1 X5.329 Y-21.998 Z-1.452 F1581.395
G1 X5.457 Y-22.228 Z-1.446 F1589.762
G1 X5.616 Y-22.499 Z-1.427 F1569.390
G1 X5.641 Y-22.542 Z-1.425 F1576.643
G1 X5.757 Y-22.730 Z-1.419 F1587.144
G1 X5.951 Y-23.031 Z-1.397 F1568.742
G1 X5.978 Y-23.073 Z-1.395 F1576.705
G1 X6.080 Y-23.226 Z-1.390 F1585.885
G1 X6.309 Y-23.551 Z-1.364 F1566.897
G1 X6.342 Y-23.597 Z-1.361 F1574.831
G1 X6.426 Y-23.712 Z-1.357 F1584.675
G1 X6.728 Y-24.105 Z-1.323 F1565.548
G1 X6.766 Y-24.152 Z-1.321 F1576.667
G1 X6.807 Y-24.203 Z-1.319 F1587.477
G1 X7.167 Y-24.626 Z-1.281 F1565.642
G1 X7.198 Y-24.662 Z-1.279 F1573.063
G1 X7.210 Y-24.676 Z-1.278 F1564.214
G1 X7.600 Y-25.089 Z-1.240 F1566.569
G1 X7.624 Y-25.113 Z-1.236 F1543.270
G1 X7.670 Y-25.159 Z-1.231 F1554.150
G1 X8.013 Y-25.485 Z-1.200 F1567.435
G1 X8.098 Y-25.561 Z-1.187 F1543.220
G1 X8.149 Y-25.606 Z-1.181 F1554.736
G1 X8.438 Y-25.851 Z-1.158 F1568.465
G1 X8.590 Y-25.974 Z-1.136 F1544.005
G1 X8.646 Y-26.017 Z-1.130 F1555.724
G1 X8.873 Y-26.188 Z-1.113 F1569.834
G1 X9.100 Y-26.349 Z-1.083 F1544.567
G1 X9.159 Y-26.389 Z-1.077 F1557.587
G1 X9.322 Y-26.497 Z-1.066 F1571.717
G1 X9.625 Y-26.685 Z-1.027 F1545.149
G1 X9.687 Y-26.722 Z-1.022 F1559.076
G1 X9.784 Y-26.778 Z-1.016 F1572.906
G1 X10.166 Y-26.982 Z-0.971 F1547.533
G1 X10.227 Y-27.014 Z-0.966 F1563.045
G1 X10.261 Y-27.031 Z-0.964 F1576.331
G1 X10.718 Y-27.239 Z-0.914 F1549.670
G1 X10.753 Y-27.255 Z-0.911 F1557.141
G1 X10.781 Y-27.266 Z-0.908 F1544.677
G1 X11.263 Y-27.450 Z-0.860 F1552.950
G1 X11.284 Y-27.457 Z-0.857 F1526.832
G1 X11.348 Y-27.479 Z-0.849 F1541.398
G1 X11.789 Y-27.616 Z-0.809 F1556.670
G1 X11.862 Y-27.636 Z-0.799 F1530.685
G1 X11.925 Y-27.653 Z-0.792 F1545.076
G1 X12.335 Y-27.752 Z-0.758 F1559.544
G1 X12.451 Y-27.777 Z-0.743 F1535.244
G1 X12.512 Y-27.789 Z-0.737 F1550.145
G1 X12.897 Y-27.858 Z-0.709 F1563.914
G1 X13.048 Y-27.880 Z-0.691 F1538.548
G1 X13.105 Y-27.888 Z-0.685 F1553.263
G1 X13.478 Y-27.931 Z-0.661 F1567.258
G1 X13.654 Y-27.947 Z-0.642 F1544.632
G1 X13.708 Y-27.952 Z-0.637 F1557.584
G1 X14.076 Y-27.973 Z-0.617 F1572.410
G1 X14.268 Y-27.978 Z-0.597 F1546.042
G1 X14.320 Y-27.979 Z-0.592 F1557.944
G1 X14.872 Y-27.978 Z-0.562 F1572.202
G1 X14.893 Y-27.977 Z-0.560 F1540.775
G1 X14.945 Y-27.974 Z-0.555 F1553.726
G1 X15.616 Y-27.927 Z-0.512 F1567.612
G1 X15.638 Y-27.925 Z-0.511 F1572.226
G1 X15.671 Y-27.921 Z-0.508 F1556.747
G1 X16.316 Y-27.828 Z-0.464 F1565.413
G1 X16.374 Y-27.819 Z-0.462 F1580.782
G1 X16.378 Y-27.818 Z-0.461 F1588.765
G1 X16.994 Y-27.680 Z-0.415 F1562.993
G1 X17.049 Y-27.667 Z-0.413 F1580.183
G1 X17.093 Y-27.655 Z-0.413 F1597.765
G1 X17.644 Y-27.485 Z-0.370 F1561.911
G1 X17.700 Y-27.466 Z-0.367 F1578.434
G1 X17.783 Y-27.437 Z-0.367 F1596.534
G1 X18.270 Y-27.241 Z-0.325 F1559.690
G1 X18.322 Y-27.220 Z-0.323 F1578.105
G1 X18.449 Y-27.161 Z-0.322 F1596.739
G1 X18.867 Y-26.952 Z-0.285 F1560.159
G1 X18.917 Y-26.926 Z-0.283 F1578.324
G1 X19.092 Y-26.828 Z-0.281 F1596.190
G1 X19.440 Y-26.616 Z-0.249 F1560.263
G1 X19.485 Y-26.588 Z-0.247 F1578.910
G1 X19.711 Y-26.436 Z-0.245 F1597.012
G1 X19.983 Y-26.236 Z-0.218 F1559.262
G1 X20.024 Y-26.206 Z-0.216 F1576.678
G1 X20.282 Y-25.999 Z-0.212 F1594.317
G1 X20.480 Y-25.828 Z-0.189 F1555.798
G1 X20.519 Y-25.792 Z-0.187 F1575.246
G1 X20.784 Y-25.540 Z-0.182 F1593.174
G1 X20.913 Y-25.404 Z-0.164 F1551.375
G1 X20.954 Y-25.361 Z-0.161 F1574.097
G1 X21.214 Y-25.059 Z-0.157 F1594.642
G1 X21.287 Y-24.965 Z-0.145 F1549.534
G1 X21.326 Y-24.914 Z-0.142 F1574.714
G1 X21.573 Y-24.557 Z-0.141 F1599.531
G1 X21.602 Y-24.509 Z-0.136 F1550.532
G1 X21.639 Y-24.447 Z-0.133 F1578.129
G1 X21.857 Y-24.035 Z-0.137 F1594.985
G1 X21.859 Y-24.032 Z-0.137 F1583.126
G1 X21.888 Y-23.963 Z-0.135 F1584.421
G1 X22.049 Y-23.539 Z-0.147 F1586.988
G1 X22.069 Y-23.483 Z-0.151 F1563.568
G1 X22.075 Y-23.461 Z-0.152 F1583.974
G1 X22.180 Y-23.026 Z-0.173 F1576.284
G1 X22.197 Y-22.943 Z-0.182 F1544.437
G1 X22.202 Y-22.910 Z-0.187 F1514.120
G1 X22.248 Y-22.495 Z-0.217 F1563.895
G1 X22.254 Y-22.413 Z-0.228 F1535.305
G1 X22.259 Y-22.312 Z-0.247 F1503.796
G1 X22.258 Y-22.187 Z-0.261 F1543.808
G1 X22.255 Y-22.092 Z-0.277 F1514.868
G1 X22.253 Y-22.070 Z-0.282 F1486.812
G1 X22.227 Y-21.875 Z-0.306 F1538.682
G1 X22.211 Y-21.781 Z-0.324 F1504.688
G1 X22.198 Y-21.722 Z-0.339 F1477.726
G1 X22.156 Y-21.569 Z-0.359 F1535.727
G1 X22.126 Y-21.475 Z-0.377 F1505.055
G1 X22.108 Y-21.425 Z-0.391 F1475.446
G1 X22.039 Y-21.270 Z-0.410 F1540.841
G1 X21.991 Y-21.173 Z-0.430 F1510.779
G1 X21.989 Y-21.169 Z-0.430 F1548.313
G1 X21.870 Y-20.987 Z-0.452 F1550.179
G1 X21.840 Y-20.941 Z-0.459 F1531.047
G1 X21.760 Y-20.850 Z-0.474 F1538.651
G1 X21.755 Y-20.845 Z-0.474 F1550.433
G1 X21.679 Y-20.774 Z-0.484 F1551.396
G1 X21.610 Y-20.716 Z-0.483 F1593.805
G1 X21.603 Y-20.710 Z-0.483 F1600.000
G1 X21.527 Y-20.660 Z-0.478 F1569.409
G1 X21.445 Y-20.618 Z-0.471 F1560.724
G1 X21.420 Y-20.609 Z-0.467 F1539.627
G1 X21.350 Y-20.583 Z-0.459 F1545.690
G1 X21.242 Y-20.550 Z-0.436 F1493.181
G1 X21.242 Y-20.550 Z-0.435 F1508.135
G1 X21.117 Y-20.526 Z-0.405 F1480.399
G1 X21.033 Y-20.521 Z-0.387 F1491.499
G1 X21.031 Y-20.521 Z-0.386 F1513.752
G1 X20.958 Y-20.523 Z-0.366 F1462.202
G1 X20.887 Y-20.530 Z-0.338 F1408.082
G1 X20.838 Y-20.538 Z-0.312 F1359.876
G1 X20.811 Y-20.543 Z-0.299 F1366.054
G1 X20.723 Y-20.569 Z-0.250 F1349.426
G1 X20.713 Y-20.574 Z-0.243 F1332.804
G1 X20.637 Y-20.605 Z-0.197 F1336.632
G1 X20.541 Y-20.655 Z-0.121 F1289.135
G1 X20.471 Y-20.693 Z-0.069 F1307.284
G1 X20.352 Y-20.765 Z0.014 F1325.060
G1 X20.322 Y-20.786 Z0.041 F1284.489
G1 X20.266 Y-20.828 Z0.087 F1303.923
G1 X20.138 Y-20.933 Z0.185 F1327.033
G1 X20.136 Y-20.934 Z0.187 F1297.577
G1 X20.090 Y-20.982 Z0.229 F1311.467
G1 X19.980 Y-21.100 Z0.322 F1334.002
G1 X19.963 Y-21.120 Z0.336 F1350.028
G1 X19.946 Y-21.146 Z0.354 F1328.846
G1 X19.832 Y-21.321 Z0.469 F1344.536
G1 X19.831 Y-21.322 Z0.470 F1348.012
G1 X19.815 Y-21.355 Z0.492 F1319.079
G1 X19.735 Y-21.537 Z0.601 F1344.111
G0 Z3.000
G0 X19.707 Y-21.677 Z3.000
G1 X19.707 Y-21.677 Z0.685 F801.000
G1 X19.696 Y-21.698 Z0.710 F1181.424
G0 Z3.000
G0 X19.690 Y-21.719 Z3.000
G1 X19.690 Y-21.719 Z0.740 F801.000
G1 X19.692 Y-21.796 Z0.866 F1081.201
G0 Z3.000
G0 X19.644 Y-21.780 Z3.000
G1 X19.644 Y-21.780 Z0.866 F801.000
G1 X19.690 Y-21.719 Z0.740 F1079.137
G1 X19.696 Y-21.698 Z0.711 F1123.116
G1 X19.610 Y-21.732 Z0.866 F1073.741
G0 Z3.000
G0 X19.783 Y-21.759 Z3.000
G1 X19.783 Y-21.759 Z0.865 F801.000
G1 X19.707 Y-21.677 Z0.685 F1082.780
G1 X19.721 Y-21.592 Z0.642 F1359.675
G1 X19.730 Y-21.552 Z0.614 F1313.375
G1 X19.735 Y-21.537 Z0.604 F1276.197
G1 X19.582 Y-21.541 Z0.865 F1071.075
G0 Z3.000
G0 X20.662 Y-7.180 Z3.000
G1 X20.662 Y-7.180 Z0.865 F801.000
G1 X20.570 Y-7.108 Z0.669 F1074.511
G1 X20.547 Y-7.102 Z0.636 F1124.048
G0 Z3.000
G0 X20.570 Y-7.108 Z3.000
G1 X20.570 Y-7.108 Z0.669 F801.000
G1 X20.694 Y-7.107 Z0.866 F1087.684
G0 Z5.000
(Finish operation: Vcarve)
(Begin operation: Vcarve001)
(Path: Vcarve001)
(starting)
G0 Z3.000
G0 X30.061 Y-7.608 Z3.000
G1 X30.061 Y-7.608 Z0.864 F801.000
G1 X30.252 Y-7.676 Z0.520 F1072.175
G1 X30.242 Y-7.678 Z0.537 F1081.381
G0 Z3.000
G0 X30.252 Y-7.676 Z3.000
G1 X30.252 Y-7.676 Z0.520 F801.000
G1 X30.307 Y-7.675 Z0.437 F1098.087
G1 X30.102 Y-7.533 Z0.865 F1070.119
G0 Z3.000
G0 X30.048 Y-7.679 Z3.000
G1 X30.048 Y-7.679 Z0.866 F801.000
G1 X30.242 Y-7.678 Z0.537 F1071.954
G1 X30.061 Y-7.745 Z0.865 F1071.407
G0 Z3.000
G0 X30.307 Y-7.675 Z3.000
G1 X30.307 Y-7.675 Z0.437 F801.000
G1 X30.411 Y-7.685 Z0.289 F1113.411
G1 X30.491 Y-7.698 Z0.179 F1124.227
G1 X31.012 Y-7.316 Z0.054 F1502.285
G1 X31.835 Y-6.734 Z-0.113 F1516.482
G1 X31.839 Y-6.731 Z-0.117 F1518.866
G1 X31.973 Y-6.637 Z-0.142 F1512.673
G1 X31.978 Y-6.633 Z-0.144 F1513.530
G1 X32.495 Y-6.267 Z-0.260 F1507.788
G1 X32.504 Y-6.260 Z-0.263 F1501.421
G1 X33.834 Y-5.333 Z-0.583 F1500.574
G1 X33.860 Y-5.314 Z-0.589 F1506.264
G1 X35.454 Y-4.196 Z-0.948 F1507.087
G1 X35.462 Y-4.190 Z-0.950 F1504.383
G1 X35.912 Y-3.871 Z-1.058 F1502.262
G1 X35.948 Y-3.880 Z-1.015 F1160.438
G1 X35.952 Y-3.881 Z-1.010 F1164.025
G1 X35.953 Y-3.881 Z-1.010 F1165.416
G1 X36.326 Y-3.969 Z-0.564 F1162.685
G1 X36.410 Y-3.987 Z-0.467 F1168.325
G1 X36.741 Y-4.050 Z-0.093 F1174.199
G1 X36.805 Y-4.061 Z-0.023 F1181.648
G1 X36.853 Y-4.068 Z0.028 F1190.597
G1 X36.871 Y-4.071 Z0.045 F1192.833
G1 X37.173 Y-4.118 Z0.358 F1195.850
G1 X37.330 Y-4.148 Z0.528 F1184.710
G1 X37.393 Y-4.158 Z0.598 F1175.830
G1 X37.524 Y-4.073 Z0.865 F1069.675
G0 Z3.000
G0 X37.570 Y-4.173 Z3.000
G1 X37.570 Y-4.173 Z0.866 F801.000
G1 X37.442 Y-4.173 Z0.664 F1087.990
G0 Z3.000
G0 X37.393 Y-4.158 Z3.000
G1 X37.393 Y-4.158 Z0.598 F801.000
G1 X37.442 Y-4.173 Z0.664 F1136.310
G1 X37.533 Y-4.255 Z0.865 F1078.507
G0 Z3.000
G0 X35.912 Y-3.871 Z3.000
G1 X35.912 Y-3.871 Z-1.059 F801.000
G1 X35.926 Y-3.775 Z-0.951 F1174.543
G1 X36.014 Y-3.248 Z-0.371 F1180.163
G1 X36.017 Y-3.227 Z-0.348 F1181.870
G1 X36.128 Y-2.515 Z0.421 F1183.711
G0 Z3.000
G0 X36.129 Y-2.470 Z3.000
G1 X36.129 Y-2.470 Z0.482 F801.000
G1 X36.128 Y-2.511 Z0.426 F1122.867
G1 X36.128 Y-2.515 Z0.421 F1132.018
G1 X36.330 Y-2.350 Z0.866 F1071.023
G0 Z3.000
G0 X36.235 Y-2.268 Z3.000
G1 X36.235 Y-2.268 Z0.865 F801.000
G1 X36.129 Y-2.470 Z0.482 F1074.214
G1 X36.125 Y-2.447 Z0.520 F1088.978
G0 Z3.000
G0 X36.043 Y-2.259 Z3.000
G1 X36.043 Y-2.259 Z0.864 F801.000
G1 X36.125 Y-2.447 Z0.520 F1074.110
G1 X36.130 Y-2.241 Z0.865 F1074.763
G0 Z3.000
G0 X30.491 Y-7.698 Z3.000
G1 X30.491 Y-7.698 Z0.177 F801.000
G1 X30.478 Y-7.746 Z0.239 F1149.658
G1 X30.448 Y-7.892 Z0.432 F1134.758
G1 X30.441 Y-7.931 Z0.482 F1141.127
G1 X30.436 Y-7.963 Z0.522 F1147.968
G0 Z3.000
G0 X30.437 Y-8.002 Z3.000
G1 X30.437 Y-8.002 Z0.577 F801.000
G1 X30.439 Y-8.010 Z0.589 F1088.965
G0 Z3.000
G0 X30.507 Y-8.157 Z3.000
G1 X30.507 Y-8.157 Z0.865 F801.000
G1 X30.439 Y-8.010 Z0.589 F1071.809
G1 X30.439 Y-8.173 Z0.865 F1073.371
G0 Z3.000
G0 X30.370 Y-8.157 Z3.000
G1 X30.370 Y-8.157 Z0.866 F801.000
G1 X30.437 Y-8.002 Z0.577 F1070.999
G1 X30.436 Y-7.963 Z0.522 F1113.446
G1 X30.298 Y-8.109 Z0.866 F1070.574
G0 Z5.000
(Finish operation: Vcarve001)
(Begin operation: Vcarve002)
(Path: Vcarve002)
(starting)
G0 Z3.000
G0 X28.906 Y-25.723 Z3.000
G1 X28.906 Y-25.723 Z-1.482 F801.000
G1 X28.801 Y-25.651 Z-1.421 F1372.583
G1 X28.573 Y-25.474 Z-1.358 F1493.370
G1 X28.369 Y-25.276 Z-1.297 F1491.902
G1 X28.145 Y-25.033 Z-1.290 F1589.521
G1 X27.889 Y-24.730 Z-1.253 F1552.993
G1 X27.818 Y-24.642 Z-1.248 F1573.938
G1 X27.622 Y-24.387 Z-1.244 F1593.679
G1 X27.395 Y-24.071 Z-1.217 F1564.841
G1 X27.378 Y-24.047 Z-1.213 F1544.980
G1 X27.319 Y-23.956 Z-1.207 F1565.799
G1 X27.183 Y-23.736 Z-1.198 F1584.292
G1 X26.984 Y-23.398 Z-1.171 F1564.673
G1 X26.931 Y-23.303 Z-1.159 F1544.681
G1 X26.885 Y-23.217 Z-1.152 F1563.563
G1 X26.803 Y-23.055 Z-1.145 F1580.992
G1 X26.620 Y-22.665 Z-1.108 F1557.006
G1 X26.551 Y-22.507 Z-1.086 F1533.882
G1 X26.523 Y-22.441 Z-1.080 F1548.322
G1 X26.453 Y-22.267 Z-1.064 F1561.377
G1 X26.356 Y-22.006 Z-1.030 F1537.995
G1 X26.337 Y-21.952 Z-1.026 F1550.172
G1 X26.305 Y-21.859 Z-1.017 F1560.710
G1 X26.199 Y-21.517 Z-0.973 F1538.105
G1 X26.184 Y-21.465 Z-0.967 F1548.936
G1 X26.177 Y-21.440 Z-0.965 F1561.964
G1 X26.073 Y-21.032 Z-0.912 F1536.395
G1 X26.067 Y-21.010 Z-0.910 F1542.126
G1 X26.060 Y-20.977 Z-0.906 F1532.002
G1 X25.979 Y-20.568 Z-0.854 F1537.547
G1 X25.975 Y-20.545 Z-0.849 F1514.643
G1 X25.966 Y-20.486 Z-0.843 F1528.825
G1 X25.913 Y-20.113 Z-0.798 F1542.279
G1 X25.907 Y-20.055 Z-0.789 F1519.843
G1 X25.901 Y-20.004 Z-0.782 F1532.974
G1 X25.870 Y-19.653 Z-0.743 F1543.509
G1 X25.866 Y-19.576 Z-0.730 F1515.162
G1 X25.864 Y-19.518 Z-0.724 F1528.762
G1 X25.853 Y-19.091 Z-0.673 F1542.890
G1 X25.853 Y-19.039 Z-0.671 F1556.260
G1 X25.854 Y-18.769 Z-0.652 F1568.418
G1 X25.860 Y-18.615 Z-0.634 F1540.029
G1 X25.863 Y-18.557 Z-0.631 F1555.733
G1 X25.877 Y-18.356 Z-0.616 F1568.829
G1 X25.916 Y-17.940 Z-0.575 F1550.243
G1 X25.925 Y-17.856 Z-0.564 F1530.118
G1 X25.934 Y-17.797 Z-0.559 F1546.911
G1 X25.974 Y-17.530 Z-0.537 F1561.396
G1 X26.045 Y-17.126 Z-0.490 F1541.928
G1 X26.046 Y-17.123 Z-0.489 F1526.844
G1 X26.059 Y-17.063 Z-0.484 F1538.071
G1 X26.140 Y-16.728 Z-0.451 F1555.282
G1 X26.223 Y-16.416 Z-0.410 F1534.670
G1 X26.239 Y-16.360 Z-0.405 F1553.379
G1 X26.247 Y-16.335 Z-0.403 F1568.870
G1 X26.376 Y-15.948 Z-0.361 F1548.046
G1 X26.451 Y-15.742 Z-0.329 F1528.352
G1 X26.472 Y-15.688 Z-0.326 F1546.254
G1 X26.521 Y-15.567 Z-0.314 F1564.739
G1 X26.687 Y-15.189 Z-0.269 F1544.371
G1 X26.730 Y-15.097 Z-0.253 F1522.426
G1 X26.755 Y-15.047 Z-0.250 F1542.712
G1 X26.874 Y-14.818 Z-0.227 F1560.119
G1 X27.059 Y-14.482 Z-0.182 F1540.442
G1 X27.077 Y-14.450 Z-0.181 F1553.901
G1 X27.085 Y-14.438 Z-0.180 F1552.028
G1 X27.306 Y-14.091 Z-0.143 F1557.802
G1 X27.434 Y-13.900 Z-0.114 F1537.801
G1 X27.462 Y-13.861 Z-0.113 F1556.398
G1 X27.553 Y-13.736 Z-0.103 F1574.736
G1 X27.820 Y-13.388 Z-0.064 F1555.851
G1 X27.854 Y-13.346 Z-0.057 F1533.899
G1 X27.887 Y-13.308 Z-0.056 F1555.049
G1 X28.108 Y-13.058 Z-0.037 F1576.063
G1 X28.341 Y-12.808 Z-0.007 F1554.830
G1 X28.377 Y-12.772 Z-0.006 F1577.129
G1 X28.403 Y-12.746 Z-0.004 F1600.000
G1 X28.712 Y-12.461 Z0.014 F1577.510
G1 X28.853 Y-12.338 Z0.031 F1555.655
G1 X28.894 Y-12.304 Z0.031 F1580.178
G1 X29.031 Y-12.197 Z0.031 F1595.313
G1 X29.360 Y-11.953 Z0.046 F1580.996
G1 X29.390 Y-11.933 Z0.050 F1557.076
G1 X29.438 Y-11.902 Z0.049 F1582.910
G1 X29.701 Y-11.740 Z0.045 F1589.647
G1 X29.957 Y-11.593 Z0.053 F1586.215
G1 X30.008 Y-11.566 Z0.051 F1588.458
G1 X30.052 Y-11.544 Z0.048 F1559.717
G1 X30.413 Y-11.376 Z0.036 F1585.069
G1 X30.552 Y-11.317 Z0.039 F1590.209
G1 X30.608 Y-11.295 Z0.034 F1581.495
G1 X30.784 Y-11.232 Z0.020 F1554.636
G1 X31.162 Y-11.109 Z0.003 F1578.003
G1 X31.178 Y-11.104 Z0.003 F1597.055
G1 X31.237 Y-11.089 Z-0.002 F1576.498
G1 X31.552 Y-11.016 Z-0.032 F1549.795
G1 X31.836 Y-10.959 Z-0.047 F1573.559
G1 X31.896 Y-10.949 Z-0.055 F1549.502
G1 X31.948 Y-10.941 Z-0.061 F1523.868
G1 X32.354 Y-10.894 Z-0.103 F1547.858
G1 X32.527 Y-10.878 Z-0.114 F1569.579
G1 X32.585 Y-10.875 Z-0.123 F1548.167
G1 X32.766 Y-10.868 Z-0.147 F1524.438
G1 X33.187 Y-10.862 Z-0.191 F1547.453
G1 X33.254 Y-10.863 Z-0.195 F1568.440
G1 X33.320 Y-10.866 Z-0.204 F1546.536
G1 X33.612 Y-10.885 Z-0.247 F1522.347
G1 X33.945 Y-10.916 Z-0.284 F1544.493
G1 X33.945 Y-10.916 Z-0.284 F1600.000
G1 X34.024 Y-10.928 Z-0.293 F1545.857
G1 X34.277 Y-10.974 Z-0.333 F1520.101
G1 X34.603 Y-11.044 Z-0.369 F1545.230
G1 X34.608 Y-11.045 Z-0.372 F1548.511
G1 X34.697 Y-11.070 Z-0.383 F1539.167
G1 X34.938 Y-11.146 Z-0.426 F1510.249
G1 X35.233 Y-11.248 Z-0.467 F1533.892
G1 X35.272 Y-11.262 Z-0.474 F1522.312
G1 X35.315 Y-11.280 Z-0.481 F1520.419
G1 X35.594 Y-11.404 Z-0.537 F1507.736
G1 X35.604 Y-11.409 Z-0.538 F1541.879
G1 X35.683 Y-11.450 Z-0.554 F1517.250
G1 X35.942 Y-11.593 Z-0.616 F1493.215
G1 X36.031 Y-11.647 Z-0.644 F1469.160
G1 X36.267 Y-11.796 Z-0.732 F1444.849
G1 X36.268 Y-11.797 Z-0.733 F1431.381
G1 X36.374 Y-11.875 Z-0.775 F1442.354
G1 X36.583 Y-12.040 Z-0.876 F1415.352
G1 X36.706 Y-12.145 Z-0.948 F1387.967
G1 X36.900 Y-12.323 Z-1.081 F1361.059
G1 X37.031 Y-12.454 Z-1.187 F1336.765
G1 X37.214 Y-12.650 Z-1.356 F1313.318
G1 X37.368 Y-12.829 Z-1.522 F1290.343
G1 X37.384 Y-12.849 Z-1.540 F1269.245
G1 X37.320 Y-13.098 Z-1.344 F1264.265
G1 X37.265 Y-13.288 Z-1.198 F1282.583
G1 X37.175 Y-13.556 Z-1.014 F1302.749
G1 X37.120 Y-13.704 Z-0.915 F1323.140
G1 X37.034 Y-13.911 Z-0.796 F1345.110
G1 X36.989 Y-14.013 Z-0.737 F1363.415
G1 X36.985 Y-14.021 Z-0.736 F1385.687
G1 X36.977 Y-14.038 Z-0.728 F1394.868
G1 X36.880 Y-14.244 Z-0.632 F1397.395
G1 X36.842 Y-14.321 Z-0.597 F1415.577
G1 X36.713 Y-14.562 Z-0.507 F1434.146
G1 X36.684 Y-14.616 Z-0.485 F1448.499
G1 X36.531 Y-14.879 Z-0.405 F1464.541
G1 X36.498 Y-14.933 Z-0.387 F1481.562
G1 X36.189 Y-15.416 Z-0.276 F1500.085
G1 X36.180 Y-15.429 Z-0.273 F1505.806
G1 X36.120 Y-15.527 Z-0.252 F1510.282
G1 X36.090 Y-15.573 Z-0.242 F1528.399
G1 X35.615 Y-16.267 Z-0.157 F1547.068
G1 X35.590 Y-16.303 Z-0.154 F1563.057
G1 X35.187 Y-16.846 Z-0.126 F1579.624
G1 X35.181 Y-16.856 Z-0.126 F1586.846
G1 X34.069 Y-18.389 Z-0.083 F1588.319
G1 X34.064 Y-18.396 Z-0.083 F1594.101
G1 X33.550 Y-19.117 Z-0.075 F1595.577
G1 X32.928 Y-20.000 Z-0.055 F1590.867
G1 X32.924 Y-20.008 Z-0.055 F1587.551
G1 X31.813 Y-21.609 Z-0.045 F1597.234
G1 X31.809 Y-21.616 Z-0.045 F1600.000
G1 X31.644 Y-21.856 Z-0.047 F1595.803
G1 X30.727 Y-23.215 Z-0.047 F1599.907
G1 X30.722 Y-23.222 Z-0.047 F1600.000
G1 X29.726 Y-24.722 Z-0.071 F1593.222
G1 X29.658 Y-24.813 Z-0.080 F1548.425
G1 X28.906 Y-25.723 Z-1.481 F1157.608
G1 X28.980 Y-25.842 Z-1.473 F1568.776
G1 X28.266 Y-26.808 Z-0.041 F1155.976
G1 X28.239 Y-26.846 Z-0.036 F1545.690
G1 X27.778 Y-27.531 Z0.022 F1564.689
G1 X27.756 Y-27.566 Z0.023 F1583.713
G1 X27.314 Y-28.285 Z0.023 F1599.940
G1 X27.300 Y-28.309 Z0.022 F1587.106
G1 X27.124 Y-28.614 Z0.003 F1572.164
G1 X27.056 Y-28.734 Z-0.003 F1577.934
G1 X27.039 Y-28.766 Z-0.005 F1563.596
G1 X26.852 Y-29.125 Z-0.047 F1548.298
G1 X26.847 Y-29.134 Z-0.048 F1546.886
G1 X26.828 Y-29.177 Z-0.054 F1535.867
G1 X26.746 Y-29.365 Z-0.088 F1516.810
G1 X26.704 Y-29.475 Z-0.097 F1558.456
G1 X26.673 Y-29.569 Z-0.113 F1519.228
G1 X26.627 Y-29.737 Z-0.154 F1481.720
G1 X26.610 Y-29.806 Z-0.166 F1517.652
G1 X26.588 Y-29.931 Z-0.198 F1474.617
G1 X26.570 Y-30.069 Z-0.245 F1432.246
G1 X26.563 Y-30.170 Z-0.271 F1474.503
G1 X26.559 Y-30.293 Z-0.311 F1438.351
G1 X26.560 Y-30.340 Z-0.330 F1402.866
G1 X26.574 Y-30.500 Z-0.377 F1456.255
G1 X26.579 Y-30.546 Z-0.392 F1444.741
G1 X26.611 Y-30.678 Z-0.431 F1456.970
G1 X26.638 Y-30.772 Z-0.466 F1423.941
G1 X26.669 Y-30.851 Z-0.485 F1490.583
G1 X26.709 Y-30.945 Z-0.513 F1461.664
G1 X25.952 Y-31.204 Z0.866 F1068.274
G0 Z3.000
G0 X26.077 Y-31.483 Z3.000
G1 X26.077 Y-31.483 Z0.866 F801.000
G1 X26.791 Y-31.073 Z-0.552 F1068.542
G1 X26.776 Y-31.051 Z-0.544 F1449.216
G1 X26.709 Y-30.945 Z-0.513 F1478.922
G0 Z3.000
G0 X26.791 Y-31.073 Z3.000
G1 X26.791 Y-31.073 Z-0.552 F801.000
G1 X26.878 Y-31.177 Z-0.572 F1526.233
G1 X26.252 Y-31.728 Z0.865 F1068.606
G0 Z3.000
G0 X26.467 Y-31.927 Z3.000
G1 X26.467 Y-31.927 Z0.865 F801.000
G1 X26.967 Y-31.257 Z-0.574 F1068.628
G1 X26.884 Y-31.182 Z-0.572 F1589.998
G1 X26.878 Y-31.177 Z-0.571 F1587.502
G0 Z3.000
G0 X26.967 Y-31.257 Z3.000
G1 X26.967 Y-31.257 Z-0.574 F801.000
G1 X27.049 Y-31.309 Z-0.568 F1571.633
G1 X26.708 Y-32.070 Z0.866 F1068.803
G0 Z3.000
G0 X26.977 Y-32.155 Z3.000
G1 X26.977 Y-32.155 Z0.865 F801.000
G1 X27.141 Y-31.348 Z-0.552 F1068.608
G1 X27.088 Y-31.326 Z-0.561 F1522.772
G1 X27.049 Y-31.309 Z-0.568 F1509.319
G0 Z3.000
G0 X27.141 Y-31.348 Z3.000
G1 X27.141 Y-31.348 Z-0.552 F801.000
G1 X27.202 Y-31.367 Z-0.530 F1435.594
G1 X27.270 Y-31.385 Z-0.509 F1450.677
G1 X27.273 Y-32.183 Z0.864 F1068.455
G0 Z3.000
G0 X27.555 Y-32.154 Z3.000
G1 X27.555 Y-32.154 Z0.865 F801.000
G1 X27.392 Y-31.399 Z-0.465 F1068.637
G1 X27.361 Y-31.396 Z-0.475 F1435.174
G1 X27.270 Y-31.385 Z-0.509 F1412.975
G0 Z3.000
G0 X27.392 Y-31.399 Z3.000
G1 X27.392 Y-31.399 Z-0.464 F801.000
G1 X27.508 Y-31.397 Z-0.403 F1355.815
G1 X27.511 Y-31.397 Z-0.401 F1363.595
G1 X27.820 Y-32.065 Z0.865 F1068.640
G0 Z3.000
G0 X28.066 Y-31.917 Z3.000
G1 X28.066 Y-31.917 Z0.865 F801.000
G1 X27.659 Y-31.370 Z-0.310 F1068.420
G1 X27.655 Y-31.371 Z-0.312 F1342.269
G1 X27.511 Y-31.397 Z-0.401 F1318.313
G0 Z3.000
G0 X27.659 Y-31.370 Z3.000
G1 X27.659 Y-31.370 Z-0.309 F801.000
G1 X27.860 Y-31.302 Z-0.161 F1290.576
G1 X28.030 Y-31.230 Z-0.010 F1252.307
G1 X28.032 Y-31.229 Z-0.009 F1242.411
G1 X28.139 Y-31.168 Z0.092 F1251.055
G1 X28.201 Y-31.128 Z0.146 F1279.331
G1 X28.366 Y-31.006 Z0.315 F1249.113
G1 X28.375 Y-30.998 Z0.326 F1220.045
G1 X28.419 Y-30.957 Z0.378 F1240.515
G1 X28.524 Y-30.851 Z0.495 F1261.248
G1 X28.582 Y-30.788 Z0.567 F1243.847
G1 X28.755 Y-30.807 Z0.866 F1069.091
G0 Z3.000
G0 X28.754 Y-30.725 Z3.000
G1 X28.754 Y-30.725 Z0.866 F801.000
G1 X28.604 Y-30.757 Z0.606 F1071.504
G1 X28.609 Y-30.746 Z0.622 F1132.647
G0 Z3.000
G0 X28.604 Y-30.757 Z3.000
G1 X28.604 Y-30.757 Z0.606 F801.000
G1 X28.595 Y-30.769 Z0.589 F1184.301
G1 X28.582 Y-30.788 Z0.566 F1194.969
G0 Z3.000
G0 X28.615 Y-30.724 Z3.000
G1 X28.615 Y-30.724 Z0.655 F801.000
G1 X28.609 Y-30.746 Z0.621 F1095.253
G1 X28.727 Y-30.662 Z0.865 F1072.857
G0 Z3.000
G0 X28.676 Y-30.616 Z3.000
G1 X28.676 Y-30.616 Z0.866 F801.000
G1 X28.615 Y-30.724 Z0.655 F1072.400
G1 X28.617 Y-30.598 Z0.865 F1078.075
G0 Z3.000
G0 X28.980 Y-25.842 Z3.000
G1 X28.980 Y-25.842 Z-1.473 F801.000
G1 X29.371 Y-26.122 Z-1.306 F1430.279
G1 X29.417 Y-26.154 Z-1.306 F1595.494
G1 X29.955 Y-26.520 Z-1.315 F1592.802
G1 X29.975 Y-26.533 Z-1.315 F1591.480
G1 X30.022 Y-26.561 Z-1.314 F1585.306
G1 X30.538 Y-26.857 Z-1.307 F1594.093
G1 X30.569 Y-26.874 Z-1.304 F1552.866
G1 X30.640 Y-26.909 Z-1.298 F1566.650
G1 X31.106 Y-27.130 Z-1.280 F1581.944
G1 X31.197 Y-27.168 Z-1.268 F1539.199
G1 X31.277 Y-27.199 Z-1.260 F1552.473
G1 X31.688 Y-27.353 Z-1.232 F1567.957
G1 X31.842 Y-27.403 Z-1.210 F1528.530
G1 X31.935 Y-27.432 Z-1.199 F1545.992
G1 X32.226 Y-27.513 Z-1.178 F1563.815
G1 X32.612 Y-27.605 Z-1.123 F1530.563
G1 X32.712 Y-27.627 Z-1.113 F1550.212
G1 X32.825 Y-27.648 Z-1.106 F1570.359
G1 X33.398 Y-27.739 Z-1.039 F1541.055
G1 X33.483 Y-27.751 Z-1.032 F1556.984
G1 X33.497 Y-27.752 Z-1.030 F1547.879
G1 X34.192 Y-27.807 Z-0.967 F1553.886
G1 X34.193 Y-27.808 Z-0.966 F1512.590
G1 X34.287 Y-27.810 Z-0.956 F1543.599
G1 X34.732 Y-27.811 Z-0.924 F1563.209
G1 X34.991 Y-27.801 Z-0.887 F1528.065
G1 X35.061 Y-27.797 Z-0.879 F1541.972
G1 X35.260 Y-27.782 Z-0.862 F1557.065
G1 X35.542 Y-27.749 Z-0.817 F1520.537
G1 X35.592 Y-27.743 Z-0.810 F1531.087
G1 X35.782 Y-27.716 Z-0.789 F1543.313
G1 X36.048 Y-27.667 Z-0.739 F1506.733
G1 X36.098 Y-27.657 Z-0.730 F1517.982
G1 X36.304 Y-27.613 Z-0.702 F1531.313
G1 X36.530 Y-27.554 Z-0.654 F1496.320
G1 X36.583 Y-27.540 Z-0.644 F1508.564
G1 X36.829 Y-27.468 Z-0.604 F1521.857
G1 X36.992 Y-27.414 Z-0.565 F1487.803
G1 X37.044 Y-27.396 Z-0.555 F1502.259
G1 X37.354 Y-27.279 Z-0.499 F1515.503
G1 X37.426 Y-27.249 Z-0.481 F1482.747
G1 X37.477 Y-27.227 Z-0.469 F1496.513
G1 X37.837 Y-27.061 Z-0.401 F1512.706
G1 X37.881 Y-27.040 Z-0.394 F1526.088
G1 X37.887 Y-27.036 Z-0.392 F1509.807
G1 X38.224 Y-26.849 Z-0.326 F1513.074
G1 X38.272 Y-26.821 Z-0.318 F1530.420
G1 X38.407 Y-26.739 Z-0.302 F1547.256
G1 X38.588 Y-26.621 Z-0.268 F1520.890
G1 X38.647 Y-26.580 Z-0.260 F1543.775
G1 X38.825 Y-26.448 Z-0.247 F1569.690
G1 X39.108 Y-26.227 Z-0.207 F1543.652
G1 X39.162 Y-26.184 Z-0.202 F1567.443
G1 X39.202 Y-26.147 Z-0.201 F1591.606
G1 X39.534 Y-25.837 Z-0.168 F1562.379
G1 X39.645 Y-25.725 Z-0.146 F1530.903
G1 X39.679 Y-25.691 Z-0.141 F1548.244
G1 X39.828 Y-25.527 Z-0.127 F1568.045
G1 X40.090 Y-25.218 Z-0.074 F1533.940
G1 X40.173 Y-25.110 Z-0.046 F1497.570
G1 X40.194 Y-25.082 Z-0.040 F1510.802
G1 X40.322 Y-24.906 Z-0.008 F1524.358
G1 X40.528 Y-24.592 Z0.079 F1485.235
G1 X40.665 Y-24.357 Z0.164 F1444.417
G1 X40.681 Y-24.330 Z0.173 F1460.845
G1 X40.717 Y-24.262 Z0.192 F1475.872
G1 X40.806 Y-24.082 Z0.253 F1451.131
G1 X41.155 Y-24.151 Z0.865 F1068.282
G0 Z3.000
G0 X41.178 Y-23.928 Z3.000
G1 X41.178 Y-23.928 Z0.865 F801.000
G1 X40.865 Y-23.930 Z0.327 F1068.589
G1 X40.882 Y-23.876 Z0.368 F1287.559
G0 Z3.000
G0 X40.884 Y-23.872 Z3.000
G1 X40.884 Y-23.872 Z0.372 F801.000
G1 X40.887 Y-23.860 Z0.386 F1175.718
G0 Z3.000
G0 X40.899 Y-23.848 Z3.000
G1 X40.899 Y-23.848 Z0.410 F801.000
G1 X40.887 Y-23.860 Z0.383 F1084.900
G1 X40.885 Y-23.843 Z0.412 F1097.405
G0 Z3.000
G0 X40.885 Y-23.838 Z3.000
G1 X40.885 Y-23.838 Z0.420 F801.000
G1 X40.941 Y-23.582 Z0.866 F1070.867
G0 Z3.000
G0 X40.852 Y-23.578 Z3.000
G1 X40.852 Y-23.578 Z0.865 F801.000
G1 X40.885 Y-23.838 Z0.420 F1071.484
G1 X40.885 Y-23.843 Z0.410 F1080.021
G1 X40.768 Y-23.604 Z0.864 F1071.655
G0 Z3.000
G0 X40.688 Y-23.660 Z3.000
G1 X40.688 Y-23.660 Z0.864 F801.000
G1 X40.882 Y-23.876 Z0.369 F1070.493
G1 X40.884 Y-23.872 Z0.372 F1234.755
G1 X41.163 Y-23.797 Z0.865 F1069.811
G0 Z3.000
G0 X41.119 Y-23.696 Z3.000
G1 X41.119 Y-23.696 Z0.866 F801.000
G1 X40.899 Y-23.848 Z0.410 F1071.396
G1 X41.045 Y-23.624 Z0.866 F1071.633
G0 Z3.000
G0 X40.865 Y-23.930 Z3.000
G1 X40.865 Y-23.930 Z0.327 F801.000
G1 X40.859 Y-23.944 Z0.319 F1354.435
G1 X40.806 Y-24.082 Z0.251 F1381.687
G0 Z3.000
G0 X37.384 Y-12.849 Z3.000
G1 X37.384 Y-12.849 Z-1.540 F801.000
G1 X37.711 Y-12.781 Z-1.190 F1187.927
G1 X37.750 Y-12.773 Z-1.150 F1189.931
G1 X37.887 Y-12.746 Z-1.004 F1192.590
G1 X38.055 Y-12.708 Z-0.834 F1204.314
G1 X38.297 Y-12.643 Z-0.600 F1218.234
G1 X38.405 Y-12.611 Z-0.500 F1229.719
G1 X38.425 Y-12.605 Z-0.483 F1249.029
G1 X38.476 Y-12.588 Z-0.442 F1261.064
G1 X38.720 Y-12.516 Z-0.247 F1269.715
G1 X38.792 Y-12.493 Z-0.193 F1282.567
G1 X39.100 Y-12.382 Z0.029 F1297.063
G1 X39.124 Y-12.374 Z0.043 F1303.655
G1 X39.426 Y-12.274 Z0.249 F1310.875
G1 X39.470 Y-12.259 Z0.276 F1330.120
G1 X39.562 Y-12.222 Z0.329 F1350.210
G1 X39.587 Y-12.212 Z0.340 F1362.527
G1 X39.940 Y-12.088 Z0.517 F1378.297
G1 X39.989 Y-12.067 Z0.547 F1339.303
G1 X39.993 Y-11.882 Z0.866 F1068.757
G0 Z3.000
G0 X40.081 Y-11.892 Z3.000
G1 X40.081 Y-11.892 Z0.866 F801.000
G1 X40.038 Y-12.040 Z0.603 F1070.805
G1 X40.005 Y-12.062 Z0.557 F1170.752
G1 X40.162 Y-12.160 Z0.865 F1076.419
G0 Z3.000
G0 X40.194 Y-12.046 Z3.000
G1 X40.194 Y-12.046 Z0.865 F801.000
G1 X40.041 Y-12.039 Z0.607 F1073.014
G1 X40.056 Y-12.027 Z0.637 F1092.831
G0 Z3.000
G0 X40.041 Y-12.039 Z3.000
G1 X40.041 Y-12.039 Z0.607 F801.000
G1 X40.038 Y-12.040 Z0.602 F1126.608
G0 Z3.000
G0 X40.005 Y-12.062 Z3.000
G1 X40.005 Y-12.062 Z0.557 F801.000
G1 X39.989 Y-12.067 Z0.545 F1284.903
G0 Z3.000
G0 X40.144 Y-11.923 Z3.000
G1 X40.144 Y-11.923 Z0.866 F801.000
G1 X40.056 Y-12.027 Z0.636 F1073.635
G1 X40.181 Y-11.974 Z0.865 F1073.239
G0 Z5.000
(Finish operation: Vcarve002)
(Begin operation: Vcarve003)
(Path: Vcarve003)
(starting)
G0 Z3.000
G0 X47.078 Y-12.725 Z3.000
G1 X47.078 Y-12.725 Z0.865 F801.000
G1 X47.168 Y-12.742 Z0.721 F1090.075
G1 X47.119 Y-12.665 Z0.864 F1090.656
G0 Z3.000
G0 X47.168 Y-12.742 Z3.000
G1 X47.168 Y-12.742 Z0.721 F801.000
G1 X47.209 Y-12.770 Z0.662 F1153.512
G1 X47.242 Y-12.795 Z0.616 F1176.293
G1 X47.338 Y-12.867 Z0.487 F1181.523
G1 X47.356 Y-12.647 Z0.865 F1069.964
G0 Z3.000
G0 X47.338 Y-12.867 Z3.000
G1 X47.338 Y-12.867 Z0.487 F801.000
G1 X47.507 Y-13.027 Z0.273 F1222.142
G1 X47.605 Y-12.697 Z0.865 F1068.932
G0 Z3.000
G0 X47.844 Y-12.793 Z3.000
G1 X47.844 Y-12.793 Z0.865 F801.000
G1 X47.645 Y-13.185 Z0.109 F1068.505
G1 X47.614 Y-13.149 Z0.146 F1259.538
G1 X47.610 Y-13.144 Z0.151 F1261.943
G1 X47.507 Y-13.027 Z0.273 F1263.463
G0 Z3.000
G0 X47.645 Y-13.185 Z3.000
G1 X47.645 Y-13.185 Z0.109 F801.000
G1 X47.764 Y-13.348 Z-0.023 F1305.747
G1 X47.764 Y-13.349 Z-0.024 F1381.886
G1 X47.809 Y-13.430 Z-0.078 F1328.628
G1 X47.863 Y-13.538 Z-0.159 F1303.941
G1 X47.912 Y-13.655 Z-0.226 F1351.983
G1 X47.934 Y-13.712 Z-0.260 F1336.188
G1 X48.469 Y-13.337 Z0.866 F1068.444
G0 Z3.000
G0 X48.600 Y-13.567 Z3.000
G1 X48.600 Y-13.567 Z0.866 F801.000
G1 X47.963 Y-13.846 Z-0.332 F1068.473
G1 X47.949 Y-13.776 Z-0.292 F1351.312
G1 X47.934 Y-13.712 Z-0.260 F1367.072
G0 Z3.000
G0 X47.963 Y-13.846 Z3.000
G1 X47.963 Y-13.846 Z-0.332 F801.000
G1 X47.973 Y-13.938 Z-0.366 F1422.924
G1 X47.974 Y-13.959 Z-0.371 F1418.864
G1 X48.678 Y-13.811 Z0.865 F1068.550
G0 Z3.000
G0 X47.975 Y-13.959 Z3.000
G1 X47.975 Y-13.959 Z-0.371 F801.000
G1 X47.967 Y-14.088 Z-0.408 F1460.537
G1 X47.964 Y-14.104 Z-0.412 F1483.202
G1 X47.945 Y-14.197 Z-0.437 F1477.806
G1 X47.930 Y-14.257 Z-0.446 F1523.029
G1 X47.914 Y-14.315 Z-0.455 F1508.756
G1 X47.873 Y-14.420 Z-0.476 F1508.392
G1 X47.871 Y-14.424 Z-0.476 F1521.158
G1 X47.823 Y-14.516 Z-0.495 F1523.246
G1 X47.794 Y-14.565 Z-0.498 F1575.209
G1 X47.765 Y-14.612 Z-0.499 F1558.917
G1 X47.701 Y-14.694 Z-0.506 F1563.558
G1 X47.693 Y-14.705 Z-0.511 F1535.795
G1 X47.605 Y-14.799 Z-0.515 F1581.503
G1 X47.584 Y-14.820 Z-0.514 F1574.026
G1 X47.510 Y-14.888 Z-0.511 F1598.477
G1 X47.478 Y-14.913 Z-0.510 F1582.529
G1 X47.334 Y-15.015 Z-0.511 F1593.672
G1 X47.260 Y-15.064 Z-0.511 F1581.620
G0 Z3.000
G0 X47.012 Y-15.183 Z3.000
G1 X47.012 Y-15.183 Z-0.508 F801.000
G1 X47.060 Y-15.161 Z-0.507 F1591.198
G1 X47.213 Y-15.088 Z-0.509 F1596.109
G1 X47.260 Y-15.064 Z-0.511 F1580.883
G1 X47.661 Y-15.755 Z0.864 F1068.193
G0 Z3.000
G0 X47.283 Y-15.932 Z3.000
G1 X47.283 Y-15.932 Z0.865 F801.000
G1 X47.012 Y-15.183 Z-0.510 F1068.250
G1 X46.917 Y-15.211 Z-0.502 F1570.941
G1 X46.750 Y-15.255 Z-0.503 F1598.223
G1 X46.745 Y-15.256 Z-0.501 F1590.740
G1 X46.615 Y-15.273 Z-0.491 F1562.186
G1 X46.439 Y-15.287 Z-0.493 F1598.560
G1 X46.430 Y-15.288 Z-0.491 F1600.000
G1 X46.298 Y-15.285 Z-0.487 F1586.563
G1 X46.255 Y-15.281 Z-0.491 F1576.412
G1 X46.081 Y-15.261 Z-0.485 F1582.542
G1 X46.047 Y-15.256 Z-0.481 F1541.168
G1 X45.919 Y-15.229 Z-0.474 F1577.914
G1 X45.883 Y-15.218 Z-0.472 F1582.084
G1 X45.769 Y-15.180 Z-0.471 F1589.434
G1 X45.663 Y-15.138 Z-0.458 F1544.560
G1 X45.627 Y-15.123 Z-0.454 F1556.472
G1 X45.505 Y-15.057 Z-0.443 F1559.827
G1 X45.490 Y-15.047 Z-0.444 F1597.174
G1 X45.355 Y-14.955 Z-0.429 F1553.955
G1 X45.316 Y-14.926 Z-0.420 F1510.098
G1 X45.224 Y-14.850 Z-0.409 F1547.415
G1 X45.184 Y-14.809 Z-0.403 F1553.203
G1 X45.108 Y-14.727 Z-0.396 F1571.847
G1 X45.026 Y-14.631 Z-0.377 F1524.005
G1 X44.999 Y-14.597 Z-0.371 F1537.577
G1 X44.936 Y-14.498 Z-0.357 F1539.698
G1 X44.909 Y-14.453 Z-0.354 F1574.249
G1 X44.826 Y-14.293 Z-0.329 F1529.336
G1 X44.822 Y-14.285 Z-0.327 F1485.335
G1 X44.776 Y-14.170 Z-0.310 F1526.344
G1 X44.756 Y-14.114 Z-0.304 F1563.855
G1 X44.702 Y-13.934 Z-0.276 F1523.808
G1 X44.697 Y-13.916 Z-0.274 F1529.638
G1 X44.679 Y-13.828 Z-0.262 F1528.480
G1 X44.657 Y-13.693 Z-0.249 F1557.998
G1 X44.641 Y-13.570 Z-0.230 F1522.659
G1 X44.633 Y-13.476 Z-0.224 F1556.761
G1 X44.632 Y-13.459 Z-0.222 F1585.759
G1 X44.632 Y-13.196 Z-0.192 F1542.267
G1 X44.634 Y-13.153 Z-0.189 F1559.009
G1 X44.638 Y-13.118 Z-0.184 F1524.021
G1 X44.671 Y-12.877 Z-0.151 F1534.267
G1 X44.672 Y-12.871 Z-0.149 F1468.954
G1 X44.692 Y-12.796 Z-0.135 F1498.167
G1 X44.745 Y-12.613 Z-0.105 F1526.558
G1 X44.762 Y-12.565 Z-0.091 F1461.455
G1 X44.793 Y-12.493 Z-0.076 F1491.904
G1 X44.857 Y-12.353 Z-0.050 F1520.530
G1 X44.896 Y-12.281 Z-0.027 F1459.496
G1 X44.936 Y-12.216 Z-0.012 F1490.370
G1 X45.016 Y-12.093 Z0.013 F1520.988
G1 X45.070 Y-12.021 Z0.038 F1464.184
G1 X45.114 Y-11.969 Z0.051 F1492.469
G1 X45.230 Y-11.835 Z0.079 F1523.678
G1 X45.275 Y-11.790 Z0.096 F1470.737
G1 X45.317 Y-11.750 Z0.107 F1499.602
G1 X45.504 Y-11.584 Z0.145 F1525.604
G1 X45.504 Y-11.584 Z0.142 F1326.782
G1 X45.544 Y-11.555 Z0.151 F1505.983
G1 X45.760 Y-11.403 Z0.189 F1532.683
G1 X45.798 Y-11.380 Z0.189 F1555.682
G1 X45.844 Y-11.350 Z0.194 F1582.262
G1 X46.041 Y-11.240 Z0.219 F1545.044
G1 X46.081 Y-11.220 Z0.220 F1568.268
G1 X46.184 Y-11.169 Z0.222 F1597.346
G1 X46.546 Y-11.009 Z0.249 F1565.759
G1 X46.549 Y-11.009 Z0.246 F1578.310
G1 X46.596 Y-10.992 Z0.249 F1569.685
G1 X46.937 Y-10.883 Z0.251 F1599.146
G1 X47.100 Y-10.837 Z0.260 F1573.709
G1 X47.145 Y-10.826 Z0.258 F1598.899
G1 X47.345 Y-10.783 Z0.247 F1568.198
G1 X47.689 Y-10.721 Z0.244 F1595.774
G1 X47.731 Y-10.714 Z0.239 F1570.648
G1 X47.776 Y-10.709 Z0.236 F1543.193
G1 X48.224 Y-10.668 Z0.208 F1568.202
G1 X48.319 Y-10.662 Z0.207 F1591.449
G1 X48.359 Y-10.660 Z0.201 F1570.382
G1 X48.692 Y-10.656 Z0.169 F1546.370
G1 X48.850 Y-10.658 Z0.159 F1567.156
G1 X48.890 Y-10.660 Z0.152 F1549.516
G1 X49.174 Y-10.678 Z0.112 F1524.744
G1 X49.382 Y-10.697 Z0.092 F1553.186
G1 X49.425 Y-10.702 Z0.086 F1533.356
G1 X49.646 Y-10.734 Z0.048 F1511.745
G1 X49.919 Y-10.784 Z0.018 F1546.553
G1 X49.963 Y-10.793 Z0.011 F1526.369
G1 X50.105 Y-10.825 Z-0.015 F1506.951
G1 X50.457 Y-10.921 Z-0.058 F1540.597
G1 X50.502 Y-10.935 Z-0.067 F1522.750
G1 X50.560 Y-10.953 Z-0.077 F1503.030
G1 X50.996 Y-11.113 Z-0.137 F1535.121
G1 X51.009 Y-11.118 Z-0.140 F1533.086
G1 X51.041 Y-11.132 Z-0.144 F1544.002
G1 X51.453 Y-11.320 Z-0.204 F1531.283
G1 X51.533 Y-11.360 Z-0.211 F1562.550
G1 X51.576 Y-11.383 Z-0.218 F1546.317
G1 X51.894 Y-11.558 Z-0.267 F1528.774
G1 X52.068 Y-11.661 Z-0.284 F1557.746
G1 X52.108 Y-11.686 Z-0.291 F1542.946
G1 X52.334 Y-11.831 Z-0.329 F1526.576
G1 X52.599 Y-12.014 Z-0.358 F1554.062
G1 X52.629 Y-12.035 Z-0.363 F1543.684
G1 X52.774 Y-12.141 Z-0.386 F1531.479
G1 X53.011 Y-12.324 Z-0.413 F1554.963
G1 X53.040 Y-12.347 Z-0.418 F1546.038
G1 X53.199 Y-12.477 Z-0.444 F1532.760
G1 X53.410 Y-12.660 Z-0.466 F1561.217
G1 X53.436 Y-12.683 Z-0.468 F1551.846
G1 X53.599 Y-12.831 Z-0.494 F1541.781
G1 X53.794 Y-13.019 Z-0.511 F1569.220
G1 X53.822 Y-13.047 Z-0.515 F1560.105
G1 X53.979 Y-13.207 Z-0.537 F1547.596
G1 X54.165 Y-13.408 Z-0.550 F1575.484
G1 X54.189 Y-13.435 Z-0.553 F1564.724
G1 X54.338 Y-13.605 Z-0.572 F1556.225
G1 X54.517 Y-13.820 Z-0.581 F1583.447
G1 X54.540 Y-13.849 Z-0.584 F1574.255
G1 X54.680 Y-14.025 Z-0.600 F1563.655
G1 X54.853 Y-14.259 Z-0.605 F1590.728
G1 X54.874 Y-14.287 Z-0.606 F1580.984
G1 X55.004 Y-14.470 Z-0.618 F1572.714
G1 X55.171 Y-14.720 Z-0.619 F1598.812
G1 X55.189 Y-14.748 Z-0.619 F1591.043
G1 X55.312 Y-14.939 Z-0.628 F1581.147
G1 X55.472 Y-15.206 Z-0.624 F1593.626
G1 X55.493 Y-15.242 Z-0.625 F1596.323
G1 X55.603 Y-15.437 Z-0.631 F1585.029
G1 X55.796 Y-15.797 Z-0.625 F1592.037
G1 X55.893 Y-15.989 Z-0.614 F1573.731
G1 X55.922 Y-16.047 Z-0.611 F1588.290
G1 X55.980 Y-16.176 Z-0.615 F1592.806
G1 X56.202 Y-16.698 Z-0.592 F1579.925
G1 X56.227 Y-16.761 Z-0.591 F1597.752
G1 X56.331 Y-17.037 Z-0.601 F1584.646
G1 X56.334 Y-17.046 Z-0.601 F1582.922
G1 X56.353 Y-17.106 Z-0.601 F1599.192
G1 X56.430 Y-17.366 Z-0.610 F1582.600
G1 X56.449 Y-17.436 Z-0.614 F1564.179
G1 X56.508 Y-17.670 Z-0.641 F1545.659
G1 X56.530 Y-17.771 Z-0.657 F1520.381
G1 X56.569 Y-17.981 Z-0.702 F1495.267
G1 X56.574 Y-18.009 Z-0.707 F1489.474
G1 X56.590 Y-18.377 Z-0.896 F1359.256
G1 X56.539 Y-18.748 Z-1.077 F1370.376
G1 X56.395 Y-18.740 Z-0.881 F1123.971
G1 X56.232 Y-18.728 Z-0.676 F1140.152
G1 X55.876 Y-18.671 Z-0.330 F1213.039
G1 X55.677 Y-18.603 Z-0.106 F1183.590
G1 X55.617 Y-18.576 Z-0.066 F1314.210
G1 X55.459 Y-18.492 Z-0.020 F1477.039
G1 X55.322 Y-18.385 Z0.024 F1473.876
G1 X55.226 Y-18.294 Z0.017 F1574.246
G1 X55.193 Y-18.265 Z0.013 F1553.734
G1 X54.938 Y-18.045 Z-0.030 F1535.181
G1 X54.816 Y-17.954 Z-0.032 F1593.350
G1 X54.774 Y-17.924 Z-0.035 F1570.209
G1 X54.511 Y-17.746 Z-0.067 F1549.489
G1 X54.361 Y-17.656 Z-0.068 F1598.544
G1 X54.315 Y-17.630 Z-0.070 F1575.708
G1 X54.005 Y-17.465 Z-0.101 F1555.843
G1 X53.871 Y-17.401 Z-0.101 F1598.630
G1 X53.823 Y-17.380 Z-0.103 F1577.728
G1 X53.417 Y-17.210 Z-0.140 F1558.048
G1 X53.348 Y-17.185 Z-0.140 F1595.797
G1 X53.301 Y-17.169 Z-0.143 F1574.706
G1 X52.796 Y-17.008 Z-0.188 F1556.391
G1 X52.796 Y-17.008 Z-0.188 F1517.587
G1 X52.748 Y-16.996 Z-0.190 F1583.637
G1 X52.210 Y-16.879 Z-0.226 F1566.386
G1 X52.172 Y-16.871 Z-0.230 F1551.976
G1 X52.163 Y-16.870 Z-0.230 F1583.156
G1 X51.593 Y-16.798 Z-0.255 F1578.218
G1 X51.549 Y-16.793 Z-0.258 F1561.703
G1 X51.538 Y-16.792 Z-0.260 F1547.270
G1 X50.949 Y-16.768 Z-0.268 F1592.842
G1 X50.901 Y-16.767 Z-0.270 F1575.282
G1 X50.888 Y-16.767 Z-0.271 F1560.911
G1 X50.408 Y-16.786 Z-0.273 F1598.094
G1 X50.350 Y-16.789 Z-0.275 F1579.074
G1 X50.215 Y-16.801 Z-0.286 F1561.034
G1 X49.872 Y-16.844 Z-0.287 F1597.646
G1 X49.814 Y-16.853 Z-0.290 F1577.467
G1 X49.570 Y-16.894 Z-0.311 F1556.780
G1 X49.349 Y-16.942 Z-0.314 F1594.140
G1 X49.286 Y-16.957 Z-0.317 F1573.477
G1 X48.956 Y-17.045 Z-0.348 F1554.294
G1 X48.835 Y-17.083 Z-0.349 F1593.962
G1 X48.774 Y-17.103 Z-0.353 F1572.278
G1 X48.376 Y-17.249 Z-0.393 F1551.481
G1 X48.335 Y-17.266 Z-0.394 F1593.061
G1 X48.271 Y-17.295 Z-0.398 F1571.723
G1 X47.846 Y-17.498 Z-0.442 F1552.671
G1 X47.825 Y-17.508 Z-0.444 F1543.987
G1 X47.787 Y-17.530 Z-0.447 F1565.636
G1 X47.375 Y-17.775 Z-0.493 F1551.447
G1 X47.314 Y-17.812 Z-0.503 F1532.745
G1 X47.305 Y-17.818 Z-0.505 F1513.005
G1 X46.916 Y-18.100 Z-0.547 F1554.890
G1 X46.859 Y-18.144 Z-0.557 F1534.866
G1 X46.815 Y-18.179 Z-0.566 F1515.785
G1 X46.489 Y-18.462 Z-0.604 F1554.934
G1 X46.428 Y-18.518 Z-0.615 F1532.534
G1 X46.353 Y-18.590 Z-0.634 F1511.874
G1 X46.100 Y-18.855 Z-0.670 F1549.777
G1 X46.037 Y-18.925 Z-0.683 F1527.235
G1 X45.925 Y-19.055 Z-0.716 F1504.336
G1 X45.751 Y-19.280 Z-0.746 F1547.211
G1 X45.689 Y-19.365 Z-0.762 F1523.487
G1 X45.574 Y-19.531 Z-0.802 F1500.219
G1 X45.445 Y-19.743 Z-0.828 F1546.315
G1 X45.389 Y-19.840 Z-0.846 F1521.391
G1 X45.294 Y-20.016 Z-0.886 F1497.861
G1 X45.189 Y-20.241 Z-0.913 F1545.606
G1 X45.143 Y-20.347 Z-0.931 F1520.895
G1 X45.079 Y-20.508 Z-0.967 F1496.994
G1 X44.990 Y-20.772 Z-0.996 F1546.827
G1 X44.956 Y-20.886 Z-1.014 F1523.142
G1 X44.921 Y-21.010 Z-1.040 F1500.070
G1 X44.852 Y-21.334 Z-1.073 F1549.250
G1 X44.830 Y-21.450 Z-1.090 F1526.169
G1 X44.818 Y-21.529 Z-1.105 F1505.127
G1 X44.777 Y-21.922 Z-1.142 F1553.146
G1 X44.769 Y-22.031 Z-1.156 F1532.717
G1 X44.767 Y-22.068 Z-1.163 F1511.076
G1 X44.765 Y-22.537 Z-1.203 F1556.497
G1 X44.767 Y-22.636 Z-1.215 F1539.678
G1 X44.769 Y-22.657 Z-1.216 F1560.873
G1 X44.816 Y-23.146 Z-1.258 F1556.986
G1 X44.822 Y-23.196 Z-1.263 F1547.851
G1 X44.835 Y-23.271 Z-1.268 F1569.380
G1 X44.924 Y-23.714 Z-1.308 F1555.059
G1 X44.931 Y-23.742 Z-1.308 F1598.232
G1 X44.969 Y-23.873 Z-1.313 F1578.364
G1 X45.068 Y-24.190 Z-1.343 F1555.036
G1 X45.119 Y-24.323 Z-1.341 F1594.648
G1 X45.170 Y-24.448 Z-1.347 F1580.761
G1 X45.251 Y-24.634 Z-1.364 F1556.642
G1 X45.375 Y-24.876 Z-1.360 F1593.286
G1 X45.442 Y-24.998 Z-1.365 F1584.252
G1 X45.473 Y-25.052 Z-1.369 F1560.630
G1 X45.704 Y-25.402 Z-1.360 F1588.846
G1 X45.738 Y-25.453 Z-1.360 F1599.167
G1 X45.783 Y-25.509 Z-1.356 F1572.693
G1 X46.056 Y-25.839 Z-1.344 F1585.140
G1 X46.100 Y-25.887 Z-1.336 F1538.938
G1 X46.183 Y-25.973 Z-1.326 F1560.023
G1 X46.429 Y-26.217 Z-1.315 F1582.823
G1 X46.550 Y-26.326 Z-1.295 F1540.475
G1 X46.649 Y-26.410 Z-1.286 F1561.129
G1 X46.820 Y-26.549 Z-1.279 F1584.117
G1 X47.055 Y-26.722 Z-1.246 F1544.036
G1 X47.144 Y-26.785 Z-1.239 F1563.729
G1 X47.235 Y-26.846 Z-1.235 F1583.715
G1 X47.569 Y-27.047 Z-1.191 F1542.608
G1 X47.667 Y-27.103 Z-1.183 F1562.945
G1 X47.672 Y-27.106 Z-1.183 F1584.318
G1 X48.109 Y-27.317 Z-1.128 F1542.649
G1 X48.138 Y-27.330 Z-1.125 F1550.196
G1 X48.211 Y-27.359 Z-1.113 F1528.511
G1 X48.635 Y-27.515 Z-1.063 F1544.024
G1 X48.669 Y-27.526 Z-1.057 F1505.836
G1 X48.771 Y-27.556 Z-1.041 F1526.392
G1 X49.167 Y-27.662 Z-1.000 F1548.613
G1 X49.243 Y-27.679 Z-0.986 F1511.922
G1 X49.346 Y-27.700 Z-0.972 F1530.770
G1 X49.737 Y-27.767 Z-0.934 F1551.659
G1 X49.833 Y-27.779 Z-0.918 F1518.099
G1 X49.926 Y-27.790 Z-0.907 F1538.262
G1 X50.345 Y-27.825 Z-0.873 F1559.006
G1 X50.428 Y-27.829 Z-0.861 F1526.110
G1 X50.517 Y-27.831 Z-0.851 F1544.633
G1 X50.763 Y-27.831 Z-0.834 F1564.361
G1 X51.033 Y-27.822 Z-0.797 F1530.729
G1 X51.108 Y-27.818 Z-0.789 F1547.340
G1 X51.180 Y-27.812 Z-0.784 F1565.510
G1 X51.599 Y-27.763 Z-0.726 F1530.407
G1 X51.697 Y-27.748 Z-0.706 F1498.428
G1 X51.767 Y-27.736 Z-0.694 F1514.271
G1 X52.022 Y-27.686 Z-0.658 F1530.922
G1 X52.321 Y-27.616 Z-0.596 F1498.477
G1 X52.391 Y-27.598 Z-0.584 F1515.130
G1 X52.451 Y-27.581 Z-0.576 F1535.038
G1 X52.887 Y-27.441 Z-0.487 F1502.963
G1 X52.910 Y-27.433 Z-0.481 F1474.008
G1 X52.977 Y-27.407 Z-0.466 F1493.149
G1 X53.329 Y-27.262 Z-0.399 F1511.825
G1 X53.461 Y-27.202 Z-0.366 F1484.398
G1 X53.523 Y-27.173 Z-0.353 F1504.875
G1 X53.775 Y-27.043 Z-0.311 F1526.255
G1 X53.973 Y-26.933 Z-0.265 F1498.186
G1 X54.032 Y-26.900 Z-0.255 F1518.917
G1 X54.162 Y-26.818 Z-0.237 F1541.719
G1 X54.451 Y-26.627 Z-0.180 F1517.813
G1 X54.504 Y-26.591 Z-0.173 F1540.338
G1 X54.526 Y-26.574 Z-0.171 F1563.586
G1 X54.856 Y-26.314 Z-0.119 F1537.134
G1 X54.893 Y-26.282 Z-0.110 F1508.934
G1 X54.937 Y-26.244 Z-0.102 F1531.956
G1 X55.157 Y-26.038 Z-0.075 F1555.019
G1 X55.296 Y-25.898 Z-0.047 F1526.327
G1 X55.354 Y-25.881 Z-0.040 F1545.761
G1 X55.432 Y-25.750 Z-0.032 F1570.287
G1 X55.657 Y-25.481 Z0.010 F1538.717
G1 X55.682 Y-25.451 Z0.013 F1555.445
G1 X55.689 Y-25.441 Z0.015 F1545.065
G1 X55.902 Y-25.136 Z0.049 F1553.053
G1 X55.965 Y-25.039 Z0.067 F1520.749
G1 X55.991 Y-24.997 Z0.073 F1543.899
G1 X56.106 Y-24.794 Z0.088 F1567.347
G1 X56.258 Y-24.597 Z0.042 F1511.891
G1 X56.297 Y-24.559 Z0.018 F1367.195
G1 X56.524 Y-24.384 Z-0.264 F1206.302
G1 X56.778 Y-24.258 Z-0.509 F1237.640
G1 X56.899 Y-24.209 Z-0.668 F1147.329
G1 X57.282 Y-24.082 Z-1.223 F1122.069
G1 X57.308 Y-23.841 Z-1.124 F1406.540
G1 X57.318 Y-23.720 Z-1.081 F1426.844
G1 X57.346 Y-23.218 Z-0.925 F1446.567
G1 X57.349 Y-23.117 Z-0.898 F1466.297
G1 X57.349 Y-22.996 Z-0.871 F1487.741
G1 X57.349 Y-22.993 Z-0.872 F1477.081
G1 X57.352 Y-22.602 Z-0.783 F1489.041
G1 X57.351 Y-22.512 Z-0.767 F1508.534
G1 X57.330 Y-21.980 Z-0.691 F1527.584
G1 X57.325 Y-21.898 Z-0.682 F1548.644
G1 X57.315 Y-21.781 Z-0.675 F1566.853
G1 X57.279 Y-21.398 Z-0.643 F1558.902
G1 X57.268 Y-21.310 Z-0.640 F1581.726
G1 X57.198 Y-20.834 Z-0.644 F1596.302
G1 X57.182 Y-20.738 Z-0.649 F1570.672
G1 X57.179 Y-20.728 Z-0.650 F1547.500
G1 X57.083 Y-20.283 Z-0.686 F1559.808
G1 X57.058 Y-20.183 Z-0.700 F1533.231
G1 X56.960 Y-19.831 Z-0.766 F1508.611
G1 X56.934 Y-19.743 Z-0.781 F1522.166
G1 X56.897 Y-19.633 Z-0.804 F1497.109
G1 X56.742 Y-19.203 Z-0.922 F1471.962
G1 X56.699 Y-19.095 Z-0.957 F1449.584
G1 X56.694 Y-19.085 Z-0.961 F1447.129
G1 X56.539 Y-18.748 Z-1.080 F1442.449
G0 Z3.000
G0 X57.282 Y-24.082 Z3.000
G1 X57.282 Y-24.082 Z-1.223 F801.000
G1 X57.450 Y-24.466 Z-1.097 F1452.101
G1 X57.550 Y-24.938 Z-0.947 F1446.682
G1 X57.569 Y-25.140 Z-0.959 F1572.400
G1 X57.572 Y-25.166 Z-0.961 F1565.841
G1 X57.654 Y-25.942 Z-1.021 F1560.849
G1 X57.659 Y-25.977 Z-1.024 F1553.960
G1 X57.730 Y-26.557 Z-1.085 F1547.128
G1 X57.738 Y-26.615 Z-1.093 F1536.279
G1 X57.748 Y-26.682 Z-1.103 F1525.807
G1 X57.767 Y-26.852 Z-1.137 F1492.951
G1 X57.767 Y-26.855 Z-1.140 F1465.181
G1 X57.777 Y-26.955 Z-1.171 F1446.417
G1 X57.777 Y-26.961 Z-1.173 F1427.250
G0 Z3.000
G0 X56.570 Y-27.928 Z3.000
G1 X56.570 Y-27.928 Z0.318 F801.000
G1 X56.744 Y-27.817 Z0.160 F1268.108
G1 X56.796 Y-27.781 Z0.109 F1253.176
G1 X56.987 Y-27.640 Z-0.096 F1237.386
G1 X56.992 Y-27.636 Z-0.104 F1238.816
G1 X57.051 Y-27.593 Z-0.165 F1235.480
G1 X57.128 Y-27.532 Z-0.256 F1221.726
G1 X57.348 Y-27.347 Z-0.534 F1208.808
G1 X57.402 Y-27.303 Z-0.605 F1202.233
G1 X57.405 Y-27.301 Z-0.607 F1192.054
G1 X57.576 Y-27.152 Z-0.853 F1179.785
G1 X57.737 Y-26.999 Z-1.108 F1166.030
G1 X57.777 Y-26.961 Z-1.173 F1163.584
G1 X57.811 Y-26.985 Z-1.131 F1198.689
G1 X58.009 Y-27.133 Z-0.885 F1201.976
G1 X58.093 Y-27.192 Z-0.787 F1209.336
G1 X58.290 Y-27.326 Z-0.564 F1217.900
G1 X58.331 Y-27.355 Z-0.518 F1222.960
G1 X58.333 Y-27.356 Z-0.516 F1230.892
G1 X58.396 Y-27.400 Z-0.450 F1237.640
G1 X58.635 Y-27.556 Z-0.211 F1246.150
G1 X58.696 Y-27.594 Z-0.154 F1259.270
G1 X58.825 Y-27.669 Z-0.043 F1272.902
G1 X58.831 Y-27.672 Z-0.040 F1274.365
G1 X59.271 Y-27.932 Z0.340 F1275.833
G1 X59.384 Y-28.006 Z0.450 F1254.176
G1 X59.384 Y-28.247 Z0.865 F1068.336
G0 Z3.000
G0 X59.504 Y-28.236 Z3.000
G1 X59.504 Y-28.236 Z0.866 F801.000
G1 X59.459 Y-28.051 Z0.540 F1069.667
G1 X59.424 Y-28.027 Z0.492 F1171.824
G1 X59.384 Y-28.006 Z0.449 F1212.241
G0 Z3.000
G0 X59.424 Y-28.027 Z3.000
G1 X59.424 Y-28.027 Z0.492 F801.000
G1 X59.625 Y-27.946 Z0.865 F1068.983
G0 Z3.000
G0 X59.657 Y-28.065 Z3.000
G1 X59.657 Y-28.065 Z0.864 F801.000
G1 X59.495 Y-28.069 Z0.592 F1073.717
G1 X59.459 Y-28.051 Z0.540 F1136.793
G0 Z3.000
G0 X59.495 Y-28.069 Z3.000
G1 X59.495 Y-28.069 Z0.592 F801.000
G1 X59.499 Y-28.073 Z0.600 F1097.188
G0 Z3.000
G0 X59.589 Y-28.201 Z3.000
G1 X59.589 Y-28.201 Z0.864 F801.000
G1 X59.499 Y-28.073 Z0.600 F1073.290
G1 X59.640 Y-28.145 Z0.865 F1075.046
G0 Z3.000
G0 X56.577 Y-28.247 Z3.000
G1 X56.577 Y-28.247 Z0.865 F801.000
G1 X56.570 Y-27.928 Z0.316 F1068.258
G1 X56.471 Y-27.980 Z0.416 F1227.546
G1 X56.435 Y-27.998 Z0.452 F1226.195
G0 Z3.000
G0 X56.351 Y-28.032 Z3.000
G1 X56.351 Y-28.032 Z0.550 F801.000
G1 X56.435 Y-27.998 Z0.456 F1187.927
G1 X56.394 Y-28.234 Z0.864 F1068.522
G0 Z3.000
G0 X56.263 Y-28.197 Z3.000
G1 X56.263 Y-28.197 Z0.866 F801.000
G1 X56.347 Y-28.034 Z0.555 F1071.748
G1 X56.351 Y-28.032 Z0.550 F1145.982
G1 X56.181 Y-27.960 Z0.865 F1071.235
G0 Z3.000
G0 X56.158 Y-28.047 Z3.000
G1 X56.158 Y-28.047 Z0.865 F801.000
G1 X56.318 Y-28.044 Z0.601 F1078.452
G1 X56.185 Y-28.134 Z0.865 F1077.618
G0 Z3.000
G0 X56.318 Y-28.044 Z3.000
G1 X56.318 Y-28.044 Z0.601 F801.000
G1 X56.347 Y-28.034 Z0.556 F1107.471
G0 Z5.000
(Finish operation: Vcarve003)
(Begin operation: Vcarve004)
(Path: Vcarve004)
(starting)
G0 Z3.000
G0 X73.818 Y-6.396 Z3.000
G1 X73.818 Y-6.396 Z0.866 F801.000
G1 X74.025 Y-6.406 Z0.515 F1072.099
G1 X74.011 Y-6.420 Z0.540 F1119.818
G1 X73.951 Y-6.601 Z0.865 F1071.341
G0 Z3.000
G0 X73.877 Y-6.560 Z3.000
G1 X73.877 Y-6.560 Z0.866 F801.000
G1 X73.999 Y-6.428 Z0.565 F1074.202
G1 X73.832 Y-6.492 Z0.865 F1073.663
G0 Z3.000
G0 X73.999 Y-6.428 Z3.000
G1 X73.999 Y-6.428 Z0.565 F801.000
G1 X74.011 Y-6.420 Z0.542 F1090.331
G0 Z3.000
G0 X74.025 Y-6.406 Z3.000
G1 X74.025 Y-6.406 Z0.515 F801.000
G1 X74.049 Y-6.389 Z0.481 F1164.014
G1 X74.054 Y-6.615 Z0.865 F1069.921
G0 Z3.000
G0 X74.132 Y-6.601 Z3.000
G1 X74.132 Y-6.601 Z0.865 F801.000
G1 X74.061 Y-6.379 Z0.464 F1069.371
G1 X74.064 Y-6.374 Z0.461 F1272.907
G1 X73.845 Y-6.287 Z0.865 F1070.130
G0 Z3.000
G0 X73.927 Y-6.141 Z3.000
G1 X73.927 Y-6.141 Z0.865 F801.000
G1 X74.143 Y-6.297 Z0.409 F1069.884
G1 X74.100 Y-6.341 Z0.433 F1389.435
G1 X74.064 Y-6.374 Z0.459 F1353.046
G0 Z3.000
G0 X74.061 Y-6.379 Z3.000
G1 X74.061 Y-6.379 Z0.464 F801.000
G1 X74.049 Y-6.389 Z0.479 F1214.322
G0 Z3.000
G0 X74.143 Y-6.297 Z3.000
G1 X74.143 Y-6.297 Z0.409 F801.000
G1 X74.258 Y-6.202 Z0.372 F1476.453
G1 X74.393 Y-6.084 Z0.338 F1504.195
G1 X74.630 Y-5.887 Z0.292 F1524.786
G1 X74.646 Y-5.874 Z0.286 F1512.352
G1 X74.918 Y-5.661 Z0.219 F1499.100
G1 X74.964 Y-5.625 Z0.208 F1503.374
G1 X75.015 Y-5.589 Z0.190 F1468.936
G1 X75.144 Y-5.504 Z0.140 F1437.050
G1 X75.212 Y-5.464 Z0.107 F1402.208
G1 X75.324 Y-5.405 Z0.047 F1371.322
G1 X75.407 Y-5.365 Z-0.006 F1341.934
G1 X75.583 Y-5.290 Z-0.125 F1314.290
G1 X75.799 Y-5.220 Z-0.301 F1267.872
G1 X75.955 Y-5.183 Z-0.441 F1231.409
G1 X76.218 Y-5.139 Z-0.742 F1170.513
G1 X76.510 Y-5.125 Z-1.042 F1194.589
G1 X76.683 Y-5.126 Z-1.251 F1150.886
G1 X76.872 Y-5.132 Z-1.488 F1144.467
G1 X76.964 Y-4.919 Z-1.334 F1303.989
G1 X76.984 Y-4.873 Z-1.302 F1309.409
G1 X77.192 Y-4.367 Z-0.958 F1314.748
G1 X77.208 Y-4.329 Z-0.935 F1319.584
G1 X77.373 Y-3.948 Z-0.685 F1325.785
G1 X77.387 Y-3.914 Z-0.663 F1331.439
G1 X77.611 Y-3.368 Z-0.330 F1338.252
G1 X77.625 Y-3.335 Z-0.312 F1346.388
G1 X77.824 Y-2.883 Z-0.051 F1354.477
G1 X77.825 Y-2.882 Z-0.050 F1354.116
G1 X78.087 Y-2.283 Z0.292 F1354.768
G1 X78.205 Y-2.038 Z0.450 F1331.164
G1 X78.447 Y-2.041 Z0.866 F1068.243
G0 Z3.000
G0 X78.436 Y-1.913 Z3.000
G1 X78.436 Y-1.913 Z0.865 F801.000
G1 X78.248 Y-1.951 Z0.535 F1068.948
G1 X78.216 Y-2.009 Z0.471 F1210.326
G1 X78.082 Y-1.822 Z0.865 F1071.261
G0 Z3.000
G0 X78.191 Y-1.767 Z3.000
G1 X78.191 Y-1.767 Z0.865 F801.000
G1 X78.251 Y-1.943 Z0.547 F1071.380
G1 X78.278 Y-1.898 Z0.615 F1135.295
G1 X78.406 Y-1.822 Z0.866 F1073.214
G0 Z3.000
G0 X78.354 Y-1.767 Z3.000
G1 X78.354 Y-1.767 Z0.866 F801.000
G1 X78.279 Y-1.895 Z0.620 F1076.575
G1 X78.283 Y-1.749 Z0.865 F1074.655
G0 Z3.000
G0 X78.279 Y-1.895 Z3.000
G1 X78.279 Y-1.895 Z0.620 F801.000
G1 X78.278 Y-1.898 Z0.614 F1097.556
G0 Z3.000
G0 X78.251 Y-1.943 Z3.000
G1 X78.251 Y-1.943 Z0.545 F801.000
G1 X78.248 Y-1.951 Z0.535 F1168.126
G0 Z3.000
G0 X78.216 Y-2.009 Z3.000
G1 X78.216 Y-2.009 Z0.471 F801.000
G1 X78.205 Y-2.038 Z0.449 F1279.165
G0 Z3.000
G0 X76.872 Y-5.132 Z3.000
G1 X76.872 Y-5.132 Z-1.488 F801.000
G1 X76.923 Y-5.296 Z-1.395 F1345.455
G1 X76.930 Y-5.321 Z-1.383 F1372.856
G1 X76.995 Y-5.625 Z-1.269 F1422.316
G1 X77.016 Y-5.764 Z-1.233 F1470.779
G1 X77.042 Y-6.035 Z-1.188 F1517.790
G1 X77.055 Y-6.400 Z-1.166 F1567.457
G1 X77.057 Y-6.465 Z-1.161 F1578.732
G1 X77.061 Y-6.939 Z-1.155 F1591.632
G1 X77.062 Y-6.961 Z-1.153 F1595.408
G1 X77.061 Y-12.137 Z-1.155 F1600.000
G1 X77.026 Y-12.548 Z-1.325 F1399.597
G1 X76.916 Y-12.963 Z-1.498 F1404.985
G1 X76.858 Y-13.112 Z-1.560 F1411.184
G1 X76.791 Y-13.261 Z-1.622 F1415.081
G0 Z3.000
G0 X76.902 Y-24.272 Z3.000
G1 X76.902 Y-24.272 Z-1.492 F801.000
G1 X76.916 Y-24.158 Z-1.452 F1426.360
G1 X76.938 Y-24.002 Z-1.400 F1443.028
G1 X76.953 Y-23.865 Z-1.362 F1462.568
G1 X76.973 Y-23.641 Z-1.309 F1483.012
G1 X76.979 Y-23.582 Z-1.298 F1493.578
G1 X77.002 Y-23.369 Z-1.255 F1502.576
G1 X77.013 Y-23.255 Z-1.238 F1523.331
G1 X77.046 Y-22.739 Z-1.180 F1543.974
G1 X77.051 Y-22.636 Z-1.173 F1563.152
G1 X77.061 Y-22.099 Z-1.154 F1582.124
G1 X77.062 Y-22.051 Z-1.153 F1591.484
G1 X77.061 Y-15.891 Z-1.153 F1600.000
G1 X77.061 Y-15.839 Z-1.154 F1590.242
G1 X77.049 Y-15.301 Z-1.175 F1580.427
G1 X77.044 Y-15.187 Z-1.184 F1558.606
G1 X77.007 Y-14.675 Z-1.246 F1538.767
G1 X76.995 Y-14.550 Z-1.267 F1516.140
G1 X76.935 Y-14.056 Z-1.373 F1493.361
G1 X76.912 Y-13.908 Z-1.412 F1470.672
G1 X76.826 Y-13.428 Z-1.562 F1448.820
G1 X76.791 Y-13.263 Z-1.622 F1424.958
G1 X76.791 Y-13.261 Z-1.623 F1407.587
G1 X76.346 Y-13.138 Z-1.071 F1155.561
G1 X76.151 Y-13.061 Z-0.794 F1130.353
G1 X76.028 Y-13.007 Z-0.658 F1196.918
G1 X75.791 Y-12.883 Z-0.476 F1296.325
G1 X75.590 Y-12.733 Z-0.294 F1279.677
G1 X75.530 Y-12.680 Z-0.267 F1436.891
G1 X75.470 Y-12.623 Z-0.252 F1511.478
G1 X75.191 Y-12.342 Z-0.203 F1537.193
G1 X75.142 Y-12.294 Z-0.198 F1563.122
G1 X74.997 Y-12.164 Z-0.193 F1586.919
G1 X74.769 Y-11.975 Z-0.164 F1550.911
G1 X74.724 Y-11.939 Z-0.161 F1572.602
G1 X74.532 Y-11.795 Z-0.158 F1593.219
G1 X74.364 Y-11.680 Z-0.139 F1552.353
G1 X74.317 Y-11.651 Z-0.136 F1574.226
G1 X74.062 Y-11.494 Z-0.132 F1593.551
G1 X73.938 Y-11.426 Z-0.117 F1547.937
G1 X73.890 Y-11.402 Z-0.114 F1569.032
G1 X73.586 Y-11.254 Z-0.107 F1589.169
G1 X73.489 Y-11.214 Z-0.096 F1545.646
G1 X73.442 Y-11.195 Z-0.092 F1566.121
G1 X73.033 Y-11.044 Z-0.082 F1587.511
G1 X73.021 Y-11.040 Z-0.080 F1539.964
G1 X72.974 Y-11.027 Z-0.076 F1560.786
G1 X72.532 Y-10.911 Z-0.059 F1580.080
G1 X72.486 Y-10.900 Z-0.059 F1600.000
G1 X72.440 Y-10.890 Z-0.060 F1582.816
G1 X72.024 Y-10.822 Z-0.038 F1573.226
G1 X71.983 Y-10.816 Z-0.037 F1592.663
G1 X71.802 Y-10.794 Z-0.041 F1590.505
G1 X71.499 Y-10.770 Z-0.023 F1570.091
G1 X71.460 Y-10.769 Z-0.022 F1586.878
G1 X71.116 Y-10.755 Z-0.024 F1596.899
G1 X70.956 Y-10.754 Z-0.015 F1572.354
G1 X70.908 Y-10.756 Z-0.015 F1594.743
G1 X70.707 Y-10.764 Z-0.020 F1585.857
G1 X70.304 Y-10.792 Z-0.013 F1590.427
G1 X70.303 Y-10.793 Z-0.013 F1600.000
G1 X70.241 Y-10.801 Z-0.012 F1595.059
G1 X69.910 Y-10.854 Z-0.025 F1580.777
G1 X69.660 Y-10.902 Z-0.022 F1593.796
G1 X69.597 Y-10.916 Z-0.025 F1577.947
G1 X69.529 Y-10.934 Z-0.032 F1549.222
G1 X69.159 Y-11.042 Z-0.050 F1575.856
G1 X69.034 Y-11.082 Z-0.049 F1598.060
G1 X68.970 Y-11.105 Z-0.053 F1573.865
G1 X68.801 Y-11.173 Z-0.072 F1546.607
G1 X68.452 Y-11.324 Z-0.092 F1573.920
G1 X68.425 Y-11.336 Z-0.092 F1600.000
G1 X68.364 Y-11.367 Z-0.095 F1572.605
G1 X68.118 Y-11.502 Z-0.125 F1546.689
G1 X67.838 Y-11.667 Z-0.142 F1573.859
G1 X67.791 Y-11.697 Z-0.147 F1553.410
G1 X67.781 Y-11.704 Z-0.148 F1553.360
G1 X67.478 Y-11.920 Z-0.185 F1549.119
G1 X67.273 Y-12.076 Z-0.198 F1575.027
G1 X67.222 Y-12.117 Z-0.204 F1551.028
G1 X67.172 Y-12.159 Z-0.213 F1528.782
G1 X66.878 Y-12.423 Z-0.250 F1553.026
G1 X66.733 Y-12.561 Z-0.259 F1577.390
G1 X66.688 Y-12.605 Z-0.264 F1557.169
G1 X66.591 Y-12.707 Z-0.282 F1535.481
G1 X66.313 Y-13.013 Z-0.316 F1558.837
G1 X66.219 Y-13.122 Z-0.321 F1581.314
G1 X66.182 Y-13.167 Z-0.325 F1563.504
G1 X66.045 Y-13.340 Z-0.350 F1543.216
G1 X65.787 Y-13.683 Z-0.379 F1565.101
G1 X65.771 Y-13.707 Z-0.380 F1592.800
G1 X65.738 Y-13.756 Z-0.383 F1575.894
G1 X65.377 Y-14.317 Z-0.438 F1557.902
G1 X65.345 Y-14.370 Z-0.445 F1539.563
G1 X65.339 Y-14.380 Z-0.447 F1518.138
G1 X65.034 Y-14.955 Z-0.500 F1559.173
G1 X65.005 Y-15.014 Z-0.507 F1541.348
G1 X64.966 Y-15.096 Z-0.521 F1522.909
G1 X64.743 Y-15.620 Z-0.565 F1560.434
G1 X64.717 Y-15.685 Z-0.573 F1542.911
G1 X64.660 Y-15.836 Z-0.597 F1524.715
G1 X64.504 Y-16.315 Z-0.634 F1563.003
G1 X64.483 Y-16.382 Z-0.642 F1544.944
G1 X64.421 Y-16.601 Z-0.674 F1527.221
G1 X64.318 Y-17.035 Z-0.706 F1563.947
G1 X64.303 Y-17.105 Z-0.714 F1546.331
G1 X64.247 Y-17.392 Z-0.755 F1529.254
G1 X64.188 Y-17.781 Z-0.781 F1566.175
G1 X64.178 Y-17.853 Z-0.788 F1549.376
G1 X64.137 Y-18.210 Z-0.836 F1532.871
G1 X64.112 Y-18.551 Z-0.858 F1566.700
G1 X64.108 Y-18.619 Z-0.865 F1553.058
G1 X64.091 Y-19.059 Z-0.918 F1538.227
G1 X64.090 Y-19.455 Z-0.941 F1571.311
G1 X64.091 Y-19.522 Z-0.946 F1557.249
G1 X64.103 Y-19.937 Z-0.993 F1542.734
G1 X64.128 Y-20.326 Z-1.013 F1573.607
G1 X64.134 Y-20.401 Z-1.020 F1558.542
G1 X64.175 Y-20.805 Z-1.065 F1543.496
G1 X64.225 Y-21.172 Z-1.082 F1576.256
G1 X64.238 Y-21.254 Z-1.089 F1560.112
G1 X64.302 Y-21.619 Z-1.130 F1543.577
G1 X64.383 Y-21.992 Z-1.146 F1579.063
G1 X64.405 Y-22.081 Z-1.153 F1562.306
G1 X64.483 Y-22.381 Z-1.186 F1544.691
G1 X64.606 Y-22.785 Z-1.201 F1582.191
G1 X64.637 Y-22.880 Z-1.208 F1564.111
G1 X64.712 Y-23.093 Z-1.232 F1546.459
G1 X64.896 Y-23.549 Z-1.245 F1586.349
G1 X64.937 Y-23.644 Z-1.252 F1567.995
G1 X64.989 Y-23.759 Z-1.265 F1548.630
G1 X65.253 Y-24.276 Z-1.276 F1589.760
G1 X65.305 Y-24.372 Z-1.282 F1571.408
G1 X65.312 Y-24.384 Z-1.284 F1550.763
G1 X65.681 Y-24.965 Z-1.291 F1594.753
G1 X65.685 Y-24.971 Z-1.291 F1593.006
G1 X65.750 Y-25.060 Z-1.288 F1584.252
G1 X66.119 Y-25.534 Z-1.293 F1595.765
G1 X66.212 Y-25.644 Z-1.284 F1569.412
G1 X66.300 Y-25.743 Z-1.282 F1592.710
G1 X66.335 Y-25.780 Z-1.284 F1583.995
G1 X66.571 Y-26.020 Z-1.280 F1594.260
G1 X66.802 Y-26.242 Z-1.262 F1571.305
G1 X66.807 Y-26.247 Z-1.261 F1568.077
G1 X66.883 Y-26.313 Z-1.255 F1567.200
G1 X67.053 Y-26.455 Z-1.248 F1584.863
G1 X67.149 Y-26.530 Z-1.239 F1561.179
G1 X67.206 Y-26.574 Z-1.235 F1574.884
G1 X67.304 Y-26.646 Z-1.232 F1587.855
G1 X67.482 Y-26.771 Z-1.217 F1563.026
G1 X67.544 Y-26.813 Z-1.213 F1576.263
G1 X67.562 Y-26.824 Z-1.213 F1590.627
G1 X67.827 Y-26.987 Z-1.192 F1565.653
G1 X67.828 Y-26.987 Z-1.192 F1554.245
G1 X67.893 Y-27.024 Z-1.185 F1553.863
G1 X68.101 Y-27.134 Z-1.170 F1568.469
G1 X68.187 Y-27.177 Z-1.160 F1543.434
G1 X68.257 Y-27.210 Z-1.153 F1556.806
G1 X68.384 Y-27.268 Z-1.145 F1570.645
G1 X68.559 Y-27.342 Z-1.125 F1546.476
G1 X68.626 Y-27.369 Z-1.119 F1561.244
G1 X68.677 Y-27.388 Z-1.117 F1575.838
G1 X68.935 Y-27.480 Z-1.090 F1550.646
G1 X68.980 Y-27.495 Z-1.086 F1557.715
G1 X69.007 Y-27.503 Z-1.083 F1549.875
G1 X69.296 Y-27.586 Z-1.056 F1554.567
G1 X69.325 Y-27.593 Z-1.052 F1530.806
G1 X69.392 Y-27.610 Z-1.045 F1543.958
G1 X69.623 Y-27.661 Z-1.026 F1559.066
G1 X69.718 Y-27.680 Z-1.014 F1537.090
G1 X69.787 Y-27.693 Z-1.007 F1549.915
G1 X69.950 Y-27.719 Z-0.995 F1563.872
G1 X70.121 Y-27.741 Z-0.971 F1530.825
G1 X70.183 Y-27.748 Z-0.964 F1544.442
G1 X70.524 Y-27.780 Z-0.936 F1558.144
G1 X70.615 Y-27.788 Z-0.932 F1576.267
G1 X70.688 Y-27.791 Z-0.931 F1596.517
G1 X71.013 Y-27.794 Z-0.905 F1559.304
G1 X71.321 Y-27.785 Z-0.861 F1526.740
G1 X71.337 Y-27.785 Z-0.858 F1529.136
G1 X71.418 Y-27.777 Z-0.845 F1517.107
G1 X71.659 Y-27.748 Z-0.814 F1534.333
G1 X71.867 Y-27.716 Z-0.773 F1501.920
G1 X71.947 Y-27.702 Z-0.760 F1520.307
G1 X71.981 Y-27.695 Z-0.756 F1539.735
G1 X72.303 Y-27.617 Z-0.694 F1506.132
G1 X72.375 Y-27.597 Z-0.675 F1474.328
G1 X72.455 Y-27.572 Z-0.657 F1492.878
G1 X72.628 Y-27.514 Z-0.625 F1512.638
G1 X72.859 Y-27.427 Z-0.567 F1481.765
G1 X72.935 Y-27.397 Z-0.551 F1502.226
G1 X72.957 Y-27.387 Z-0.547 F1522.198
G1 X73.289 Y-27.229 Z-0.467 F1490.793
G1 X73.316 Y-27.215 Z-0.459 F1464.028
G1 X73.382 Y-27.179 Z-0.442 F1485.518
G1 X73.626 Y-27.037 Z-0.389 F1506.618
G1 X73.742 Y-26.965 Z-0.356 F1480.930
G1 X73.801 Y-26.927 Z-0.343 F1501.404
G1 X73.949 Y-26.824 Z-0.315 F1523.619
G1 X74.142 Y-26.682 Z-0.266 F1497.499
G1 X74.194 Y-26.641 Z-0.256 F1517.034
G1 X74.259 Y-26.588 Z-0.245 F1537.885
G1 X74.516 Y-26.364 Z-0.186 F1512.295
G1 X74.555 Y-26.329 Z-0.179 F1532.948
G1 X74.558 Y-26.326 Z-0.178 F1517.864
G1 X74.833 Y-26.046 Z-0.122 F1527.878
G1 X74.861 Y-26.016 Z-0.114 F1502.351
G1 X74.900 Y-25.973 Z-0.106 F1524.592
G1 X75.095 Y-25.740 Z-0.073 F1546.317
G1 X75.203 Y-25.603 Z-0.046 F1521.617
G1 X75.238 Y-25.558 Z-0.040 F1545.291
G1 X75.341 Y-25.411 Z-0.029 F1567.917
G1 X75.502 Y-25.168 Z0.004 F1542.419
G1 X75.532 Y-25.122 Z0.008 F1567.525
G1 X75.574 Y-25.049 Z0.009 F1591.004
G1 X75.688 Y-24.893 Z-0.054 F1445.262
G1 X75.832 Y-24.756 Z-0.114 F1450.010
G1 X75.886 Y-24.713 Z-0.161 F1289.079
G1 X76.157 Y-24.543 Z-0.514 F1176.629
G1 X76.407 Y-24.434 Z-0.780 F1207.104
G1 X76.557 Y-24.380 Z-0.984 F1135.788
G1 X76.902 Y-24.272 Z-1.491 F1116.396
G1 X76.917 Y-24.300 Z-1.473 F1327.593
G1 X77.024 Y-24.525 Z-1.368 F1397.886
G1 X77.108 Y-24.752 Z-1.263 F1393.570
G1 X77.152 Y-24.892 Z-1.241 F1518.680
G1 X77.153 Y-24.895 Z-1.241 F1572.495
G1 X77.277 Y-25.287 Z-1.219 F1572.870
G1 X77.286 Y-25.314 Z-1.216 F1541.588
G1 X77.350 Y-25.474 Z-1.206 F1571.832
G1 X77.436 Y-25.671 Z-1.208 F1595.981
G1 X77.521 Y-25.851 Z-1.199 F1577.067
G1 X77.614 Y-26.027 Z-1.204 F1586.182
G1 X77.647 Y-26.085 Z-1.211 F1549.273
G1 X77.826 Y-26.374 Z-1.229 F1572.470
G1 X77.923 Y-26.519 Z-1.249 F1541.883
G1 X77.944 Y-26.546 Z-1.254 F1526.967
G1 X78.176 Y-26.843 Z-1.315 F1518.566
G1 X78.243 Y-26.845 Z-1.232 F1148.731
G1 X78.355 Y-26.846 Z-1.097 F1152.253
G1 X78.430 Y-26.845 Z-1.011 F1163.628
G1 X78.486 Y-26.844 Z-0.948 F1173.710
G1 X79.068 Y-26.828 Z-0.309 F1176.651
G1 X79.176 Y-26.821 Z-0.195 F1187.544
G1 X79.352 Y-26.804 Z-0.018 F1199.339
G1 X79.393 Y-26.801 Z0.022 F1205.467
G1 X79.739 Y-26.780 Z0.354 F1212.155
G1 X79.824 Y-26.781 Z0.445 F1186.235
G1 X79.906 Y-26.779 Z0.535 F1176.654
G1 X80.055 Y-26.652 Z0.865 F1072.680
G0 Z3.000
G0 X80.092 Y-26.718 Z3.000
G1 X80.092 Y-26.718 Z0.865 F801.000
G1 X79.927 Y-26.778 Z0.565 F1070.568
G1 X79.908 Y-26.779 Z0.535 F1087.039
G0 Z3.000
G0 X79.906 Y-26.779 Z3.000
G1 X79.906 Y-26.779 Z0.534 F801.000
G1 X79.908 Y-26.779 Z0.536 F1130.214
G1 X80.073 Y-26.889 Z0.865 F1076.131
G0 Z3.000
G0 X80.105 Y-26.789 Z3.000
G1 X80.105 Y-26.789 Z0.865 F801.000
G1 X79.927 Y-26.778 Z0.565 F1074.002
G0 Z3.000
G0 X78.176 Y-26.843 Z3.000
G1 X78.176 Y-26.843 Z-1.316 F801.000
G1 X78.172 Y-26.880 Z-1.275 F1176.782
G1 X78.131 Y-27.349 Z-0.738 F1167.185
G1 X78.123 Y-27.517 Z-0.537 F1155.299
G1 X78.121 Y-27.581 Z-0.462 F1159.166
G1 X78.119 Y-27.729 Z-0.290 F1162.667
G1 X78.133 Y-28.011 Z0.059 F1146.463
G0 Z3.000
G0 X78.153 Y-28.198 Z3.000
G1 X78.153 Y-28.198 Z0.327 F801.000
G1 X78.153 Y-28.200 Z0.330 F1100.147
G0 Z3.000
G0 X78.036 Y-28.488 Z3.000
G1 X78.036 Y-28.488 Z0.865 F801.000
G1 X78.153 Y-28.198 Z0.328 F1068.998
G1 X78.136 Y-28.030 Z0.088 F1112.168
G1 X78.133 Y-28.011 Z0.061 F1123.356
G1 X77.863 Y-28.393 Z0.866 F1068.833
G0 Z3.000
G0 X78.155 Y-28.520 Z3.000
G1 X78.155 Y-28.520 Z0.865 F801.000
G1 X78.153 Y-28.200 Z0.330 F1075.473
G1 X78.301 Y-28.479 Z0.865 F1072.410
G0 Z5.000
(Finish operation: Vcarve004)
(Begin operation: Vcarve005)
(Path: Vcarve005)
(starting)
G0 Z3.000
G0 X95.359 Y-2.952 Z3.000
G1 X95.359 Y-2.952 Z0.866 F801.000
G1 X95.555 Y-2.948 Z0.535 F1073.659
G1 X95.548 Y-2.942 Z0.549 F1095.025
G1 X95.379 Y-2.856 Z0.865 F1076.844
G0 Z3.000
G0 X95.441 Y-2.788 Z3.000
G1 X95.441 Y-2.788 Z0.866 F801.000
G1 X95.548 Y-2.942 Z0.549 F1073.757
G0 Z3.000
G0 X95.555 Y-2.948 Z3.000
G1 X95.555 Y-2.948 Z0.535 F801.000
G1 X95.588 Y-2.965 Z0.487 F1133.592
G1 X95.386 Y-3.061 Z0.866 F1071.741
G0 Z3.000
G0 X95.468 Y-3.170 Z3.000
G1 X95.468 Y-3.170 Z0.866 F801.000
G1 X95.648 Y-2.990 Z0.429 F1069.590
G1 X95.597 Y-2.968 Z0.477 F1241.392
G1 X95.543 Y-2.747 Z0.865 F1070.495
G0 Z3.000
G0 X95.588 Y-2.965 Z3.000
G1 X95.588 Y-2.965 Z0.487 F801.000
G1 X95.597 Y-2.968 Z0.478 F1188.688
G0 Z3.000
G0 X95.648 Y-2.990 Z3.000
G1 X95.648 Y-2.990 Z0.430 F801.000
G1 X95.692 Y-3.002 Z0.402 F1316.716
G1 X96.547 Y-3.317 Z-0.052 F1365.047
G1 X96.551 Y-3.318 Z-0.054 F1358.414
G1 X96.598 Y-3.336 Z-0.079 F1363.127
G1 X96.653 Y-3.357 Z-0.112 F1346.321
G1 X96.947 Y-3.482 Z-0.298 F1330.366
G1 X97.053 Y-3.531 Z-0.374 F1307.133
G1 X97.277 Y-3.648 Z-0.554 F1285.548
G1 X97.291 Y-3.655 Z-0.565 F1283.736
G1 X97.306 Y-3.663 Z-0.578 F1277.455
G1 X97.491 Y-3.770 Z-0.756 F1245.715
G1 X97.689 Y-3.898 Z-0.972 F1223.403
G1 X97.995 Y-4.128 Z-1.362 F1196.856
G1 X98.039 Y-4.165 Z-1.425 F1171.252
G1 X98.057 Y-4.182 Z-1.455 F1164.831
G1 X98.056 Y-4.222 Z-1.444 F1474.158
G1 X98.056 Y-4.224 Z-1.445 F1481.446
G1 X98.054 Y-4.396 Z-1.414 F1507.985
G1 X98.060 Y-4.705 Z-1.437 F1561.583
G1 X98.062 Y-4.749 Z-1.450 F1456.414
G1 X98.068 Y-4.920 Z-1.504 F1445.984
G1 X98.091 Y-5.187 Z-1.607 F1412.676
G1 X98.113 Y-5.354 Z-1.685 F1379.121
G1 X97.841 Y-5.742 Z-1.465 F1378.638
G1 X97.657 Y-6.128 Z-1.252 F1365.248
G1 X97.583 Y-6.364 Z-1.125 F1358.245
G1 X97.536 Y-6.604 Z-0.998 F1355.748
G1 X94.870 Y-26.308 Z-1.198 F1594.884
G1 X94.856 Y-26.438 Z-1.211 F1547.232
G1 X94.849 Y-26.569 Z-1.225 F1547.397
G1 X94.848 Y-26.631 Z-1.237 F1500.785
G1 X94.843 Y-26.738 Z-1.261 F1482.722
G1 X94.839 Y-26.796 Z-1.280 F1446.233
G1 X94.834 Y-26.881 Z-1.313 F1414.945
G1 X94.752 Y-26.945 Z-1.205 F1191.287
G1 X94.480 Y-27.129 Z-0.891 F1213.112
G1 X94.288 Y-27.241 Z-0.702 F1239.928
G1 X94.218 Y-27.281 Z-0.633 F1248.942
G1 X94.187 Y-27.297 Z-0.609 F1267.060
G1 X94.140 Y-27.321 Z-0.568 F1284.410
G1 X93.913 Y-27.434 Z-0.395 F1291.852
G1 X93.825 Y-27.475 Z-0.331 F1309.346
G1 X93.651 Y-27.548 Z-0.221 F1328.679
G1 X93.639 Y-27.553 Z-0.214 F1331.202
G1 X93.556 Y-27.589 Z-0.161 F1333.930
G1 X93.504 Y-27.610 Z-0.129 F1350.216
G1 X92.659 Y-27.930 Z0.321 F1363.780
G0 Z3.000
G0 X92.492 Y-28.001 Z3.000
G1 X92.492 Y-28.001 Z0.457 F801.000
G1 X92.462 Y-28.010 Z0.486 F1216.504
G0 Z3.000
G0 X92.417 Y-28.029 Z3.000
G1 X92.417 Y-28.029 Z0.543 F801.000
G1 X92.462 Y-28.010 Z0.488 F1172.900
G1 X92.279 Y-27.887 Z0.865 F1070.163
G0 Z3.000
G0 X92.238 Y-27.970 Z3.000
G1 X92.238 Y-27.970 Z0.865 F801.000
G1 X92.417 Y-28.029 Z0.543 F1070.681
G1 X92.412 Y-28.033 Z0.549 F1137.534
G1 X92.324 Y-28.197 Z0.866 F1071.821
G0 Z3.000
G0 X92.249 Y-28.134 Z3.000
G1 X92.249 Y-28.134 Z0.865 F801.000
G1 X92.396 Y-28.038 Z0.576 F1078.432
G1 X92.224 Y-28.047 Z0.865 F1074.573
G0 Z3.000
G0 X92.396 Y-28.038 Z3.000
G1 X92.396 Y-28.038 Z0.576 F801.000
G1 X92.412 Y-28.033 Z0.551 F1100.329
G0 Z3.000
G0 X92.450 Y-28.234 Z3.000
G1 X92.450 Y-28.234 Z0.864 F801.000
G1 X92.492 Y-28.001 Z0.457 F1068.728
G1 X92.626 Y-27.946 Z0.348 F1265.744
G1 X92.659 Y-27.930 Z0.324 F1303.714
G1 X92.443 Y-27.700 Z0.865 F1069.375
G0 Z3.000
G0 X94.834 Y-26.881 Z3.000
G1 X94.834 Y-26.881 Z-1.313 F801.000
G1 X94.905 Y-26.937 Z-1.215 F1179.700
G1 X94.964 Y-26.982 Z-1.139 F1192.644
G1 X95.097 Y-27.077 Z-0.983 F1213.022
G1 X95.286 Y-27.202 Z-0.778 F1226.105
G1 X95.436 Y-27.293 Z-0.630 F1243.464
G1 X95.469 Y-27.311 Z-0.602 F1273.741
G1 X95.500 Y-27.328 Z-0.577 F1289.055
G1 X95.725 Y-27.446 Z-0.403 F1294.470
G1 X95.839 Y-27.500 Z-0.325 F1317.775
G1 X96.115 Y-27.616 Z-0.160 F1344.095
G1 X96.161 Y-27.635 Z-0.134 F1356.755
G1 X96.167 Y-27.637 Z-0.131 F1366.928
G1 X96.817 Y-27.868 Z0.211 F1365.977
G1 X97.133 Y-27.972 Z0.390 F1348.484
G1 X97.133 Y-27.972 Z0.390 F1313.242
G0 Z3.000
G0 X97.233 Y-28.016 Z3.000
G1 X97.233 Y-28.016 Z0.481 F801.000
G1 X97.436 Y-27.914 Z0.866 F1071.560
G0 Z3.000
G0 X97.473 Y-28.047 Z3.000
G1 X97.473 Y-28.047 Z0.866 F801.000
G1 X97.299 Y-28.050 Z0.574 F1074.174
G0 Z3.000
G0 X97.295 Y-28.049 Z3.000
G1 X97.295 Y-28.049 Z0.569 F801.000
G1 X97.299 Y-28.050 Z0.575 F1099.441
G1 X97.452 Y-28.134 Z0.865 F1075.742
G0 Z3.000
G0 X97.391 Y-28.197 Z3.000
G1 X97.391 Y-28.197 Z0.865 F801.000
G1 X97.295 Y-28.049 Z0.568 F1072.838
G1 X97.241 Y-28.021 Z0.489 F1138.888
G0 Z3.000
G0 X97.288 Y-28.234 Z3.000
G1 X97.288 Y-28.234 Z0.864 F801.000
G1 X97.241 Y-28.021 Z0.489 F1069.214
G1 X97.233 Y-28.016 Z0.479 F1175.453
G1 X97.133 Y-27.972 Z0.389 F1248.311
G1 X97.327 Y-27.773 Z0.865 F1070.058
G0 Z3.000
G0 X113.765 Y-28.047 Z3.000
G1 X113.765 Y-28.047 Z0.865 F801.000
G1 X113.925 Y-28.046 Z0.600 F1077.396
G1 X113.790 Y-28.134 Z0.866 F1077.572
G0 Z3.000
G0 X113.865 Y-28.197 Z3.000
G1 X113.865 Y-28.197 Z0.866 F801.000
G1 X113.950 Y-28.039 Z0.562 F1072.513
G1 X113.998 Y-28.012 Z0.495 F1146.991
G1 X113.802 Y-27.914 Z0.866 F1072.177
G0 Z3.000
G0 X113.911 Y-27.773 Z3.000
G1 X113.911 Y-27.773 Z0.865 F801.000
G1 X114.116 Y-27.964 Z0.385 F1069.496
G1 X114.033 Y-28.000 Z0.456 F1252.097
G1 X113.991 Y-28.234 Z0.864 F1068.622
G0 Z3.000
G0 X113.925 Y-28.046 Z3.000
G1 X113.925 Y-28.046 Z0.600 F801.000
G1 X113.950 Y-28.039 Z0.562 F1106.978
G0 Z3.000
G0 X113.998 Y-28.012 Z3.000
G1 X113.998 Y-28.012 Z0.495 F801.000
G1 X114.033 Y-28.000 Z0.458 F1206.912
G0 Z3.000
G0 X114.116 Y-27.964 Z3.000
G1 X114.116 Y-27.964 Z0.385 F801.000
G1 X114.166 Y-27.947 Z0.349 F1297.419
G1 X114.971 Y-27.605 Z-0.137 F1342.042
G1 X115.014 Y-27.585 Z-0.165 F1330.377
G1 X115.085 Y-27.552 Z-0.213 F1319.379
G1 X115.098 Y-27.546 Z-0.225 F1315.312
G1 X115.269 Y-27.468 Z-0.341 F1312.278
G1 X115.386 Y-27.408 Z-0.433 F1288.774
G1 X115.592 Y-27.292 Z-0.615 F1267.556
G1 X115.599 Y-27.289 Z-0.623 F1266.570
G1 X115.626 Y-27.274 Z-0.645 F1258.006
G1 X115.808 Y-27.160 Z-0.838 F1228.061
G1 X115.994 Y-27.031 Z-1.058 F1207.807
G1 X116.188 Y-26.883 Z-1.309 F1193.158
G1 X116.263 Y-26.938 Z-1.215 F1190.685
G1 X116.299 Y-26.964 Z-1.168 F1192.944
G1 X116.322 Y-26.982 Z-1.140 F1199.410
G1 X116.590 Y-27.159 Z-0.850 F1226.702
G1 X116.791 Y-27.273 Z-0.664 F1255.557
G1 X116.911 Y-27.336 Z-0.563 F1273.991
G1 X116.935 Y-27.347 Z-0.545 F1300.758
G1 X116.941 Y-27.350 Z-0.541 F1313.709
G1 X117.185 Y-27.465 Z-0.369 F1311.803
G1 X117.267 Y-27.501 Z-0.317 F1329.350
G1 X117.563 Y-27.620 Z-0.146 F1350.338
G1 X117.616 Y-27.640 Z-0.118 F1364.066
G1 X117.943 Y-27.753 Z0.041 F1380.759
G1 X118.534 Y-27.947 Z0.346 F1367.917
G1 X118.578 Y-27.958 Z0.372 F1336.128
G1 X118.692 Y-28.000 Z0.458 F1287.158
G1 X118.731 Y-28.234 Z0.864 F1068.494
G0 Z3.000
G0 X118.868 Y-28.197 Z3.000
G1 X118.868 Y-28.197 Z0.865 F801.000
G1 X118.785 Y-28.029 Z0.546 F1071.389
G1 X118.761 Y-28.018 Z0.517 F1179.843
G1 X118.923 Y-27.896 Z0.865 F1071.021
G0 Z3.000
G0 X118.964 Y-27.973 Z3.000
G1 X118.964 Y-27.973 Z0.866 F801.000
G1 X118.796 Y-28.031 Z0.561 F1069.812
G1 X118.810 Y-28.036 Z0.583 F1103.858
G1 X118.950 Y-28.134 Z0.865 F1077.903
G0 Z3.000
G0 X118.977 Y-28.047 Z3.000
G1 X118.977 Y-28.047 Z0.865 F801.000
G1 X118.810 Y-28.036 Z0.583 F1073.675
G0 Z3.000
G0 X118.796 Y-28.031 Z3.000
G1 X118.796 Y-28.031 Z0.561 F801.000
G1 X118.785 Y-28.029 Z0.546 F1131.799
G0 Z3.000
G0 X118.761 Y-28.018 Z3.000
G1 X118.761 Y-28.018 Z0.517 F801.000
G1 X118.692 Y-28.000 Z0.456 F1237.589
G0 Z3.000
G0 X116.188 Y-26.883 Z3.000
G1 X116.188 Y-26.883 Z-1.309 F801.000
G1 X116.185 Y-26.823 Z-1.285 F1403.763
G1 X116.176 Y-26.701 Z-1.248 F1449.055
G1 X116.172 Y-26.623 Z-1.234 F1502.054
G1 X116.169 Y-26.533 Z-1.217 F1514.628
G1 X116.150 Y-26.302 Z-1.198 F1557.937
G1 X113.379 Y-5.709 Z-1.197 F1599.990
G1 X113.288 Y-5.302 Z-1.348 F1423.505
G1 X113.039 Y-4.748 Z-1.559 F1429.676
G0 Z3.000
G0 X113.059 Y-4.216 Z3.000
G1 X113.059 Y-4.216 Z-1.517 F801.000
G1 X113.051 Y-4.444 Z-1.506 F1575.077
G1 X113.048 Y-4.506 Z-1.511 F1541.646
G1 X113.045 Y-4.546 Z-1.518 F1533.943
G1 X113.041 Y-4.646 Z-1.535 F1516.867
G1 X113.040 Y-4.705 Z-1.548 F1483.630
G1 X113.039 Y-4.748 Z-1.558 F1460.514
G1 X112.727 Y-4.865 Z-1.098 F1118.965
G1 X112.526 Y-4.948 Z-0.825 F1143.860
G1 X112.315 Y-5.045 Z-0.573 F1180.290
G1 X112.143 Y-5.135 Z-0.407 F1239.189
G1 X112.041 Y-5.196 Z-0.330 F1305.772
G1 X111.879 Y-5.310 Z-0.249 F1403.109
G1 X111.874 Y-5.313 Z-0.247 F1458.601
G1 X111.730 Y-5.452 Z-0.221 F1532.385
G1 X105.897 Y-11.983 Z-0.249 F1598.350
G1 X105.848 Y-12.036 Z-0.251 F1573.248
G1 X104.922 Y-12.963 Z-1.720 F1171.589
G1 X104.610 Y-12.656 Z-1.501 F1364.097
G1 X104.583 Y-12.630 Z-1.493 F1482.892
G1 X104.549 Y-12.597 Z-1.483 F1503.163
G1 X104.476 Y-12.526 Z-1.470 F1533.127
G1 X104.407 Y-12.454 Z-1.460 F1549.429
G1 X104.381 Y-12.427 Z-1.456 F1555.611
G1 X104.117 Y-12.148 Z-1.428 F1561.888
G1 X104.102 Y-12.132 Z-1.426 F1566.392
G1 X103.505 Y-11.488 Z-1.374 F1569.381
G1 X103.082 Y-11.025 Z-1.326 F1561.564
G1 X103.065 Y-11.006 Z-1.324 F1565.374
G1 X102.583 Y-10.468 Z-1.282 F1570.200
G1 X101.770 Y-9.538 Z-1.187 F1561.116
G1 X101.644 Y-9.391 Z-1.168 F1549.662
G1 X101.624 Y-9.367 Z-1.167 F1557.068
G1 X101.072 Y-8.701 Z-1.100 F1561.645
G1 X100.486 Y-7.962 Z-0.993 F1542.209
G1 X100.421 Y-7.876 Z-0.976 F1523.463
G1 X100.395 Y-7.842 Z-0.970 F1532.389
G1 X100.023 Y-7.330 Z-0.897 F1540.840
G1 X99.775 Y-6.965 Z-0.821 F1514.346
G1 X99.750 Y-6.928 Z-0.814 F1524.708
G1 X99.681 Y-6.822 Z-0.798 F1533.490
G1 X99.429 Y-6.389 Z-0.691 F1492.692
G1 X99.362 Y-6.283 Z-0.679 F1553.639
G1 X99.288 Y-6.182 Z-0.668 F1553.467
G1 X99.247 Y-6.130 Z-0.674 F1551.439
G1 X98.993 Y-5.867 Z-0.852 F1370.465
G1 X98.713 Y-5.665 Z-1.011 F1380.481
G1 X98.623 Y-5.610 Z-1.096 F1252.669
G1 X98.337 Y-5.457 Z-1.408 F1210.695
G1 X98.191 Y-5.389 Z-1.585 F1176.542
G1 X98.113 Y-5.354 Z-1.685 F1160.296
G0 Z3.000
G0 X98.057 Y-4.182 Z3.000
G1 X98.057 Y-4.182 Z-1.453 F801.000
G1 X98.187 Y-4.072 Z-1.267 F1176.691
G1 X98.509 Y-3.837 Z-0.869 F1199.991
G1 X98.708 Y-3.713 Z-0.659 F1230.239
G1 X98.883 Y-3.617 Z-0.500 F1253.073
G1 X99.123 Y-3.501 Z-0.303 F1280.201
G1 X99.218 Y-3.460 Z-0.237 F1299.540
G1 X99.231 Y-3.455 Z-0.225 F1322.201
G1 X99.275 Y-3.437 Z-0.198 F1331.241
G1 X99.500 Y-3.339 Z-0.062 F1342.793
G1 X99.533 Y-3.325 Z-0.045 F1352.494
G1 X100.281 Y-3.027 Z0.360 F1364.265
G1 X100.391 Y-2.993 Z0.431 F1316.301
G0 Z3.000
G0 X100.422 Y-2.979 Z3.000
G1 X100.422 Y-2.979 Z0.459 F801.000
G1 X100.486 Y-2.958 Z0.525 F1206.919
G1 X100.511 Y-2.944 Z0.559 F1148.152
G1 X100.594 Y-2.783 Z0.865 F1073.581
G0 Z3.000
G0 X100.672 Y-2.846 Z3.000
G1 X100.672 Y-2.846 Z0.865 F801.000
G1 X100.539 Y-2.935 Z0.600 F1077.437
G1 X100.511 Y-2.944 Z0.557 F1108.625
G0 Z3.000
G0 X100.486 Y-2.958 Z3.000
G1 X100.486 Y-2.958 Z0.523 F801.000
G1 X100.666 Y-3.048 Z0.864 F1071.505
G0 Z3.000
G0 X100.698 Y-2.934 Z3.000
G1 X100.698 Y-2.934 Z0.865 F801.000
G1 X100.539 Y-2.935 Z0.600 F1076.152
G0 Z3.000
G0 X100.463 Y-2.746 Z3.000
G1 X100.463 Y-2.746 Z0.866 F801.000
G1 X100.422 Y-2.979 Z0.459 F1068.948
G1 X100.391 Y-2.993 Z0.430 F1252.656
G1 X100.571 Y-3.171 Z0.866 F1068.846
G0 Z3.000
G0 X110.485 Y-2.915 Z3.000
G1 X110.485 Y-2.915 Z0.865 F801.000
G1 X110.623 Y-2.916 Z0.638 F1079.194
G1 X110.510 Y-2.836 Z0.865 F1079.399
G0 Z3.000
G0 X110.585 Y-2.779 Z3.000
G1 X110.585 Y-2.779 Z0.865 F801.000
G1 X110.658 Y-2.927 Z0.586 F1072.367
G1 X110.690 Y-2.945 Z0.542 F1153.022
G1 X110.521 Y-3.034 Z0.866 F1072.021
G0 Z3.000
G0 X110.623 Y-2.916 Z3.000
G1 X110.623 Y-2.916 Z0.638 F801.000
G1 X110.658 Y-2.927 Z0.586 F1113.019
G0 Z3.000
G0 X110.690 Y-2.945 Z3.000
G1 X110.690 Y-2.945 Z0.542 F801.000
G1 X110.747 Y-2.963 Z0.485 F1213.234
G0 Z3.000
G0 X110.810 Y-2.991 Z3.000
G1 X110.810 Y-2.991 Z0.430 F801.000
G1 X110.892 Y-3.016 Z0.377 F1317.502
G1 X111.452 Y-3.221 Z0.051 F1345.864
G1 X111.461 Y-3.224 Z0.045 F1342.428
G1 X111.482 Y-3.232 Z0.033 F1339.463
G1 X111.733 Y-3.332 Z-0.111 F1350.862
G1 X111.788 Y-3.355 Z-0.146 F1336.419
G1 X111.970 Y-3.438 Z-0.268 F1320.278
G1 X112.111 Y-3.512 Z-0.379 F1289.837
G1 X112.356 Y-3.657 Z-0.602 F1262.629
G1 X112.483 Y-3.739 Z-0.728 F1245.155
G1 X112.508 Y-3.756 Z-0.757 F1222.974
G1 X112.576 Y-3.806 Z-0.837 F1210.441
G1 X112.682 Y-3.885 Z-0.968 F1203.685
G1 X112.905 Y-4.072 Z-1.277 F1185.686
G1 X113.004 Y-4.164 Z-1.430 F1170.213
G1 X113.059 Y-4.216 Z-1.515 F1167.098
G1 X113.094 Y-4.187 Z-1.466 F1165.607
G1 X113.152 Y-4.140 Z-1.380 F1173.386
G1 X113.175 Y-4.121 Z-1.348 F1181.081
G1 X113.258 Y-4.053 Z-1.233 F1182.992
G1 X113.548 Y-3.843 Z-0.883 F1205.456
G1 X113.759 Y-3.712 Z-0.664 F1233.121
G1 X113.790 Y-3.693 Z-0.632 F1237.712
G1 X113.794 Y-3.690 Z-0.628 F1237.767
G1 X113.991 Y-3.579 Z-0.458 F1270.115
G1 X114.299 Y-3.431 Z-0.232 F1304.715
G1 X114.393 Y-3.390 Z-0.173 F1327.787
G1 X114.456 Y-3.366 Z-0.136 F1353.038
G1 X114.457 Y-3.365 Z-0.135 F1353.952
G1 X114.780 Y-3.240 Z0.047 F1353.565
G1 X114.815 Y-3.227 Z0.063 F1365.973
G1 X115.295 Y-3.061 Z0.301 F1379.735
G1 X115.474 Y-3.012 Z0.406 F1337.373
G1 X115.519 Y-2.748 Z0.865 F1069.233
G0 Z3.000
G0 X115.679 Y-2.792 Z3.000
G1 X115.679 Y-2.792 Z0.865 F801.000
G1 X115.583 Y-2.984 Z0.503 F1072.839
G1 X115.582 Y-2.984 Z0.500 F1151.348
G1 X115.492 Y-3.009 Z0.417 F1230.702
G0 Z3.000
G0 X115.474 Y-3.012 Z3.000
G1 X115.474 Y-3.012 Z0.406 F801.000
G1 X115.492 Y-3.009 Z0.419 F1277.248
G1 X115.660 Y-3.207 Z0.864 F1068.508
G0 Z3.000
G0 X115.770 Y-3.093 Z3.000
G1 X115.770 Y-3.093 Z0.865 F801.000
G1 X115.582 Y-2.984 Z0.500 F1073.710
G0 Z3.000
G0 X115.583 Y-2.984 Z3.000
G1 X115.583 Y-2.984 Z0.503 F801.000
G1 X115.621 Y-2.971 Z0.560 F1111.573
G1 X115.774 Y-2.866 Z0.866 F1078.699
G0 Z3.000
G0 X115.806 Y-2.970 Z3.000
G1 X115.806 Y-2.970 Z0.865 F801.000
G1 X115.621 Y-2.971 Z0.559 F1077.163
G0 Z3.000
G0 X110.710 Y-2.745 Z3.000
G1 X110.710 Y-2.745 Z0.866 F801.000
G1 X110.747 Y-2.963 Z0.485 F1068.740
G1 X110.810 Y-2.991 Z0.430 F1257.723
G1 X110.631 Y-3.171 Z0.866 F1068.709
G0 Z3.000
G0 X104.922 Y-12.963 Z3.000
G1 X104.922 Y-12.963 Z-1.720 F801.000
G1 X104.943 Y-13.020 Z-1.722 F1589.953
G1 X105.322 Y-13.351 Z-1.458 F1354.631
G1 X105.433 Y-13.453 Z-1.432 F1508.961
G1 X105.810 Y-13.822 Z-1.362 F1533.877
G1 X105.824 Y-13.837 Z-1.358 F1500.394
G1 X105.877 Y-13.895 Z-1.345 F1512.986
G1 X106.226 Y-14.286 Z-1.270 F1527.570
G1 X106.232 Y-14.293 Z-1.268 F1525.368
G1 X106.277 Y-14.349 Z-1.255 F1509.920
G1 X106.585 Y-14.748 Z-1.179 F1522.846
G1 X106.625 Y-14.801 Z-1.170 F1534.309
G1 X106.635 Y-14.816 Z-1.167 F1518.910
G1 X106.903 Y-15.222 Z-1.092 F1521.570
G1 X106.963 Y-15.318 Z-1.079 F1542.870
G1 X106.979 Y-15.345 Z-1.077 F1566.393
G1 X107.265 Y-15.875 Z-0.994 F1530.265
G1 X107.312 Y-15.969 Z-0.984 F1551.073
G1 X107.322 Y-15.989 Z-0.983 F1573.009
G1 X107.429 Y-16.237 Z-0.951 F1540.855
G1 X107.447 Y-16.280 Z-0.945 F1548.592
G1 X107.456 Y-16.304 Z-0.943 F1541.648
G1 X107.551 Y-16.568 Z-0.915 F1547.232
G1 X107.555 Y-16.577 Z-0.913 F1550.364
G1 X107.577 Y-16.651 Z-0.904 F1541.994
G1 X107.638 Y-16.866 Z-0.887 F1558.554
G1 X107.649 Y-16.909 Z-0.881 F1531.248
G1 X107.668 Y-16.991 Z-0.871 F1551.228
G1 X107.700 Y-17.144 Z-0.863 F1567.823
G1 X107.717 Y-17.244 Z-0.851 F1540.560
G1 X107.731 Y-17.332 Z-0.842 F1559.571
G1 X107.740 Y-17.413 Z-0.840 F1580.076
G1 X107.756 Y-17.580 Z-0.824 F1550.631
G1 X107.763 Y-17.676 Z-0.817 F1570.059
G1 X107.763 Y-17.677 Z-0.817 F1600.000
G1 X107.764 Y-17.922 Z-0.802 F1563.656
G1 X107.763 Y-18.020 Z-0.796 F1585.508
G1 X107.761 Y-18.045 Z-0.799 F1591.984
G1 X107.733 Y-18.397 Z-0.783 F1576.809
G1 X107.716 Y-18.546 Z-0.767 F1543.897
G1 X107.700 Y-18.657 Z-0.758 F1570.042
G1 X107.686 Y-18.734 Z-0.760 F1596.781
G1 X107.615 Y-19.059 Z-0.735 F1562.388
G1 X107.593 Y-19.142 Z-0.723 F1526.464
G1 X107.558 Y-19.261 Z-0.711 F1557.203
G1 X107.521 Y-19.372 Z-0.709 F1586.004
G1 X107.404 Y-19.675 Z-0.677 F1550.836
G1 X107.392 Y-19.703 Z-0.672 F1513.161
G1 X107.340 Y-19.817 Z-0.656 F1545.404
G1 X107.260 Y-19.969 Z-0.650 F1575.713
G1 X107.119 Y-20.218 Z-0.616 F1540.647
G1 X107.099 Y-20.253 Z-0.613 F1551.544
G1 X107.063 Y-20.304 Z-0.605 F1537.253
G1 X106.917 Y-20.506 Z-0.582 F1553.688
G1 X106.900 Y-20.530 Z-0.577 F1560.116
G1 X106.862 Y-20.574 Z-0.570 F1538.726
G1 X106.707 Y-20.747 Z-0.551 F1553.260
G1 X106.694 Y-20.763 Z-0.548 F1558.377
G1 X106.636 Y-20.817 Z-0.538 F1535.788
G1 X106.478 Y-20.956 Z-0.522 F1558.024
G1 X106.469 Y-20.963 Z-0.521 F1504.918
G1 X106.382 Y-21.027 Z-0.504 F1534.136
G1 X106.250 Y-21.115 Z-0.495 F1563.863
G1 X106.206 Y-21.142 Z-0.486 F1507.799
G1 X106.108 Y-21.195 Z-0.469 F1539.833
G1 X106.010 Y-21.243 Z-0.466 F1570.169
G1 X105.920 Y-21.281 Z-0.449 F1515.352
G1 X105.817 Y-21.321 Z-0.435 F1546.772
G1 X105.753 Y-21.341 Z-0.435 F1579.463
G1 X105.619 Y-21.377 Z-0.414 F1523.734
G1 X105.514 Y-21.402 Z-0.403 F1556.519
G1 X105.471 Y-21.409 Z-0.404 F1588.527
G1 X105.307 Y-21.431 Z-0.383 F1536.054
G1 X105.208 Y-21.440 Z-0.374 F1566.103
G1 X105.163 Y-21.443 Z-0.376 F1596.659
G1 X104.990 Y-21.444 Z-0.357 F1546.696
G1 X104.899 Y-21.441 Z-0.352 F1576.120
G1 X104.860 Y-21.439 Z-0.353 F1596.060
G1 X104.656 Y-21.414 Z-0.334 F1552.506
G1 X104.577 Y-21.403 Z-0.329 F1578.351
G1 X104.566 Y-21.400 Z-0.328 F1550.990
G1 X104.338 Y-21.342 Z-0.309 F1555.927
G1 X104.307 Y-21.334 Z-0.305 F1566.236
G1 X104.246 Y-21.311 Z-0.298 F1542.082
G1 X104.049 Y-21.231 Z-0.284 F1563.398
G1 X104.033 Y-21.223 Z-0.280 F1509.236
G1 X103.947 Y-21.179 Z-0.268 F1541.135
G1 X103.799 Y-21.094 Z-0.259 F1571.816
G1 X103.751 Y-21.062 Z-0.250 F1518.640
G1 X103.674 Y-21.008 Z-0.240 F1550.553
G1 X103.554 Y-20.916 Z-0.236 F1582.758
G1 X103.490 Y-20.861 Z-0.224 F1532.957
G1 X103.429 Y-20.806 Z-0.217 F1562.954
G1 X103.318 Y-20.696 Z-0.215 F1589.907
G1 X103.258 Y-20.631 Z-0.205 F1545.857
G1 X103.208 Y-20.573 Z-0.201 F1572.974
G1 X103.091 Y-20.428 Z-0.202 F1599.183
G1 X103.049 Y-20.371 Z-0.196 F1559.082
G1 X103.011 Y-20.316 Z-0.194 F1585.520
G1 X102.900 Y-20.147 Z-0.197 F1592.449
G1 X102.863 Y-20.086 Z-0.192 F1570.855
G1 X102.824 Y-20.014 Z-0.194 F1598.132
G1 X102.739 Y-19.850 Z-0.203 F1570.317
G1 X102.613 Y-19.574 Z-0.199 F1593.460
G1 X102.599 Y-19.543 Z-0.201 F1594.072
G1 X102.581 Y-19.492 Z-0.201 F1599.058
G1 X102.492 Y-19.220 Z-0.211 F1579.192
G1 X102.430 Y-19.004 Z-0.204 F1584.351
G1 X102.411 Y-18.927 Z-0.207 F1585.978
G1 X102.402 Y-18.885 Z-0.210 F1558.919
G1 X102.340 Y-18.534 Z-0.214 F1593.428
G1 X102.321 Y-18.394 Z-0.207 F1574.091
G1 X102.314 Y-18.324 Z-0.209 F1599.278
G1 X102.302 Y-18.169 Z-0.214 F1575.896
G1 X102.286 Y-17.795 Z-0.208 F1591.702
G1 X102.286 Y-17.745 Z-0.203 F1549.316
G1 X102.290 Y-17.668 Z-0.202 F1577.496
G1 X102.318 Y-17.241 Z-0.203 F1595.962
G1 X102.325 Y-17.188 Z-0.198 F1550.290
G1 X102.339 Y-17.105 Z-0.196 F1580.222
G1 X102.424 Y-16.684 Z-0.203 F1589.346
G1 X102.439 Y-16.628 Z-0.198 F1559.214
G1 X102.463 Y-16.548 Z-0.199 F1589.684
G1 X102.609 Y-16.115 Z-0.214 F1580.642
G1 X102.625 Y-16.073 Z-0.212 F1572.997
G1 X102.657 Y-16.001 Z-0.214 F1599.348
G1 X102.878 Y-15.532 Z-0.240 F1572.000
G1 X102.881 Y-15.527 Z-0.240 F1600.000
G1 X102.911 Y-15.472 Z-0.245 F1587.021
G1 X103.119 Y-15.119 Z-0.270 F1565.124
G1 X103.131 Y-15.099 Z-0.274 F1556.800
G1 X103.150 Y-15.071 Z-0.276 F1571.336
G1 X103.396 Y-14.720 Z-0.307 F1560.233
G1 X103.413 Y-14.697 Z-0.313 F1550.784
G1 X103.428 Y-14.678 Z-0.314 F1567.896
G1 X103.716 Y-14.329 Z-0.348 F1559.477
G1 X103.718 Y-14.326 Z-0.351 F1552.680
G1 X103.748 Y-14.293 Z-0.353 F1578.267
G1 X104.065 Y-13.962 Z-0.383 F1563.453
G1 X104.079 Y-13.948 Z-0.385 F1557.988
G1 X104.943 Y-13.020 Z-1.721 F1187.168
G0 Z5.000
(Finish operation: Vcarve005)
(Begin operation: Vcarve006)
(Path: Vcarve006)
(starting)
G0 Z3.000
G0 X121.497 Y-7.770 Z3.000
G1 X121.497 Y-7.770 Z0.866 F801.000
G1 X121.691 Y-7.769 Z0.537 F1072.360
G1 X121.510 Y-7.836 Z0.865 F1071.542
G0 Z3.000
G0 X121.510 Y-7.699 Z3.000
G1 X121.510 Y-7.699 Z0.864 F801.000
G1 X121.701 Y-7.767 Z0.520 F1072.564
G1 X121.691 Y-7.769 Z0.537 F1081.381
G0 Z3.000
G0 X121.701 Y-7.767 Z3.000
G1 X121.701 Y-7.767 Z0.520 F801.000
G1 X121.756 Y-7.766 Z0.437 F1098.087
G1 X121.551 Y-7.624 Z0.864 F1070.431
G0 Z3.000
G0 X121.756 Y-7.766 Z3.000
G1 X121.756 Y-7.766 Z0.437 F801.000
G1 X121.860 Y-7.776 Z0.289 F1113.411
G1 X121.940 Y-7.789 Z0.180 F1124.227
G1 X122.461 Y-7.407 Z0.054 F1502.285
G1 X123.284 Y-6.825 Z-0.113 F1516.482
G1 X123.288 Y-6.822 Z-0.117 F1518.845
G1 X123.422 Y-6.728 Z-0.142 F1512.673
G1 X123.427 Y-6.724 Z-0.143 F1513.557
G1 X123.944 Y-6.358 Z-0.259 F1507.788
G1 X123.953 Y-6.351 Z-0.264 F1505.775
G1 X125.283 Y-5.424 Z-0.582 F1500.605
G1 X125.309 Y-5.406 Z-0.588 F1504.260
G1 X126.902 Y-4.288 Z-0.948 F1506.945
G1 X126.911 Y-4.281 Z-0.951 F1505.261
G1 X127.361 Y-3.962 Z-1.058 F1502.533
G1 X127.397 Y-3.971 Z-1.015 F1160.618
G1 X127.401 Y-3.972 Z-1.011 F1164.025
G1 X127.402 Y-3.972 Z-1.010 F1165.408
G1 X127.775 Y-4.060 Z-0.564 F1162.685
G1 X127.859 Y-4.078 Z-0.467 F1168.376
G1 X128.190 Y-4.141 Z-0.093 F1174.131
G1 X128.256 Y-4.152 Z-0.021 F1182.016
G1 X128.302 Y-4.159 Z0.028 F1190.232
G1 X128.320 Y-4.162 Z0.045 F1192.385
G1 X128.623 Y-4.209 Z0.360 F1195.380
G1 X128.779 Y-4.239 Z0.528 F1185.404
G1 X128.842 Y-4.249 Z0.598 F1176.350
G1 X128.973 Y-4.164 Z0.865 F1069.676
G0 Z3.000
G0 X129.019 Y-4.264 Z3.000
G1 X129.019 Y-4.264 Z0.865 F801.000
G1 X128.891 Y-4.264 Z0.663 F1087.990
G0 Z3.000
G0 X128.842 Y-4.249 Z3.000
G1 X128.842 Y-4.249 Z0.598 F801.000
G1 X128.891 Y-4.264 Z0.664 F1136.585
G1 X128.982 Y-4.346 Z0.864 F1078.507
G0 Z3.000
G0 X127.361 Y-3.962 Z3.000
G1 X127.361 Y-3.962 Z-1.059 F801.000
G1 X127.375 Y-3.865 Z-0.950 F1174.552
G1 X127.463 Y-3.339 Z-0.370 F1180.130
G1 X127.467 Y-3.318 Z-0.348 F1181.781
G1 X127.576 Y-2.609 Z0.418 F1183.745
G0 Z3.000
G0 X127.578 Y-2.562 Z3.000
G1 X127.578 Y-2.562 Z0.481 F801.000
G1 X127.576 Y-2.602 Z0.426 F1123.153
G1 X127.576 Y-2.609 Z0.417 F1135.121
G1 X127.780 Y-2.442 Z0.866 F1070.733
G0 Z3.000
G0 X127.684 Y-2.360 Z3.000
G1 X127.684 Y-2.360 Z0.866 F801.000
G1 X127.578 Y-2.562 Z0.481 F1072.953
G1 X127.573 Y-2.536 Z0.524 F1088.991
G0 Z3.000
G0 X127.492 Y-2.350 Z3.000
G1 X127.492 Y-2.350 Z0.864 F801.000
G1 X127.573 Y-2.536 Z0.524 F1074.495
G1 X127.579 Y-2.332 Z0.865 F1075.378
G0 Z3.000
G0 X121.940 Y-7.789 Z3.000
G1 X121.940 Y-7.789 Z0.177 F801.000
G1 X121.927 Y-7.837 Z0.238 F1149.658
G1 X121.897 Y-7.983 Z0.432 F1134.758
G1 X121.890 Y-8.022 Z0.482 F1140.988
G1 X121.885 Y-8.054 Z0.521 F1147.968
G0 Z3.000
G0 X121.886 Y-8.092 Z3.000
G1 X121.886 Y-8.092 Z0.576 F801.000
G1 X121.888 Y-8.102 Z0.592 F1087.778
G0 Z3.000
G0 X121.956 Y-8.248 Z3.000
G1 X121.956 Y-8.248 Z0.865 F801.000
G1 X121.888 Y-8.102 Z0.592 F1071.878
G1 X121.889 Y-8.264 Z0.865 F1073.114
G0 Z3.000
G0 X121.819 Y-8.248 Z3.000
G1 X121.819 Y-8.248 Z0.866 F801.000
G1 X121.886 Y-8.092 Z0.576 F1070.989
G1 X121.885 Y-8.054 Z0.522 F1113.870
G1 X121.747 Y-8.200 Z0.866 F1070.574
G0 Z5.000
(Finish operation: Vcarve006)
(Begin operation: Vcarve007)
(Path: Vcarve007)
(starting)
G0 Z3.000
G0 X122.330 Y-12.538 Z3.000
G1 X122.330 Y-12.538 Z0.864 F801.000
G1 X122.417 Y-12.492 Z0.734 F1130.304
G1 X122.344 Y-12.465 Z0.865 F1074.358
G0 Z3.000
G0 X122.417 Y-12.492 Z3.000
G1 X122.417 Y-12.492 Z0.734 F801.000
G1 X122.482 Y-12.470 Z0.654 F1162.607
G1 X122.385 Y-12.392 Z0.865 F1073.093
G0 Z3.000
G0 X122.482 Y-12.470 Z3.000
G1 X122.482 Y-12.470 Z0.654 F801.000
G1 X122.684 Y-12.438 Z0.464 F1218.222
G1 X122.549 Y-12.246 Z0.864 F1070.546
G0 Z3.000
G0 X122.684 Y-12.438 Z3.000
G1 X122.684 Y-12.438 Z0.464 F801.000
G1 X123.584 Y-12.400 Z-0.220 F1269.719
G1 X123.633 Y-12.399 Z-0.260 F1261.422
G1 X123.669 Y-12.398 Z-0.289 F1241.978
G1 X123.838 Y-12.406 Z-0.453 F1211.470
G1 X124.015 Y-12.422 Z-0.634 F1193.936
G1 X124.199 Y-12.446 Z-0.836 F1180.490
G1 X124.388 Y-12.479 Z-1.051 F1169.049
G1 X124.622 Y-12.528 Z-1.335 F1158.345
G1 X124.773 Y-12.566 Z-1.525 F1149.126
G1 X124.787 Y-12.543 Z-1.503 F1254.803
G1 X124.812 Y-12.501 Z-1.464 F1258.370
G1 X125.176 Y-11.876 Z-0.898 F1262.262
G1 X125.209 Y-11.822 Z-0.853 F1269.307
G1 X125.239 Y-11.773 Z-0.808 F1276.442
G1 X125.265 Y-11.729 Z-0.771 F1282.830
G1 X125.739 Y-10.924 Z-0.117 F1289.301
G1 X125.954 Y-10.563 Z0.181 F1286.447
G1 X126.116 Y-10.318 Z0.412 F1260.977
G1 X126.007 Y-10.077 Z0.864 F1070.294
G0 Z3.000
G0 X126.207 Y-10.009 Z3.000
G1 X126.207 Y-10.009 Z0.865 F801.000
G1 X126.235 Y-10.161 Z0.602 F1071.279
G1 X126.263 Y-10.129 Z0.656 F1142.209
G1 X126.381 Y-10.087 Z0.866 F1073.369
G0 Z3.000
G0 X126.340 Y-10.023 Z3.000
G1 X126.340 Y-10.023 Z0.866 F801.000
G1 X126.267 Y-10.121 Z0.668 F1082.125
G1 X126.281 Y-10.006 Z0.866 F1071.263
G0 Z3.000
G0 X126.267 Y-10.121 Z3.000
G1 X126.267 Y-10.121 Z0.668 F801.000
G1 X126.263 Y-10.129 Z0.655 F1099.057
G0 Z3.000
G0 X126.235 Y-10.161 Z3.000
G1 X126.235 Y-10.161 Z0.600 F801.000
G1 X126.208 Y-10.205 Z0.544 F1178.291
G0 Z3.000
G0 X126.116 Y-10.318 Z3.000
G1 X126.116 Y-10.318 Z0.411 F801.000
G1 X126.208 Y-10.205 Z0.546 F1221.033
G1 X126.394 Y-10.205 Z0.864 F1068.872
G0 Z3.000
G0 X124.773 Y-12.566 Z3.000
G1 X124.773 Y-12.566 Z-1.528 F801.000
G1 X124.784 Y-12.608 Z-1.506 F1359.312
G1 X124.819 Y-12.774 Z-1.425 F1379.873
G1 X124.822 Y-12.792 Z-1.420 F1402.082
G1 X124.832 Y-12.845 Z-1.399 F1409.134
G1 X124.851 Y-12.935 Z-1.364 F1416.816
G1 X124.886 Y-13.159 Z-1.295 F1450.715
G1 X124.926 Y-13.514 Z-1.215 F1486.903
G1 X124.940 Y-13.722 Z-1.182 F1523.446
G1 X124.942 Y-13.790 Z-1.178 F1561.569
G1 X124.942 Y-13.813 Z-1.177 F1566.162
G1 X124.953 Y-14.135 Z-1.158 F1570.178
G1 X124.955 Y-14.214 Z-1.153 F1584.593
G1 X124.954 Y-26.461 Z-1.155 F1600.000
G1 X124.954 Y-26.709 Z-1.200 F1508.825
G1 X124.954 Y-26.726 Z-1.204 F1422.277
G1 X124.953 Y-26.904 Z-1.273 F1418.536
G1 X124.937 Y-26.916 Z-1.250 F1181.964
G1 X124.916 Y-26.934 Z-1.221 F1186.076
G1 X124.591 Y-27.161 Z-0.846 F1215.535
G1 X124.353 Y-27.299 Z-0.621 F1250.000
G1 X124.250 Y-27.355 Z-0.528 F1264.549
G1 X124.211 Y-27.374 Z-0.501 F1294.649
G1 X124.196 Y-27.382 Z-0.488 F1311.960
G1 X123.895 Y-27.529 Z-0.278 F1313.228
G1 X123.821 Y-27.563 Z-0.228 F1331.660
G1 X123.444 Y-27.721 Z-0.012 F1350.166
G1 X123.439 Y-27.722 Z-0.008 F1354.612
G1 X123.406 Y-27.736 Z0.010 F1353.041
G1 X123.099 Y-27.859 Z0.188 F1348.098
G1 X122.877 Y-27.964 Z0.344 F1311.647
G1 X122.877 Y-27.964 Z0.345 F1230.903
G0 Z3.000
G0 X122.764 Y-28.023 Z3.000
G1 X122.764 Y-28.023 Z0.460 F801.000
G1 X122.722 Y-28.040 Z0.507 F1189.087
G0 Z3.000
G0 X122.698 Y-28.053 Z3.000
G1 X122.698 Y-28.053 Z0.543 F801.000
G1 X122.722 Y-28.040 Z0.509 F1146.297
G1 X122.530 Y-27.958 Z0.865 F1070.455
G0 Z3.000
G0 X122.510 Y-28.033 Z3.000
G1 X122.510 Y-28.033 Z0.865 F801.000
G1 X122.698 Y-28.053 Z0.543 F1071.729
G1 X122.692 Y-28.058 Z0.551 F1116.761
G1 X122.613 Y-28.224 Z0.865 F1070.813
G0 Z3.000
G0 X122.542 Y-28.173 Z3.000
G1 X122.542 Y-28.173 Z0.865 F801.000
G1 X122.680 Y-28.065 Z0.575 F1077.369
G1 X122.513 Y-28.101 Z0.866 F1070.859
G0 Z3.000
G0 X122.680 Y-28.065 Z3.000
G1 X122.680 Y-28.065 Z0.575 F801.000
G1 X122.692 Y-28.058 Z0.553 F1092.102
G0 Z3.000
G0 X122.725 Y-28.255 Z3.000
G1 X122.725 Y-28.255 Z0.865 F801.000
G1 X122.764 Y-28.023 Z0.460 F1068.465
G1 X122.877 Y-27.964 Z0.347 F1227.446
G1 X122.636 Y-27.782 Z0.865 F1069.415
G0 Z3.000
G0 X124.953 Y-26.904 Z3.000
G1 X124.953 Y-26.904 Z-1.272 F801.000
G1 X124.960 Y-26.909 Z-1.262 F1179.281
G1 X124.976 Y-26.922 Z-1.241 F1181.310
G1 X125.302 Y-27.151 Z-0.855 F1208.250
G1 X125.494 Y-27.264 Z-0.665 F1240.744
G1 X125.528 Y-27.284 Z-0.631 F1244.836
G1 X125.545 Y-27.294 Z-0.616 F1249.659
G1 X125.701 Y-27.381 Z-0.482 F1272.828
G1 X125.994 Y-27.523 Z-0.264 F1299.646
G1 X126.004 Y-27.528 Z-0.257 F1302.277
G1 X126.012 Y-27.532 Z-0.250 F1304.599
G1 X126.080 Y-27.564 Z-0.206 F1328.692
G1 X126.451 Y-27.723 Z0.014 F1346.661
G1 X126.470 Y-27.731 Z0.025 F1353.191
G1 X126.815 Y-27.870 Z0.215 F1359.504
G1 X127.018 Y-27.966 Z0.349 F1325.477
G1 X127.044 Y-27.976 Z0.369 F1283.302
G0 Z3.000
G0 X127.137 Y-28.023 Z3.000
G1 X127.137 Y-28.023 Z0.461 F801.000
G1 X127.199 Y-28.047 Z0.528 F1195.556
G1 X127.215 Y-28.056 Z0.550 F1152.440
G1 X127.292 Y-28.224 Z0.864 F1070.751
G0 Z3.000
G0 X127.366 Y-28.173 Z3.000
G1 X127.366 Y-28.173 Z0.865 F801.000
G1 X127.234 Y-28.065 Z0.580 F1076.013
G1 X127.397 Y-28.101 Z0.865 F1071.063
G0 Z3.000
G0 X127.399 Y-28.038 Z3.000
G1 X127.399 Y-28.038 Z0.865 F801.000
G1 X127.224 Y-28.059 Z0.563 F1070.079
G1 X127.215 Y-28.056 Z0.549 F1114.602
G0 Z3.000
