(Exported by FreeCAD)
(Post Processor: grbl_post)
(Output Time:2023-07-06 10:54:23.136746)
(Begin preamble)
G17 G90
G21
(Begin operation: G54)
(Path: G54)
G54
G0 Z5.000
(Finish operation: G54)
(Begin operation: TC: 60 Deg. V-Bit)
(Path: TC: 60 Deg. V-Bit)
(TC: 60 Deg. V-Bit)
(Begin toolchange)
( M6 T5 )
M3 S20000
(Finish operation: TC: 60 Deg. V-Bit)
(Begin operation: Deburr)
(Path: Deburr)
(Deburr)
G0 Z5.000
G0 X5.000 Y-1.366
G0 Z3.000
G1 X5.000 Y-1.366 Z-0.500 F1000.000
G2 X-1.366 Y5.000 Z-0.500 I-0.000 J6.366 K0.000 F2000.000
G1 X-1.366 Y100.000 Z-0.500 F2000.000
G2 X5.000 Y106.366 Z-0.500 I6.366 J0.000 K0.000 F2000.000
G1 X100.000 Y106.366 Z-0.500 F2000.000
G2 X106.366 Y100.000 Z-0.500 I0.000 J-6.366 K0.000 F2000.000
G1 X106.366 Y5.000 Z-0.500 F2000.000
G2 X100.000 Y-1.366 Z-0.500 I-6.366 J-0.000 K0.000 F2000.000
G1 X5.000 Y-1.366 Z-0.500 F2000.000
G0 Z5.000
G0 Z5.000
G0 X11.366 Y11.366
G0 Z3.000
G1 X11.366 Y11.366 Z-0.500 F1000.000
G1 X33.634 Y11.366 Z-0.500 F2000.000
G1 X33.634 Y33.634 Z-0.500 F2000.000
G1 X11.366 Y33.634 Z-0.500 F2000.000
G1 X11.366 Y11.366 Z-0.500 F2000.000
G0 Z5.000
G0 Z5.000
G0 X41.366 Y11.366
G0 Z3.000
G1 X41.366 Y11.366 Z-0.500 F1000.000
G1 X63.634 Y11.366 Z-0.500 F2000.000
G1 X63.634 Y33.634 Z-0.500 F2000.000
G1 X41.366 Y33.634 Z-0.500 F2000.000
G1 X41.366 Y11.366 Z-0.500 F2000.000
G0 Z5.000
G0 Z5.000
G0 X71.366 Y11.366
G0 Z3.000
G1 X71.366 Y11.366 Z-0.500 F1000.000
G1 X93.634 Y11.366 Z-0.500 F2000.000
G1 X93.634 Y33.634 Z-0.500 F2000.000
G1 X71.366 Y33.634 Z-0.500 F2000.000
G1 X71.366 Y11.366 Z-0.500 F2000.000
G0 Z5.000
G0 Z5.000
G0 X11.366 Y41.366
G0 Z3.000
G1 X11.366 Y41.366 Z-0.500 F1000.000
G1 X33.634 Y41.366 Z-0.500 F2000.000
G1 X33.634 Y63.634 Z-0.500 F2000.000
G1 X11.366 Y63.634 Z-0.500 F2000.000
G1 X11.366 Y41.366 Z-0.500 F2000.000
G0 Z5.000
G0 Z5.000
G0 X11.366 Y71.366
G0 Z3.000
G1 X11.366 Y71.366 Z-0.500 F1000.000
G1 X33.634 Y71.366 Z-0.500 F2000.000
G1 X33.634 Y93.634 Z-0.500 F2000.000
G1 X11.366 Y93.634 Z-0.500 F2000.000
G1 X11.366 Y71.366 Z-0.500 F2000.000
G0 Z5.000
G0 Z5.000
G0 X41.366 Y41.366
G0 Z3.000
G1 X41.366 Y41.366 Z-0.500 F1000.000
G1 X63.634 Y41.366 Z-0.500 F2000.000
G1 X63.634 Y63.634 Z-0.500 F2000.000
G1 X41.366 Y63.634 Z-0.500 F2000.000
G1 X41.366 Y41.366 Z-0.500 F2000.000
G0 Z5.000
G0 Z5.000
G0 X71.366 Y41.366
G0 Z3.000
G1 X71.366 Y41.366 Z-0.500 F1000.000
G1 X93.634 Y41.366 Z-0.500 F2000.000
G1 X93.634 Y63.634 Z-0.500 F2000.000
G1 X71.366 Y63.634 Z-0.500 F2000.000
G1 X71.366 Y41.366 Z-0.500 F2000.000
G0 Z5.000
G0 Z5.000
G0 X41.366 Y71.366
G0 Z3.000
G1 X41.366 Y71.366 Z-0.500 F1000.000
G1 X63.634 Y71.366 Z-0.500 F2000.000
G1 X63.634 Y93.634 Z-0.500 F2000.000
G1 X41.366 Y93.634 Z-0.500 F2000.000
G1 X41.366 Y71.366 Z-0.500 F2000.000
G0 Z5.000
G0 Z5.000
G0 X71.366 Y71.366
G0 Z3.000
G1 X71.366 Y71.366 Z-0.500 F1000.000
G1 X93.634 Y71.366 Z-0.500 F2000.000
G1 X93.634 Y93.634 Z-0.500 F2000.000
G1 X71.366 Y93.634 Z-0.500 F2000.000
G1 X71.366 Y71.366 Z-0.500 F2000.000
G0 Z5.000
G0 Z5.000
(Finish operation: Deburr)
(Begin postamble)
M5
G17 G90
M2
