(Exported by FreeCAD)
(Post Processor: grbl_post)
(Output Time:2023-07-06 10:54:48.014093)
(Begin preamble)
G17 G90
G21
(Begin operation: G54)
(Path: G54)
G54
G0 Z5.000
(Finish operation: G54)
(Begin operation: TC: 1_4_in_Endmill001)
(Path: TC: 1_4_in_Endmill001)
(TC: 1_4_in_Endmill001)
(Begin toolchange)
( M6 T12 )
M3 S20000
(Finish operation: TC: 1_4_in_Endmill001)
(Begin operation: DressupTag)
(Path: DressupTag)
G0 Z5.000
G0 X105.778 Y105.779 Z5.000
G0 X105.778 Y105.779 Z3.000
G1 X105.778 Y105.779 Z-6.350 F1000.000
G2 X108.169 Y100.192 Z-6.350 I-5.784 J-5.781 K0.000 F2000.000
G1 X108.175 Y5.000 Z-6.350 F2000.000
G2 X100.192 Y-3.169 Z-6.350 I-8.178 J0.006 K0.000 F2000.000
G1 X5.000 Y-3.175 Z-6.350 F2000.000
G2 X-3.169 Y4.808 Z-6.350 I0.006 J8.178 K0.000 F2000.000
G1 X-3.175 Y100.000 Z-6.350 F2000.000
G2 X4.808 Y108.169 Z-6.350 I8.178 J-0.006 K0.000 F2000.000
G1 X100.000 Y108.175 Z-6.350 F2000.000
G2 X105.778 Y105.779 Z-6.350 I-0.006 J-8.178 K0.000 F2000.000
G1 X105.778 Y105.779 Z-12.700 F1000.000
G2 X108.169 Y100.192 Z-12.700 I-5.784 J-5.781 K0.000 F2000.000
G1 X108.172 Y55.203 Z-12.700 F2000.000
G1 X108.172 Y52.596 Z-10.066 F1496.833
G1 X108.172 Y49.988 Z-12.700 F1496.833
G1 X108.175 Y5.000 Z-12.700 F2000.000
G2 X100.192 Y-3.169 Z-12.700 I-8.178 J0.006 K0.000 F2000.000
G1 X55.203 Y-3.172 Z-12.700 F2000.000
G1 X52.596 Y-3.172 Z-10.066 F1496.833
G1 X49.988 Y-3.172 Z-12.700 F1496.833
G1 X5.000 Y-3.175 Z-12.700 F2000.000
G2 X-3.169 Y4.808 Z-12.700 I0.006 J8.178 K0.000 F2000.000
G1 X-3.172 Y49.797 Z-12.700 F2000.000
G1 X-3.172 Y52.404 Z-10.066 F1496.833
G1 X-3.172 Y55.012 Z-12.700 F1496.833
G1 X-3.175 Y100.000 Z-12.700 F2000.000
G2 X4.808 Y108.169 Z-12.700 I8.178 J-0.006 K0.000 F2000.000
G1 X49.797 Y108.172 Z-12.700 F2000.000
G1 X52.404 Y108.172 Z-10.066 F1496.833
G1 X55.012 Y108.172 Z-12.700 F1496.833
G1 X100.000 Y108.175 Z-12.700 F2000.000
G2 X105.778 Y105.779 Z-12.700 I-0.006 J-8.178 K0.000 F2000.000
G1 X105.778 Y105.779 Z-18.000 F1000.000
G2 X108.169 Y100.192 Z-18.000 I-5.784 J-5.781 K0.000 F2000.000
G1 X108.172 Y60.451 Z-18.000 F2000.000
G1 X108.172 Y52.596 Z-10.066 F1496.833
G1 X108.173 Y44.741 Z-18.000 F1496.833
G1 X108.175 Y5.000 Z-18.000 F2000.000
G2 X100.192 Y-3.169 Z-18.000 I-8.178 J0.006 K0.000 F2000.000
G1 X60.451 Y-3.172 Z-18.000 F2000.000
G1 X52.596 Y-3.172 Z-10.066 F1496.833
G1 X44.741 Y-3.173 Z-18.000 F1496.833
G1 X5.000 Y-3.175 Z-18.000 F2000.000
G2 X-3.169 Y4.808 Z-18.000 I0.006 J8.178 K0.000 F2000.000
G1 X-3.172 Y44.549 Z-18.000 F2000.000
G1 X-3.172 Y52.404 Z-10.066 F1496.833
G1 X-3.173 Y60.259 Z-18.000 F1496.833
G1 X-3.175 Y100.000 Z-18.000 F2000.000
G2 X4.808 Y108.169 Z-18.000 I8.178 J-0.006 K0.000 F2000.000
G1 X44.549 Y108.172 Z-18.000 F2000.000
G1 X52.404 Y108.172 Z-10.066 F1496.833
G1 X60.259 Y108.173 Z-18.000 F1496.833
G1 X100.000 Y108.175 Z-18.000 F2000.000
G2 X105.778 Y105.779 Z-18.000 I-0.006 J-8.178 K0.000 F2000.000
G0 X105.778 Y105.779 Z5.000
(Finish operation: DressupTag)
(Begin postamble)
M5
G17 G90
M2
