(Exported by FreeCAD)
(Post Processor: grbl_post)
(Output Time:2023-07-06 10:53:48.618877)
(Begin preamble)
G17 G90
G21
(Begin operation: G54)
(Path: G54)
G54
G0 Z10.000
(Finish operation: G54)
(Begin operation: TC: 1_8_in_Endmill)
(Path: TC: 1_8_in_Endmill)
(TC: 1_8_in_Endmill)
(Begin toolchange)
( M6 T10 )
M3 S20019
(Finish operation: TC: 1_8_in_Endmill)
(Begin operation: Pocket_Shape)
(Path: Pocket_Shape)
(Pocket_Shape)
G0 Z10.000
G0 X33.410 Y33.410
G0 Z5.000
G1 X33.410 Y33.410 Z-3.180 F2001.000
G1 X33.410 Y11.590 Z-3.180 F4003.000
G1 X11.590 Y11.590 Z-3.180 F4003.000
G1 X11.590 Y33.410 Z-3.180 F4003.000
G1 X33.410 Y33.410 Z-3.180 F4003.000
G0 Z10.000
G0 X12.507 Z10.000
G0 X12.507 Z5.000
G1 X12.507 Y33.410 Z-3.180 F2001.000
G1 X11.590 Y32.493 Z-3.180 F4003.000
G1 X11.590 Y33.410 Z-3.180 F4003.000
G1 X12.507 Y33.410 Z-3.180 F4003.000
G1 X14.755 Y33.410 Z-3.180 F4003.000
G1 X11.590 Y30.245 Z-3.180 F4003.000
G1 X11.590 Y27.996 Z-3.180 F4003.000
G1 X17.004 Y33.410 Z-3.180 F4003.000
G1 X19.252 Y33.410 Z-3.180 F4003.000
G1 X11.590 Y25.748 Z-3.180 F4003.000
G1 X11.590 Y23.499 Z-3.180 F4003.000
G1 X21.501 Y33.410 Z-3.180 F4003.000
G1 X23.750 Y33.410 Z-3.180 F4003.000
G1 X11.590 Y21.250 Z-3.180 F4003.000
G1 X11.590 Y19.002 Z-3.180 F4003.000
G1 X25.998 Y33.410 Z-3.180 F4003.000
G1 X28.247 Y33.410 Z-3.180 F4003.000
G1 X11.590 Y16.753 Z-3.180 F4003.000
G1 X11.590 Y14.505 Z-3.180 F4003.000
G1 X30.495 Y33.410 Z-3.180 F4003.000
G1 X32.744 Y33.410 Z-3.180 F4003.000
G1 X11.590 Y12.256 Z-3.180 F4003.000
G1 X11.590 Y11.590 Z-3.180 F4003.000
G1 X13.173 Y11.590 Z-3.180 F4003.000
G1 X33.410 Y31.827 Z-3.180 F4003.000
G1 X33.410 Y29.579 Z-3.180 F4003.000
G1 X15.421 Y11.590 Z-3.180 F4003.000
G1 X17.670 Y11.590 Z-3.180 F4003.000
G1 X33.410 Y27.330 Z-3.180 F4003.000
G1 X33.410 Y25.082 Z-3.180 F4003.000
G1 X19.918 Y11.590 Z-3.180 F4003.000
G1 X22.167 Y11.590 Z-3.180 F4003.000
G1 X33.410 Y22.833 Z-3.180 F4003.000
G1 X33.410 Y20.584 Z-3.180 F4003.000
G1 X24.416 Y11.590 Z-3.180 F4003.000
G1 X26.664 Y11.590 Z-3.180 F4003.000
G1 X33.410 Y18.336 Z-3.180 F4003.000
G1 X33.410 Y16.087 Z-3.180 F4003.000
G1 X28.913 Y11.590 Z-3.180 F4003.000
G1 X31.161 Y11.590 Z-3.180 F4003.000
G1 X33.410 Y13.839 Z-3.180 F4003.000
G1 X33.410 Y11.590 Z-3.180 F4003.000
G1 X33.410 Y11.590 Z-5.000 F2001.000
G1 X33.410 Y13.839 Z-5.000 F4003.000
G1 X31.161 Y11.590 Z-5.000 F4003.000
G1 X28.913 Y11.590 Z-5.000 F4003.000
G1 X33.410 Y16.087 Z-5.000 F4003.000
G1 X33.410 Y18.336 Z-5.000 F4003.000
G1 X26.664 Y11.590 Z-5.000 F4003.000
G1 X24.416 Y11.590 Z-5.000 F4003.000
G1 X33.410 Y20.584 Z-5.000 F4003.000
G1 X33.410 Y22.833 Z-5.000 F4003.000
G1 X22.167 Y11.590 Z-5.000 F4003.000
G1 X19.918 Y11.590 Z-5.000 F4003.000
G1 X33.410 Y25.082 Z-5.000 F4003.000
G1 X33.410 Y27.330 Z-5.000 F4003.000
G1 X17.670 Y11.590 Z-5.000 F4003.000
G1 X15.421 Y11.590 Z-5.000 F4003.000
G1 X33.410 Y29.579 Z-5.000 F4003.000
G1 X33.410 Y31.827 Z-5.000 F4003.000
G1 X13.173 Y11.590 Z-5.000 F4003.000
G1 X11.590 Y11.590 Z-5.000 F4003.000
G1 X11.590 Y12.256 Z-5.000 F4003.000
G1 X32.744 Y33.410 Z-5.000 F4003.000
G1 X30.495 Y33.410 Z-5.000 F4003.000
G1 X11.590 Y14.505 Z-5.000 F4003.000
G1 X11.590 Y16.753 Z-5.000 F4003.000
G1 X28.247 Y33.410 Z-5.000 F4003.000
G1 X25.998 Y33.410 Z-5.000 F4003.000
G1 X11.590 Y19.002 Z-5.000 F4003.000
G1 X11.590 Y21.250 Z-5.000 F4003.000
G1 X23.750 Y33.410 Z-5.000 F4003.000
G1 X21.501 Y33.410 Z-5.000 F4003.000
G1 X11.590 Y23.499 Z-5.000 F4003.000
G1 X11.590 Y25.748 Z-5.000 F4003.000
G1 X19.252 Y33.410 Z-5.000 F4003.000
G1 X17.004 Y33.410 Z-5.000 F4003.000
G1 X11.590 Y27.996 Z-5.000 F4003.000
G1 X11.590 Y30.245 Z-5.000 F4003.000
G1 X14.755 Y33.410 Z-5.000 F4003.000
G1 X12.507 Y33.410 Z-5.000 F4003.000
G1 X11.590 Y33.410 Z-5.000 F4003.000
G1 X11.590 Y32.493 Z-5.000 F4003.000
G1 X12.507 Y33.410 Z-5.000 F4003.000
G1 X12.507 Y33.410 Z-5.000 F2001.000
G1 X33.410 Y33.410 Z-5.000 F4003.000
G1 X33.410 Y11.590 Z-5.000 F4003.000
G1 X11.590 Y11.590 Z-5.000 F4003.000
G1 X11.590 Y33.410 Z-5.000 F4003.000
G1 X12.507 Y33.410 Z-5.000 F4003.000
G0 Z10.000
G0 Z10.000
G0 X12.507 Y33.410
G0 Y41.590
G0 Y41.590 Z5.000
G1 X12.507 Y41.590 Z-3.180 F2001.000
G1 X11.590 Y41.590 Z-3.180 F4003.000
G1 X11.590 Y63.410 Z-3.180 F4003.000
G1 X33.410 Y63.410 Z-3.180 F4003.000
G1 X33.410 Y41.590 Z-3.180 F4003.000
G1 X12.507 Y41.590 Z-3.180 F4003.000
G0 Z10.000
G0 X33.410 Y41.590 Z10.000
G0 X33.410 Y41.590 Z5.000
G1 X33.410 Y41.590 Z-3.180 F2001.000
G1 X33.410 Y43.839 Z-3.180 F4003.000
G1 X31.161 Y41.590 Z-3.180 F4003.000
G1 X28.913 Y41.590 Z-3.180 F4003.000
G1 X33.410 Y46.087 Z-3.180 F4003.000
G1 X33.410 Y48.336 Z-3.180 F4003.000
G1 X26.664 Y41.590 Z-3.180 F4003.000
G1 X24.416 Y41.590 Z-3.180 F4003.000
G1 X33.410 Y50.584 Z-3.180 F4003.000
G1 X33.410 Y52.833 Z-3.180 F4003.000
G1 X22.167 Y41.590 Z-3.180 F4003.000
G1 X19.918 Y41.590 Z-3.180 F4003.000
G1 X33.410 Y55.082 Z-3.180 F4003.000
G1 X33.410 Y57.330 Z-3.180 F4003.000
G1 X17.670 Y41.590 Z-3.180 F4003.000
G1 X15.421 Y41.590 Z-3.180 F4003.000
G1 X33.410 Y59.579 Z-3.180 F4003.000
G1 X33.410 Y61.827 Z-3.180 F4003.000
G1 X13.173 Y41.590 Z-3.180 F4003.000
G1 X11.590 Y41.590 Z-3.180 F4003.000
G1 X11.590 Y42.256 Z-3.180 F4003.000
G1 X32.744 Y63.410 Z-3.180 F4003.000
G1 X30.495 Y63.410 Z-3.180 F4003.000
G1 X11.590 Y44.505 Z-3.180 F4003.000
G1 X11.590 Y46.753 Z-3.180 F4003.000
G1 X28.247 Y63.410 Z-3.180 F4003.000
G1 X25.998 Y63.410 Z-3.180 F4003.000
G1 X11.590 Y49.002 Z-3.180 F4003.000
G1 X11.590 Y51.250 Z-3.180 F4003.000
G1 X23.750 Y63.410 Z-3.180 F4003.000
G1 X21.501 Y63.410 Z-3.180 F4003.000
G1 X11.590 Y53.499 Z-3.180 F4003.000
G1 X11.590 Y55.748 Z-3.180 F4003.000
G1 X19.252 Y63.410 Z-3.180 F4003.000
G1 X17.004 Y63.410 Z-3.180 F4003.000
G1 X11.590 Y57.996 Z-3.180 F4003.000
G1 X11.590 Y60.245 Z-3.180 F4003.000
G1 X14.755 Y63.410 Z-3.180 F4003.000
G1 X12.507 Y63.410 Z-3.180 F4003.000
G1 X11.590 Y63.410 Z-3.180 F4003.000
G1 X11.590 Y62.493 Z-3.180 F4003.000
G1 X12.507 Y63.410 Z-3.180 F4003.000
G1 X12.507 Y63.410 Z-5.000 F2001.000
G1 X11.590 Y62.493 Z-5.000 F4003.000
G1 X11.590 Y63.410 Z-5.000 F4003.000
G1 X12.507 Y63.410 Z-5.000 F4003.000
G1 X14.755 Y63.410 Z-5.000 F4003.000
G1 X11.590 Y60.245 Z-5.000 F4003.000
G1 X11.590 Y57.996 Z-5.000 F4003.000
G1 X17.004 Y63.410 Z-5.000 F4003.000
G1 X19.252 Y63.410 Z-5.000 F4003.000
G1 X11.590 Y55.748 Z-5.000 F4003.000
G1 X11.590 Y53.499 Z-5.000 F4003.000
G1 X21.501 Y63.410 Z-5.000 F4003.000
G1 X23.750 Y63.410 Z-5.000 F4003.000
G1 X11.590 Y51.250 Z-5.000 F4003.000
G1 X11.590 Y49.002 Z-5.000 F4003.000
G1 X25.998 Y63.410 Z-5.000 F4003.000
G1 X28.247 Y63.410 Z-5.000 F4003.000
G1 X11.590 Y46.753 Z-5.000 F4003.000
G1 X11.590 Y44.505 Z-5.000 F4003.000
G1 X30.495 Y63.410 Z-5.000 F4003.000
G1 X32.744 Y63.410 Z-5.000 F4003.000
G1 X11.590 Y42.256 Z-5.000 F4003.000
G1 X11.590 Y41.590 Z-5.000 F4003.000
G1 X13.173 Y41.590 Z-5.000 F4003.000
G1 X33.410 Y61.827 Z-5.000 F4003.000
G1 X33.410 Y59.579 Z-5.000 F4003.000
G1 X15.421 Y41.590 Z-5.000 F4003.000
G1 X17.670 Y41.590 Z-5.000 F4003.000
G1 X33.410 Y57.330 Z-5.000 F4003.000
G1 X33.410 Y55.082 Z-5.000 F4003.000
G1 X19.918 Y41.590 Z-5.000 F4003.000
G1 X22.167 Y41.590 Z-5.000 F4003.000
G1 X33.410 Y52.833 Z-5.000 F4003.000
G1 X33.410 Y50.584 Z-5.000 F4003.000
G1 X24.416 Y41.590 Z-5.000 F4003.000
G1 X26.664 Y41.590 Z-5.000 F4003.000
G1 X33.410 Y48.336 Z-5.000 F4003.000
G1 X33.410 Y46.087 Z-5.000 F4003.000
G1 X28.913 Y41.590 Z-5.000 F4003.000
G1 X31.161 Y41.590 Z-5.000 F4003.000
G1 X33.410 Y43.839 Z-5.000 F4003.000
G1 X33.410 Y41.590 Z-5.000 F4003.000
G0 Z10.000
G0 Y41.590 Z10.000
G0 Y41.590 Z5.000
G1 X33.410 Y41.590 Z-5.000 F2001.000
G1 X11.590 Y41.590 Z-5.000 F4003.000
G1 X11.590 Y63.410 Z-5.000 F4003.000
G1 X33.410 Y63.410 Z-5.000 F4003.000
G1 X33.410 Y41.590 Z-5.000 F4003.000
G0 Z10.000
G0 Z10.000
G0 X33.410 Y41.590
G0 Y71.590
G0 Y71.590 Z5.000
G1 X33.410 Y71.590 Z-3.180 F2001.000
G1 X11.590 Y71.590 Z-3.180 F4003.000
G1 X11.590 Y93.410 Z-3.180 F4003.000
G1 X33.410 Y93.410 Z-3.180 F4003.000
G1 X33.410 Y71.590 Z-3.180 F4003.000
G0 Z10.000
G0 Y93.410 Z10.000
G0 Y93.410 Z5.000
G1 X33.410 Y93.410 Z-3.180 F2001.000
G1 X31.161 Y93.410 Z-3.180 F4003.000
G1 X33.410 Y91.161 Z-3.180 F4003.000
G1 X33.410 Y88.913 Z-3.180 F4003.000
G1 X28.913 Y93.410 Z-3.180 F4003.000
G1 X26.664 Y93.410 Z-3.180 F4003.000
G1 X33.410 Y86.664 Z-3.180 F4003.000
G1 X33.410 Y84.416 Z-3.180 F4003.000
G1 X24.416 Y93.410 Z-3.180 F4003.000
G1 X22.167 Y93.410 Z-3.180 F4003.000
G1 X33.410 Y82.167 Z-3.180 F4003.000
G1 X33.410 Y79.918 Z-3.180 F4003.000
G1 X19.918 Y93.410 Z-3.180 F4003.000
G1 X17.670 Y93.410 Z-3.180 F4003.000
G1 X33.410 Y77.670 Z-3.180 F4003.000
G1 X33.410 Y75.421 Z-3.180 F4003.000
G1 X15.421 Y93.410 Z-3.180 F4003.000
G1 X13.173 Y93.410 Z-3.180 F4003.000
G1 X33.410 Y73.173 Z-3.180 F4003.000
G1 X33.410 Y71.590 Z-3.180 F4003.000
G1 X32.744 Y71.590 Z-3.180 F4003.000
G1 X11.590 Y92.744 Z-3.180 F4003.000
G1 X11.590 Y90.495 Z-3.180 F4003.000
G1 X30.495 Y71.590 Z-3.180 F4003.000
G1 X28.247 Y71.590 Z-3.180 F4003.000
G1 X11.590 Y88.247 Z-3.180 F4003.000
G1 X11.590 Y85.998 Z-3.180 F4003.000
G1 X25.998 Y71.590 Z-3.180 F4003.000
G1 X23.750 Y71.590 Z-3.180 F4003.000
G1 X11.590 Y83.750 Z-3.180 F4003.000
G1 X11.590 Y81.501 Z-3.180 F4003.000
G1 X21.501 Y71.590 Z-3.180 F4003.000
G1 X19.252 Y71.590 Z-3.180 F4003.000
G1 X11.590 Y79.252 Z-3.180 F4003.000
G1 X11.590 Y77.004 Z-3.180 F4003.000
G1 X17.004 Y71.590 Z-3.180 F4003.000
G1 X14.755 Y71.590 Z-3.180 F4003.000
G1 X11.590 Y74.755 Z-3.180 F4003.000
G1 X11.590 Y72.507 Z-3.180 F4003.000
G1 X11.590 Y71.590 Z-3.180 F4003.000
G1 X12.507 Y71.590 Z-3.180 F4003.000
G1 X11.590 Y72.507 Z-3.180 F4003.000
G1 X11.590 Y72.507 Z-5.000 F2001.000
G1 X12.507 Y71.590 Z-5.000 F4003.000
G1 X11.590 Y71.590 Z-5.000 F4003.000
G1 X11.590 Y72.507 Z-5.000 F4003.000
G1 X11.590 Y74.755 Z-5.000 F4003.000
G1 X14.755 Y71.590 Z-5.000 F4003.000
G1 X17.004 Y71.590 Z-5.000 F4003.000
G1 X11.590 Y77.004 Z-5.000 F4003.000
G1 X11.590 Y79.252 Z-5.000 F4003.000
G1 X19.252 Y71.590 Z-5.000 F4003.000
G1 X21.501 Y71.590 Z-5.000 F4003.000
G1 X11.590 Y81.501 Z-5.000 F4003.000
G1 X11.590 Y83.750 Z-5.000 F4003.000
G1 X23.750 Y71.590 Z-5.000 F4003.000
G1 X25.998 Y71.590 Z-5.000 F4003.000
G1 X11.590 Y85.998 Z-5.000 F4003.000
G1 X11.590 Y88.247 Z-5.000 F4003.000
G1 X28.247 Y71.590 Z-5.000 F4003.000
G1 X30.495 Y71.590 Z-5.000 F4003.000
G1 X11.590 Y90.495 Z-5.000 F4003.000
G1 X11.590 Y92.744 Z-5.000 F4003.000
G1 X32.744 Y71.590 Z-5.000 F4003.000
G1 X33.410 Y71.590 Z-5.000 F4003.000
G1 X33.410 Y73.173 Z-5.000 F4003.000
G1 X13.173 Y93.410 Z-5.000 F4003.000
G1 X15.421 Y93.410 Z-5.000 F4003.000
G1 X33.410 Y75.421 Z-5.000 F4003.000
G1 X33.410 Y77.670 Z-5.000 F4003.000
G1 X17.670 Y93.410 Z-5.000 F4003.000
G1 X19.918 Y93.410 Z-5.000 F4003.000
G1 X33.410 Y79.918 Z-5.000 F4003.000
G1 X33.410 Y82.167 Z-5.000 F4003.000
G1 X22.167 Y93.410 Z-5.000 F4003.000
G1 X24.416 Y93.410 Z-5.000 F4003.000
G1 X33.410 Y84.416 Z-5.000 F4003.000
G1 X33.410 Y86.664 Z-5.000 F4003.000
G1 X26.664 Y93.410 Z-5.000 F4003.000
G1 X28.913 Y93.410 Z-5.000 F4003.000
G1 X33.410 Y88.913 Z-5.000 F4003.000
G1 X33.410 Y91.161 Z-5.000 F4003.000
G1 X31.161 Y93.410 Z-5.000 F4003.000
G1 X33.410 Y93.410 Z-5.000 F4003.000
G1 X33.410 Y93.410 Z-5.000 F2001.000
G1 X33.410 Y71.590 Z-5.000 F4003.000
G1 X11.590 Y71.590 Z-5.000 F4003.000
G1 X11.590 Y93.410 Z-5.000 F4003.000
G1 X33.410 Y93.410 Z-5.000 F4003.000
G0 Z10.000
G0 Z10.000
G0 X33.410 Y93.410
G0 X41.590
G0 X41.590 Z5.000
G1 X41.590 Y93.410 Z-3.180 F2001.000
G1 X63.410 Y93.410 Z-3.180 F4003.000
G1 X63.410 Y71.590 Z-3.180 F4003.000
G1 X41.590 Y71.590 Z-3.180 F4003.000
G1 X41.590 Y93.410 Z-3.180 F4003.000
G0 Z10.000
G0 X42.507 Z10.000
G0 X42.507 Z5.000
G1 X42.507 Y93.410 Z-3.180 F2001.000
G1 X41.590 Y92.493 Z-3.180 F4003.000
G1 X41.590 Y93.410 Z-3.180 F4003.000
G1 X42.507 Y93.410 Z-3.180 F4003.000
G1 X44.755 Y93.410 Z-3.180 F4003.000
G1 X41.590 Y90.245 Z-3.180 F4003.000
G1 X41.590 Y87.996 Z-3.180 F4003.000
G1 X47.004 Y93.410 Z-3.180 F4003.000
G1 X49.252 Y93.410 Z-3.180 F4003.000
G1 X41.590 Y85.748 Z-3.180 F4003.000
G1 X41.590 Y83.499 Z-3.180 F4003.000
G1 X51.501 Y93.410 Z-3.180 F4003.000
G1 X53.750 Y93.410 Z-3.180 F4003.000
G1 X41.590 Y81.250 Z-3.180 F4003.000
G1 X41.590 Y79.002 Z-3.180 F4003.000
G1 X55.998 Y93.410 Z-3.180 F4003.000
G1 X58.247 Y93.410 Z-3.180 F4003.000
G1 X41.590 Y76.753 Z-3.180 F4003.000
G1 X41.590 Y74.505 Z-3.180 F4003.000
G1 X60.495 Y93.410 Z-3.180 F4003.000
G1 X62.744 Y93.410 Z-3.180 F4003.000
G1 X41.590 Y72.256 Z-3.180 F4003.000
G1 X41.590 Y71.590 Z-3.180 F4003.000
G1 X43.173 Y71.590 Z-3.180 F4003.000
G1 X63.410 Y91.827 Z-3.180 F4003.000
G1 X63.410 Y89.579 Z-3.180 F4003.000
G1 X45.421 Y71.590 Z-3.180 F4003.000
G1 X47.670 Y71.590 Z-3.180 F4003.000
G1 X63.410 Y87.330 Z-3.180 F4003.000
G1 X63.410 Y85.082 Z-3.180 F4003.000
G1 X49.918 Y71.590 Z-3.180 F4003.000
G1 X52.167 Y71.590 Z-3.180 F4003.000
G1 X63.410 Y82.833 Z-3.180 F4003.000
G1 X63.410 Y80.584 Z-3.180 F4003.000
G1 X54.416 Y71.590 Z-3.180 F4003.000
G1 X56.664 Y71.590 Z-3.180 F4003.000
G1 X63.410 Y78.336 Z-3.180 F4003.000
G1 X63.410 Y76.087 Z-3.180 F4003.000
G1 X58.913 Y71.590 Z-3.180 F4003.000
G1 X61.161 Y71.590 Z-3.180 F4003.000
G1 X63.410 Y73.839 Z-3.180 F4003.000
G1 X63.410 Y71.590 Z-3.180 F4003.000
G1 X63.410 Y71.590 Z-5.000 F2001.000
G1 X63.410 Y73.839 Z-5.000 F4003.000
G1 X61.161 Y71.590 Z-5.000 F4003.000
G1 X58.913 Y71.590 Z-5.000 F4003.000
G1 X63.410 Y76.087 Z-5.000 F4003.000
G1 X63.410 Y78.336 Z-5.000 F4003.000
G1 X56.664 Y71.590 Z-5.000 F4003.000
G1 X54.416 Y71.590 Z-5.000 F4003.000
G1 X63.410 Y80.584 Z-5.000 F4003.000
G1 X63.410 Y82.833 Z-5.000 F4003.000
G1 X52.167 Y71.590 Z-5.000 F4003.000
G1 X49.918 Y71.590 Z-5.000 F4003.000
G1 X63.410 Y85.082 Z-5.000 F4003.000
G1 X63.410 Y87.330 Z-5.000 F4003.000
G1 X47.670 Y71.590 Z-5.000 F4003.000
G1 X45.421 Y71.590 Z-5.000 F4003.000
G1 X63.410 Y89.579 Z-5.000 F4003.000
G1 X63.410 Y91.827 Z-5.000 F4003.000
G1 X43.173 Y71.590 Z-5.000 F4003.000
G1 X41.590 Y71.590 Z-5.000 F4003.000
G1 X41.590 Y72.256 Z-5.000 F4003.000
G1 X62.744 Y93.410 Z-5.000 F4003.000
G1 X60.495 Y93.410 Z-5.000 F4003.000
G1 X41.590 Y74.505 Z-5.000 F4003.000
G1 X41.590 Y76.753 Z-5.000 F4003.000
G1 X58.247 Y93.410 Z-5.000 F4003.000
G1 X55.998 Y93.410 Z-5.000 F4003.000
G1 X41.590 Y79.002 Z-5.000 F4003.000
G1 X41.590 Y81.250 Z-5.000 F4003.000
G1 X53.750 Y93.410 Z-5.000 F4003.000
G1 X51.501 Y93.410 Z-5.000 F4003.000
G1 X41.590 Y83.499 Z-5.000 F4003.000
G1 X41.590 Y85.748 Z-5.000 F4003.000
G1 X49.252 Y93.410 Z-5.000 F4003.000
G1 X47.004 Y93.410 Z-5.000 F4003.000
G1 X41.590 Y87.996 Z-5.000 F4003.000
G1 X41.590 Y90.245 Z-5.000 F4003.000
G1 X44.755 Y93.410 Z-5.000 F4003.000
G1 X42.507 Y93.410 Z-5.000 F4003.000
G1 X41.590 Y93.410 Z-5.000 F4003.000
G1 X41.590 Y92.493 Z-5.000 F4003.000
G1 X42.507 Y93.410 Z-5.000 F4003.000
G1 X42.507 Y93.410 Z-5.000 F2001.000
G1 X63.410 Y93.410 Z-5.000 F4003.000
G1 X63.410 Y71.590 Z-5.000 F4003.000
G1 X41.590 Y71.590 Z-5.000 F4003.000
G1 X41.590 Y93.410 Z-5.000 F4003.000
G1 X42.507 Y93.410 Z-5.000 F4003.000
G0 Z10.000
G0 Z10.000
G0 X42.507 Y93.410
G0 Y63.410
G0 Y63.410 Z5.000
G1 X42.507 Y63.410 Z-3.180 F2001.000
G1 X63.410 Y63.410 Z-3.180 F4003.000
G1 X63.410 Y41.590 Z-3.180 F4003.000
G1 X41.590 Y41.590 Z-3.180 F4003.000
G1 X41.590 Y63.410 Z-3.180 F4003.000
G1 X42.507 Y63.410 Z-3.180 F4003.000
G0 Z10.000
G0 X42.507 Y63.410 Z10.000
G0 X42.507 Y63.410 Z5.000
G1 X42.507 Y63.410 Z-3.180 F2001.000
G1 X41.590 Y63.410 Z-3.180 F4003.000
G1 X41.590 Y62.493 Z-3.180 F4003.000
G1 X42.507 Y63.410 Z-3.180 F4003.000
G1 X44.755 Y63.410 Z-3.180 F4003.000
G1 X41.590 Y60.245 Z-3.180 F4003.000
G1 X41.590 Y57.996 Z-3.180 F4003.000
G1 X47.004 Y63.410 Z-3.180 F4003.000
G1 X49.252 Y63.410 Z-3.180 F4003.000
G1 X41.590 Y55.748 Z-3.180 F4003.000
G1 X41.590 Y53.499 Z-3.180 F4003.000
G1 X51.501 Y63.410 Z-3.180 F4003.000
G1 X53.750 Y63.410 Z-3.180 F4003.000
G1 X41.590 Y51.250 Z-3.180 F4003.000
G1 X41.590 Y49.002 Z-3.180 F4003.000
G1 X55.998 Y63.410 Z-3.180 F4003.000
G1 X58.247 Y63.410 Z-3.180 F4003.000
G1 X41.590 Y46.753 Z-3.180 F4003.000
G1 X41.590 Y44.505 Z-3.180 F4003.000
G1 X60.495 Y63.410 Z-3.180 F4003.000
G1 X62.744 Y63.410 Z-3.180 F4003.000
G1 X41.590 Y42.256 Z-3.180 F4003.000
G1 X41.590 Y41.590 Z-3.180 F4003.000
G1 X43.173 Y41.590 Z-3.180 F4003.000
G1 X63.410 Y61.827 Z-3.180 F4003.000
G1 X63.410 Y59.579 Z-3.180 F4003.000
G1 X45.421 Y41.590 Z-3.180 F4003.000
G1 X47.670 Y41.590 Z-3.180 F4003.000
G1 X63.410 Y57.330 Z-3.180 F4003.000
G1 X63.410 Y55.082 Z-3.180 F4003.000
G1 X49.918 Y41.590 Z-3.180 F4003.000
G1 X52.167 Y41.590 Z-3.180 F4003.000
G1 X63.410 Y52.833 Z-3.180 F4003.000
G1 X63.410 Y50.584 Z-3.180 F4003.000
G1 X54.416 Y41.590 Z-3.180 F4003.000
G1 X56.664 Y41.590 Z-3.180 F4003.000
G1 X63.410 Y48.336 Z-3.180 F4003.000
G1 X63.410 Y46.087 Z-3.180 F4003.000
G1 X58.913 Y41.590 Z-3.180 F4003.000
G1 X61.161 Y41.590 Z-3.180 F4003.000
G1 X63.410 Y43.839 Z-3.180 F4003.000
G1 X63.410 Y41.590 Z-3.180 F4003.000
G0 Z10.000
G0 X63.410 Z10.000
G0 X63.410 Z5.000
G1 X63.410 Y41.590 Z-5.000 F2001.000
G1 X41.590 Y41.590 Z-5.000 F4003.000
G1 X41.590 Y63.410 Z-5.000 F4003.000
G1 X63.410 Y63.410 Z-5.000 F4003.000
G1 X63.410 Y41.590 Z-5.000 F4003.000
G0 Z10.000
G0 X63.410 Z10.000
G0 X63.410 Z5.000
G1 X63.410 Y41.590 Z-5.000 F2001.000
G1 X63.410 Y43.839 Z-5.000 F4003.000
G1 X61.161 Y41.590 Z-5.000 F4003.000
G1 X58.913 Y41.590 Z-5.000 F4003.000
G1 X63.410 Y46.087 Z-5.000 F4003.000
G1 X63.410 Y48.336 Z-5.000 F4003.000
G1 X56.664 Y41.590 Z-5.000 F4003.000
G1 X54.416 Y41.590 Z-5.000 F4003.000
G1 X63.410 Y50.584 Z-5.000 F4003.000
G1 X63.410 Y52.833 Z-5.000 F4003.000
G1 X52.167 Y41.590 Z-5.000 F4003.000
G1 X49.918 Y41.590 Z-5.000 F4003.000
G1 X63.410 Y55.082 Z-5.000 F4003.000
G1 X63.410 Y57.330 Z-5.000 F4003.000
G1 X47.670 Y41.590 Z-5.000 F4003.000
G1 X45.421 Y41.590 Z-5.000 F4003.000
G1 X63.410 Y59.579 Z-5.000 F4003.000
G1 X63.410 Y61.827 Z-5.000 F4003.000
G1 X43.173 Y41.590 Z-5.000 F4003.000
G1 X41.590 Y41.590 Z-5.000 F4003.000
G1 X41.590 Y42.256 Z-5.000 F4003.000
G1 X62.744 Y63.410 Z-5.000 F4003.000
G1 X60.495 Y63.410 Z-5.000 F4003.000
G1 X41.590 Y44.505 Z-5.000 F4003.000
G1 X41.590 Y46.753 Z-5.000 F4003.000
G1 X58.247 Y63.410 Z-5.000 F4003.000
G1 X55.998 Y63.410 Z-5.000 F4003.000
G1 X41.590 Y49.002 Z-5.000 F4003.000
G1 X41.590 Y51.250 Z-5.000 F4003.000
G1 X53.750 Y63.410 Z-5.000 F4003.000
G1 X51.501 Y63.410 Z-5.000 F4003.000
G1 X41.590 Y53.499 Z-5.000 F4003.000
G1 X41.590 Y55.748 Z-5.000 F4003.000
G1 X49.252 Y63.410 Z-5.000 F4003.000
G1 X47.004 Y63.410 Z-5.000 F4003.000
G1 X41.590 Y57.996 Z-5.000 F4003.000
G1 X41.590 Y60.245 Z-5.000 F4003.000
G1 X44.755 Y63.410 Z-5.000 F4003.000
G1 X42.507 Y63.410 Z-5.000 F4003.000
G1 X41.590 Y62.493 Z-5.000 F4003.000
G1 X41.590 Y63.410 Z-5.000 F4003.000
G1 X42.507 Y63.410 Z-5.000 F4003.000
G0 Z10.000
G0 Z10.000
G0 X42.507 Y63.410
G0 Y33.410
G0 Y33.410 Z5.000
G1 X42.507 Y33.410 Z-3.180 F2001.000
G1 X63.410 Y33.410 Z-3.180 F4003.000
G1 X63.410 Y11.590 Z-3.180 F4003.000
G1 X41.590 Y11.590 Z-3.180 F4003.000
G1 X41.590 Y33.410 Z-3.180 F4003.000
G1 X42.507 Y33.410 Z-3.180 F4003.000
G0 Z10.000
G0 X42.507 Y33.410 Z10.000
G0 X42.507 Y33.410 Z5.000
G1 X42.507 Y33.410 Z-3.180 F2001.000
G1 X41.590 Y32.493 Z-3.180 F4003.000
G1 X41.590 Y33.410 Z-3.180 F4003.000
G1 X42.507 Y33.410 Z-3.180 F4003.000
G1 X44.755 Y33.410 Z-3.180 F4003.000
G1 X41.590 Y30.245 Z-3.180 F4003.000
G1 X41.590 Y27.996 Z-3.180 F4003.000
G1 X47.004 Y33.410 Z-3.180 F4003.000
G1 X49.252 Y33.410 Z-3.180 F4003.000
G1 X41.590 Y25.748 Z-3.180 F4003.000
G1 X41.590 Y23.499 Z-3.180 F4003.000
G1 X51.501 Y33.410 Z-3.180 F4003.000
G1 X53.750 Y33.410 Z-3.180 F4003.000
G1 X41.590 Y21.250 Z-3.180 F4003.000
G1 X41.590 Y19.002 Z-3.180 F4003.000
G1 X55.998 Y33.410 Z-3.180 F4003.000
G1 X58.247 Y33.410 Z-3.180 F4003.000
G1 X41.590 Y16.753 Z-3.180 F4003.000
G1 X41.590 Y14.505 Z-3.180 F4003.000
G1 X60.495 Y33.410 Z-3.180 F4003.000
G1 X62.744 Y33.410 Z-3.180 F4003.000
G1 X41.590 Y12.256 Z-3.180 F4003.000
G1 X41.590 Y11.590 Z-3.180 F4003.000
G1 X43.173 Y11.590 Z-3.180 F4003.000
G1 X63.410 Y31.827 Z-3.180 F4003.000
G1 X63.410 Y29.579 Z-3.180 F4003.000
G1 X45.421 Y11.590 Z-3.180 F4003.000
G1 X47.670 Y11.590 Z-3.180 F4003.000
G1 X63.410 Y27.330 Z-3.180 F4003.000
G1 X63.410 Y25.082 Z-3.180 F4003.000
G1 X49.918 Y11.590 Z-3.180 F4003.000
G1 X52.167 Y11.590 Z-3.180 F4003.000
G1 X63.410 Y22.833 Z-3.180 F4003.000
G1 X63.410 Y20.584 Z-3.180 F4003.000
G1 X54.416 Y11.590 Z-3.180 F4003.000
G1 X56.664 Y11.590 Z-3.180 F4003.000
G1 X63.410 Y18.336 Z-3.180 F4003.000
G1 X63.410 Y16.087 Z-3.180 F4003.000
G1 X58.913 Y11.590 Z-3.180 F4003.000
G1 X61.161 Y11.590 Z-3.180 F4003.000
G1 X63.410 Y13.839 Z-3.180 F4003.000
G1 X63.410 Y11.590 Z-3.180 F4003.000
G1 X63.410 Y11.590 Z-5.000 F2001.000
G1 X63.410 Y13.839 Z-5.000 F4003.000
G1 X61.161 Y11.590 Z-5.000 F4003.000
G1 X58.913 Y11.590 Z-5.000 F4003.000
G1 X63.410 Y16.087 Z-5.000 F4003.000
G1 X63.410 Y18.336 Z-5.000 F4003.000
G1 X56.664 Y11.590 Z-5.000 F4003.000
G1 X54.416 Y11.590 Z-5.000 F4003.000
G1 X63.410 Y20.584 Z-5.000 F4003.000
G1 X63.410 Y22.833 Z-5.000 F4003.000
G1 X52.167 Y11.590 Z-5.000 F4003.000
G1 X49.918 Y11.590 Z-5.000 F4003.000
G1 X63.410 Y25.082 Z-5.000 F4003.000
G1 X63.410 Y27.330 Z-5.000 F4003.000
G1 X47.670 Y11.590 Z-5.000 F4003.000
G1 X45.421 Y11.590 Z-5.000 F4003.000
G1 X63.410 Y29.579 Z-5.000 F4003.000
G1 X63.410 Y31.827 Z-5.000 F4003.000
G1 X43.173 Y11.590 Z-5.000 F4003.000
G1 X41.590 Y11.590 Z-5.000 F4003.000
G1 X41.590 Y12.256 Z-5.000 F4003.000
G1 X62.744 Y33.410 Z-5.000 F4003.000
G1 X60.495 Y33.410 Z-5.000 F4003.000
G1 X41.590 Y14.505 Z-5.000 F4003.000
G1 X41.590 Y16.753 Z-5.000 F4003.000
G1 X58.247 Y33.410 Z-5.000 F4003.000
G1 X55.998 Y33.410 Z-5.000 F4003.000
G1 X41.590 Y19.002 Z-5.000 F4003.000
G1 X41.590 Y21.250 Z-5.000 F4003.000
G1 X53.750 Y33.410 Z-5.000 F4003.000
G1 X51.501 Y33.410 Z-5.000 F4003.000
G1 X41.590 Y23.499 Z-5.000 F4003.000
G1 X41.590 Y25.748 Z-5.000 F4003.000
G1 X49.252 Y33.410 Z-5.000 F4003.000
G1 X47.004 Y33.410 Z-5.000 F4003.000
G1 X41.590 Y27.996 Z-5.000 F4003.000
G1 X41.590 Y30.245 Z-5.000 F4003.000
G1 X44.755 Y33.410 Z-5.000 F4003.000
G1 X42.507 Y33.410 Z-5.000 F4003.000
G1 X41.590 Y33.410 Z-5.000 F4003.000
G1 X41.590 Y32.493 Z-5.000 F4003.000
G1 X42.507 Y33.410 Z-5.000 F4003.000
G0 Z10.000
G0 Y33.410 Z10.000
G0 Y33.410 Z5.000
G1 X42.507 Y33.410 Z-5.000 F2001.000
G1 X63.410 Y33.410 Z-5.000 F4003.000
G1 X63.410 Y11.590 Z-5.000 F4003.000
G1 X41.590 Y11.590 Z-5.000 F4003.000
G1 X41.590 Y33.410 Z-5.000 F4003.000
G1 X42.507 Y33.410 Z-5.000 F4003.000
G0 Z10.000
G0 Z10.000
G0 X42.507 Y33.410
G0 X71.590
G0 X71.590 Z5.000
G1 X71.590 Y33.410 Z-3.180 F2001.000
G1 X93.410 Y33.410 Z-3.180 F4003.000
G1 X93.410 Y11.590 Z-3.180 F4003.000
G1 X71.590 Y11.590 Z-3.180 F4003.000
G1 X71.590 Y33.410 Z-3.180 F4003.000
G0 Z10.000
G0 X72.507 Z10.000
G0 X72.507 Z5.000
G1 X72.507 Y33.410 Z-3.180 F2001.000
G1 X71.590 Y32.493 Z-3.180 F4003.000
G1 X71.590 Y33.410 Z-3.180 F4003.000
G1 X72.507 Y33.410 Z-3.180 F4003.000
G1 X74.755 Y33.410 Z-3.180 F4003.000
G1 X71.590 Y30.245 Z-3.180 F4003.000
G1 X71.590 Y27.996 Z-3.180 F4003.000
G1 X77.004 Y33.410 Z-3.180 F4003.000
G1 X79.252 Y33.410 Z-3.180 F4003.000
G1 X71.590 Y25.748 Z-3.180 F4003.000
G1 X71.590 Y23.499 Z-3.180 F4003.000
G1 X81.501 Y33.410 Z-3.180 F4003.000
G1 X83.750 Y33.410 Z-3.180 F4003.000
G1 X71.590 Y21.250 Z-3.180 F4003.000
G1 X71.590 Y19.002 Z-3.180 F4003.000
G1 X85.998 Y33.410 Z-3.180 F4003.000
G1 X88.247 Y33.410 Z-3.180 F4003.000
G1 X71.590 Y16.753 Z-3.180 F4003.000
G1 X71.590 Y14.505 Z-3.180 F4003.000
G1 X90.495 Y33.410 Z-3.180 F4003.000
G1 X92.744 Y33.410 Z-3.180 F4003.000
G1 X71.590 Y12.256 Z-3.180 F4003.000
G1 X71.590 Y11.590 Z-3.180 F4003.000
G1 X73.173 Y11.590 Z-3.180 F4003.000
G1 X93.410 Y31.827 Z-3.180 F4003.000
G1 X93.410 Y29.579 Z-3.180 F4003.000
G1 X75.421 Y11.590 Z-3.180 F4003.000
G1 X77.670 Y11.590 Z-3.180 F4003.000
G1 X93.410 Y27.330 Z-3.180 F4003.000
G1 X93.410 Y25.082 Z-3.180 F4003.000
G1 X79.918 Y11.590 Z-3.180 F4003.000
G1 X82.167 Y11.590 Z-3.180 F4003.000
G1 X93.410 Y22.833 Z-3.180 F4003.000
G1 X93.410 Y20.584 Z-3.180 F4003.000
G1 X84.416 Y11.590 Z-3.180 F4003.000
G1 X86.664 Y11.590 Z-3.180 F4003.000
G1 X93.410 Y18.336 Z-3.180 F4003.000
G1 X93.410 Y16.087 Z-3.180 F4003.000
G1 X88.913 Y11.590 Z-3.180 F4003.000
G1 X91.161 Y11.590 Z-3.180 F4003.000
G1 X93.410 Y13.839 Z-3.180 F4003.000
G1 X93.410 Y11.590 Z-3.180 F4003.000
G1 X93.410 Y11.590 Z-5.000 F2001.000
G1 X93.410 Y13.839 Z-5.000 F4003.000
G1 X91.161 Y11.590 Z-5.000 F4003.000
G1 X88.913 Y11.590 Z-5.000 F4003.000
G1 X93.410 Y16.087 Z-5.000 F4003.000
G1 X93.410 Y18.336 Z-5.000 F4003.000
G1 X86.664 Y11.590 Z-5.000 F4003.000
G1 X84.416 Y11.590 Z-5.000 F4003.000
G1 X93.410 Y20.584 Z-5.000 F4003.000
G1 X93.410 Y22.833 Z-5.000 F4003.000
G1 X82.167 Y11.590 Z-5.000 F4003.000
G1 X79.918 Y11.590 Z-5.000 F4003.000
G1 X93.410 Y25.082 Z-5.000 F4003.000
G1 X93.410 Y27.330 Z-5.000 F4003.000
G1 X77.670 Y11.590 Z-5.000 F4003.000
G1 X75.421 Y11.590 Z-5.000 F4003.000
G1 X93.410 Y29.579 Z-5.000 F4003.000
G1 X93.410 Y31.827 Z-5.000 F4003.000
G1 X73.173 Y11.590 Z-5.000 F4003.000
G1 X71.590 Y11.590 Z-5.000 F4003.000
G1 X71.590 Y12.256 Z-5.000 F4003.000
G1 X92.744 Y33.410 Z-5.000 F4003.000
G1 X90.495 Y33.410 Z-5.000 F4003.000
G1 X71.590 Y14.505 Z-5.000 F4003.000
G1 X71.590 Y16.753 Z-5.000 F4003.000
G1 X88.247 Y33.410 Z-5.000 F4003.000
G1 X85.998 Y33.410 Z-5.000 F4003.000
G1 X71.590 Y19.002 Z-5.000 F4003.000
G1 X71.590 Y21.250 Z-5.000 F4003.000
G1 X83.750 Y33.410 Z-5.000 F4003.000
G1 X81.501 Y33.410 Z-5.000 F4003.000
G1 X71.590 Y23.499 Z-5.000 F4003.000
G1 X71.590 Y25.748 Z-5.000 F4003.000
G1 X79.252 Y33.410 Z-5.000 F4003.000
G1 X77.004 Y33.410 Z-5.000 F4003.000
G1 X71.590 Y27.996 Z-5.000 F4003.000
G1 X71.590 Y30.245 Z-5.000 F4003.000
G1 X74.755 Y33.410 Z-5.000 F4003.000
G1 X72.507 Y33.410 Z-5.000 F4003.000
G1 X71.590 Y33.410 Z-5.000 F4003.000
G1 X71.590 Y32.493 Z-5.000 F4003.000
G1 X72.507 Y33.410 Z-5.000 F4003.000
G1 X72.507 Y33.410 Z-5.000 F2001.000
G1 X93.410 Y33.410 Z-5.000 F4003.000
G1 X93.410 Y11.590 Z-5.000 F4003.000
G1 X71.590 Y11.590 Z-5.000 F4003.000
G1 X71.590 Y33.410 Z-5.000 F4003.000
G1 X72.507 Y33.410 Z-5.000 F4003.000
G0 Z10.000
G0 Z10.000
G0 X72.507 Y33.410
G0 Y41.590
G0 Y41.590 Z5.000
G1 X72.507 Y41.590 Z-3.180 F2001.000
G1 X71.590 Y41.590 Z-3.180 F4003.000
G1 X71.590 Y63.410 Z-3.180 F4003.000
G1 X93.410 Y63.410 Z-3.180 F4003.000
G1 X93.410 Y41.590 Z-3.180 F4003.000
G1 X72.507 Y41.590 Z-3.180 F4003.000
G0 Z10.000
G0 X71.590 Y42.507 Z10.000
G0 X71.590 Y42.507 Z5.000
G1 X71.590 Y42.507 Z-3.180 F2001.000
G1 X72.507 Y41.590 Z-3.180 F4003.000
G1 X71.590 Y41.590 Z-3.180 F4003.000
G1 X71.590 Y42.507 Z-3.180 F4003.000
G1 X71.590 Y44.755 Z-3.180 F4003.000
G1 X74.755 Y41.590 Z-3.180 F4003.000
G1 X77.004 Y41.590 Z-3.180 F4003.000
G1 X71.590 Y47.004 Z-3.180 F4003.000
G1 X71.590 Y49.252 Z-3.180 F4003.000
G1 X79.252 Y41.590 Z-3.180 F4003.000
G1 X81.501 Y41.590 Z-3.180 F4003.000
G1 X71.590 Y51.501 Z-3.180 F4003.000
G1 X71.590 Y53.750 Z-3.180 F4003.000
G1 X83.750 Y41.590 Z-3.180 F4003.000
G1 X85.998 Y41.590 Z-3.180 F4003.000
G1 X71.590 Y55.998 Z-3.180 F4003.000
G1 X71.590 Y58.247 Z-3.180 F4003.000
G1 X88.247 Y41.590 Z-3.180 F4003.000
G1 X90.495 Y41.590 Z-3.180 F4003.000
G1 X71.590 Y60.495 Z-3.180 F4003.000
G1 X71.590 Y62.744 Z-3.180 F4003.000
G1 X92.744 Y41.590 Z-3.180 F4003.000
G1 X93.410 Y41.590 Z-3.180 F4003.000
G1 X93.410 Y43.173 Z-3.180 F4003.000
G1 X73.173 Y63.410 Z-3.180 F4003.000
G1 X75.421 Y63.410 Z-3.180 F4003.000
G1 X93.410 Y45.421 Z-3.180 F4003.000
G1 X93.410 Y47.670 Z-3.180 F4003.000
G1 X77.670 Y63.410 Z-3.180 F4003.000
G1 X79.918 Y63.410 Z-3.180 F4003.000
G1 X93.410 Y49.918 Z-3.180 F4003.000
G1 X93.410 Y52.167 Z-3.180 F4003.000
G1 X82.167 Y63.410 Z-3.180 F4003.000
G1 X84.416 Y63.410 Z-3.180 F4003.000
G1 X93.410 Y54.416 Z-3.180 F4003.000
G1 X93.410 Y56.664 Z-3.180 F4003.000
G1 X86.664 Y63.410 Z-3.180 F4003.000
G1 X88.913 Y63.410 Z-3.180 F4003.000
G1 X93.410 Y58.913 Z-3.180 F4003.000
G1 X93.410 Y61.161 Z-3.180 F4003.000
G1 X91.161 Y63.410 Z-3.180 F4003.000
G1 X93.410 Y63.410 Z-3.180 F4003.000
G1 X93.410 Y63.410 Z-5.000 F2001.000
G1 X91.161 Y63.410 Z-5.000 F4003.000
G1 X93.410 Y61.161 Z-5.000 F4003.000
G1 X93.410 Y58.913 Z-5.000 F4003.000
G1 X88.913 Y63.410 Z-5.000 F4003.000
G1 X86.664 Y63.410 Z-5.000 F4003.000
G1 X93.410 Y56.664 Z-5.000 F4003.000
G1 X93.410 Y54.416 Z-5.000 F4003.000
G1 X84.416 Y63.410 Z-5.000 F4003.000
G1 X82.167 Y63.410 Z-5.000 F4003.000
G1 X93.410 Y52.167 Z-5.000 F4003.000
G1 X93.410 Y49.918 Z-5.000 F4003.000
G1 X79.918 Y63.410 Z-5.000 F4003.000
G1 X77.670 Y63.410 Z-5.000 F4003.000
G1 X93.410 Y47.670 Z-5.000 F4003.000
G1 X93.410 Y45.421 Z-5.000 F4003.000
G1 X75.421 Y63.410 Z-5.000 F4003.000
G1 X73.173 Y63.410 Z-5.000 F4003.000
G1 X93.410 Y43.173 Z-5.000 F4003.000
G1 X93.410 Y41.590 Z-5.000 F4003.000
G1 X92.744 Y41.590 Z-5.000 F4003.000
G1 X71.590 Y62.744 Z-5.000 F4003.000
G1 X71.590 Y60.495 Z-5.000 F4003.000
G1 X90.495 Y41.590 Z-5.000 F4003.000
G1 X88.247 Y41.590 Z-5.000 F4003.000
G1 X71.590 Y58.247 Z-5.000 F4003.000
G1 X71.590 Y55.998 Z-5.000 F4003.000
G1 X85.998 Y41.590 Z-5.000 F4003.000
G1 X83.750 Y41.590 Z-5.000 F4003.000
G1 X71.590 Y53.750 Z-5.000 F4003.000
G1 X71.590 Y51.501 Z-5.000 F4003.000
G1 X81.501 Y41.590 Z-5.000 F4003.000
G1 X79.252 Y41.590 Z-5.000 F4003.000
G1 X71.590 Y49.252 Z-5.000 F4003.000
G1 X71.590 Y47.004 Z-5.000 F4003.000
G1 X77.004 Y41.590 Z-5.000 F4003.000
G1 X74.755 Y41.590 Z-5.000 F4003.000
G1 X71.590 Y44.755 Z-5.000 F4003.000
G1 X71.590 Y42.507 Z-5.000 F4003.000
G1 X71.590 Y41.590 Z-5.000 F4003.000
G1 X72.507 Y41.590 Z-5.000 F4003.000
G1 X71.590 Y42.507 Z-5.000 F4003.000
G1 X71.590 Y42.507 Z-5.000 F2001.000
G1 X71.590 Y63.410 Z-5.000 F4003.000
G1 X93.410 Y63.410 Z-5.000 F4003.000
G1 X93.410 Y41.590 Z-5.000 F4003.000
G1 X71.590 Y41.590 Z-5.000 F4003.000
G1 X71.590 Y42.507 Z-5.000 F4003.000
G0 Z10.000
G0 Z10.000
G0 X71.590 Y42.507
G0 Y71.590
G0 Y71.590 Z5.000
G1 X71.590 Y71.590 Z-3.180 F2001.000
G1 X71.590 Y93.410 Z-3.180 F4003.000
G1 X93.410 Y93.410 Z-3.180 F4003.000
G1 X93.410 Y71.590 Z-3.180 F4003.000
G1 X71.590 Y71.590 Z-3.180 F4003.000
G0 Z10.000
G0 X93.410 Z10.000
G0 X93.410 Z5.000
G1 X93.410 Y71.590 Z-3.180 F2001.000
G1 X93.410 Y73.839 Z-3.180 F4003.000
G1 X91.161 Y71.590 Z-3.180 F4003.000
G1 X88.913 Y71.590 Z-3.180 F4003.000
G1 X93.410 Y76.087 Z-3.180 F4003.000
G1 X93.410 Y78.336 Z-3.180 F4003.000
G1 X86.664 Y71.590 Z-3.180 F4003.000
G1 X84.416 Y71.590 Z-3.180 F4003.000
G1 X93.410 Y80.584 Z-3.180 F4003.000
G1 X93.410 Y82.833 Z-3.180 F4003.000
G1 X82.167 Y71.590 Z-3.180 F4003.000
G1 X79.918 Y71.590 Z-3.180 F4003.000
G1 X93.410 Y85.082 Z-3.180 F4003.000
G1 X93.410 Y87.330 Z-3.180 F4003.000
G1 X77.670 Y71.590 Z-3.180 F4003.000
G1 X75.421 Y71.590 Z-3.180 F4003.000
G1 X93.410 Y89.579 Z-3.180 F4003.000
G1 X93.410 Y91.827 Z-3.180 F4003.000
G1 X73.173 Y71.590 Z-3.180 F4003.000
G1 X71.590 Y71.590 Z-3.180 F4003.000
G1 X71.590 Y72.256 Z-3.180 F4003.000
G1 X92.744 Y93.410 Z-3.180 F4003.000
G1 X90.495 Y93.410 Z-3.180 F4003.000
G1 X71.590 Y74.505 Z-3.180 F4003.000
G1 X71.590 Y76.753 Z-3.180 F4003.000
G1 X88.247 Y93.410 Z-3.180 F4003.000
G1 X85.998 Y93.410 Z-3.180 F4003.000
G1 X71.590 Y79.002 Z-3.180 F4003.000
G1 X71.590 Y81.250 Z-3.180 F4003.000
G1 X83.750 Y93.410 Z-3.180 F4003.000
G1 X81.501 Y93.410 Z-3.180 F4003.000
G1 X71.590 Y83.499 Z-3.180 F4003.000
G1 X71.590 Y85.748 Z-3.180 F4003.000
G1 X79.252 Y93.410 Z-3.180 F4003.000
G1 X77.004 Y93.410 Z-3.180 F4003.000
G1 X71.590 Y87.996 Z-3.180 F4003.000
G1 X71.590 Y90.245 Z-3.180 F4003.000
G1 X74.755 Y93.410 Z-3.180 F4003.000
G1 X72.507 Y93.410 Z-3.180 F4003.000
G1 X71.590 Y93.410 Z-3.180 F4003.000
G1 X71.590 Y92.493 Z-3.180 F4003.000
G1 X72.507 Y93.410 Z-3.180 F4003.000
G1 X72.507 Y93.410 Z-5.000 F2001.000
G1 X71.590 Y92.493 Z-5.000 F4003.000
G1 X71.590 Y93.410 Z-5.000 F4003.000
G1 X72.507 Y93.410 Z-5.000 F4003.000
G1 X74.755 Y93.410 Z-5.000 F4003.000
G1 X71.590 Y90.245 Z-5.000 F4003.000
G1 X71.590 Y87.996 Z-5.000 F4003.000
G1 X77.004 Y93.410 Z-5.000 F4003.000
G1 X79.252 Y93.410 Z-5.000 F4003.000
G1 X71.590 Y85.748 Z-5.000 F4003.000
G1 X71.590 Y83.499 Z-5.000 F4003.000
G1 X81.501 Y93.410 Z-5.000 F4003.000
G1 X83.750 Y93.410 Z-5.000 F4003.000
G1 X71.590 Y81.250 Z-5.000 F4003.000
G1 X71.590 Y79.002 Z-5.000 F4003.000
G1 X85.998 Y93.410 Z-5.000 F4003.000
G1 X88.247 Y93.410 Z-5.000 F4003.000
G1 X71.590 Y76.753 Z-5.000 F4003.000
G1 X71.590 Y74.505 Z-5.000 F4003.000
G1 X90.495 Y93.410 Z-5.000 F4003.000
G1 X92.744 Y93.410 Z-5.000 F4003.000
G1 X71.590 Y72.256 Z-5.000 F4003.000
G1 X71.590 Y71.590 Z-5.000 F4003.000
G1 X73.173 Y71.590 Z-5.000 F4003.000
G1 X93.410 Y91.827 Z-5.000 F4003.000
G1 X93.410 Y89.579 Z-5.000 F4003.000
G1 X75.421 Y71.590 Z-5.000 F4003.000
G1 X77.670 Y71.590 Z-5.000 F4003.000
G1 X93.410 Y87.330 Z-5.000 F4003.000
G1 X93.410 Y85.082 Z-5.000 F4003.000
G1 X79.918 Y71.590 Z-5.000 F4003.000
G1 X82.167 Y71.590 Z-5.000 F4003.000
G1 X93.410 Y82.833 Z-5.000 F4003.000
G1 X93.410 Y80.584 Z-5.000 F4003.000
G1 X84.416 Y71.590 Z-5.000 F4003.000
G1 X86.664 Y71.590 Z-5.000 F4003.000
G1 X93.410 Y78.336 Z-5.000 F4003.000
G1 X93.410 Y76.087 Z-5.000 F4003.000
G1 X88.913 Y71.590 Z-5.000 F4003.000
G1 X91.161 Y71.590 Z-5.000 F4003.000
G1 X93.410 Y73.839 Z-5.000 F4003.000
G1 X93.410 Y71.590 Z-5.000 F4003.000
G1 X93.410 Y71.590 Z-5.000 F2001.000
G1 X71.590 Y71.590 Z-5.000 F4003.000
G1 X71.590 Y93.410 Z-5.000 F4003.000
G1 X93.410 Y93.410 Z-5.000 F4003.000
G1 X93.410 Y71.590 Z-5.000 F4003.000
G0 Z10.000
G0 Z10.000
(Finish operation: Pocket_Shape)
(Begin postamble)
M5
G17 G90
M2
